assets/luts/clean_neutral.cube
TITLE "myaniform/clean_neutral"
LUT_3D_SIZE 33
DOMAIN_MIN 0.0 0.0 0.0
DOMAIN_MAX 1.0 1.0 1.0
0.011765 0.007843 0.000000
0.043137 0.007843 0.000000
0.070588 0.007843 0.000000
0.101961 0.007843 0.000000
0.129412 0.011765 0.000000
0.160784 0.007843 0.000000
0.188235 0.007843 0.000000
0.219608 0.011765 0.000000
0.243137 0.011765 0.000000
0.274510 0.011765 0.000000
0.301961 0.019608 0.000000
0.333333 0.019608 0.003922
0.360784 0.019608 0.003922
0.396078 0.015686 0.003922
0.411765 0.019608 0.011765
0.447059 0.019608 0.011765
0.474510 0.019608 0.011765
0.498039 0.015686 0.007843
0.525490 0.019608 0.011765
0.552941 0.019608 0.011765
0.588235 0.019608 0.003922
0.607843 0.023529 0.007843
0.643137 0.019608 0.007843
0.670588 0.023529 0.007843
0.705882 0.019608 0.011765
0.725490 0.023529 0.011765
0.760784 0.023529 0.011765
0.788235 0.023529 0.015686
0.815686 0.023529 0.015686
0.847059 0.023529 0.015686
0.878431 0.023529 0.015686
0.905882 0.027451 0.011765
0.933333 0.027451 0.011765
0.011765 0.039216 0.000000
0.043137 0.039216 0.000000
0.070588 0.039216 0.000000
0.105882 0.035294 0.000000
0.129412 0.043137 0.000000
0.160784 0.039216 0.000000
0.188235 0.039216 0.000000
0.215686 0.043137 0.000000
0.243137 0.043137 0.000000
0.278431 0.047059 0.000000
0.309804 0.047059 0.000000
0.333333 0.047059 0.003922
0.360784 0.050980 0.007843
0.396078 0.047059 0.007843
0.419608 0.047059 0.011765
0.443137 0.047059 0.007843
0.470588 0.047059 0.011765
0.498039 0.047059 0.011765
0.525490 0.050980 0.003922
0.552941 0.050980 0.007843
0.588235 0.050980 0.007843
0.615686 0.050980 0.007843
0.643137 0.050980 0.011765
0.670588 0.050980 0.019608
0.705882 0.050980 0.011765
0.733333 0.050980 0.015686
0.760784 0.050980 0.015686
0.788235 0.054902 0.015686
0.823529 0.050980 0.015686
0.850980 0.054902 0.011765
0.878431 0.054902 0.011765
0.913725 0.054902 0.011765
0.945098 0.058824 0.019608
0.015686 0.066667 0.000000
0.043137 0.070588 0.000000
0.070588 0.070588 0.000000
0.105882 0.066667 0.000000
0.133333 0.070588 0.000000
0.160784 0.070588 0.000000
0.188235 0.074510 0.000000
0.223529 0.070588 0.000000
0.247059 0.078431 0.000000
0.278431 0.078431 0.000000
0.305882 0.078431 0.003922
0.337255 0.078431 0.007843
0.360784 0.082353 0.007843
0.388235 0.074510 0.003922
0.411765 0.074510 0.011765
0.439216 0.074510 0.011765
0.470588 0.078431 0.003922
0.498039 0.078431 0.007843
0.529412 0.078431 0.007843
0.552941 0.082353 0.007843
0.588235 0.078431 0.011765
0.615686 0.078431 0.019608
0.647059 0.078431 0.011765
0.670588 0.082353 0.015686
0.705882 0.082353 0.015686
0.737255 0.078431 0.015686
0.760784 0.082353 0.015686
0.796078 0.082353 0.011765
0.823529 0.082353 0.011765
0.854902 0.082353 0.011765
0.878431 0.086275 0.015686
0.913725 0.082353 0.023529
0.945098 0.090196 0.019608
0.015686 0.098039 0.000000
0.047059 0.098039 0.000000
0.070588 0.101961 0.000000
0.105882 0.101961 0.000000
0.133333 0.101961 0.000000
0.168627 0.098039 0.000000
0.188235 0.101961 0.000000
0.223529 0.101961 0.000000
0.250980 0.105882 0.011765
0.278431 0.109804 0.003922
0.305882 0.109804 0.003922
0.333333 0.101961 0.003922
0.360784 0.105882 0.007843
0.388235 0.105882 0.007843
0.411765 0.105882 0.003922
0.447059 0.105882 0.007843
0.466667 0.109804 0.007843
0.498039 0.109804 0.007843
0.529412 0.109804 0.011765
0.556863 0.109804 0.019608
0.584314 0.109804 0.011765
0.619608 0.109804 0.015686
0.647059 0.109804 0.015686
0.674510 0.109804 0.015686
0.705882 0.113725 0.015686
0.737255 0.113725 0.011765
0.764706 0.113725 0.011765
0.796078 0.113725 0.011765
0.823529 0.113725 0.015686
0.854902 0.109804 0.023529
0.882353 0.113725 0.023529
0.917647 0.121569 0.023529
0.945098 0.121569 0.023529
0.015686 0.129412 0.000000
0.047059 0.129412 0.000000
0.074510 0.129412 0.000000
0.105882 0.133333 0.000000
0.133333 0.133333 0.000000
0.164706 0.129412 0.000000
0.196078 0.129412 0.003922
0.223529 0.137255 0.003922
0.250980 0.137255 0.003922
0.278431 0.133333 0.000000
0.301961 0.137255 0.003922
0.333333 0.133333 0.007843
0.360784 0.137255 0.000000
0.396078 0.133333 0.003922
0.411765 0.137255 0.007843
0.447059 0.137255 0.007843
0.474510 0.137255 0.011765
0.501961 0.137255 0.019608
0.529412 0.141176 0.011765
0.564706 0.137255 0.015686
0.592157 0.137255 0.015686
0.619608 0.141176 0.015686
0.647059 0.141176 0.015686
0.682353 0.137255 0.019608
0.701961 0.145098 0.011765
0.737255 0.141176 0.011765
0.764706 0.145098 0.015686
0.800000 0.141176 0.023529
0.819608 0.145098 0.023529
0.854902 0.145098 0.019608
0.886275 0.149020 0.023529
0.917647 0.149020 0.023529
0.945098 0.152941 0.027451
0.015686 0.160784 0.000000
0.047059 0.160784 0.000000
0.074510 0.160784 0.000000
0.109804 0.160784 0.000000
0.133333 0.160784 0.003922
0.164706 0.160784 0.000000
0.192157 0.160784 0.000000
0.223529 0.164706 0.000000
0.247059 0.164706 0.003922
0.278431 0.160784 0.003922
0.305882 0.164706 0.000000
0.333333 0.164706 0.003922
0.360784 0.168627 0.003922
0.392157 0.164706 0.003922
0.419608 0.164706 0.011765
0.447059 0.164706 0.019608
0.478431 0.164706 0.011765
0.505882 0.164706 0.015686
0.529412 0.172549 0.015686
0.564706 0.168627 0.015686
0.592157 0.168627 0.015686
0.627451 0.168627 0.019608
0.647059 0.172549 0.011765
0.682353 0.172549 0.011765
0.709804 0.172549 0.015686
0.737255 0.172549 0.023529
0.764706 0.172549 0.023529
0.800000 0.172549 0.019608
0.827451 0.172549 0.019608
0.854902 0.176471 0.019608
0.886275 0.180392 0.027451
0.917647 0.172549 0.023529
0.937255 0.176471 0.023529
0.019608 0.188235 0.000000
0.047059 0.192157 0.000000
0.074510 0.192157 0.003922
0.109804 0.188235 0.000000
0.137255 0.192157 0.000000
0.160784 0.188235 0.000000
0.192157 0.192157 0.000000
0.223529 0.192157 0.003922
0.247059 0.196078 0.003922
0.278431 0.196078 0.000000
0.305882 0.196078 0.000000
0.337255 0.192157 0.003922
0.364706 0.196078 0.007843
0.392157 0.196078 0.015686
0.423529 0.192157 0.011765
0.447059 0.200000 0.015686
0.478431 0.196078 0.015686
0.505882 0.196078 0.015686
0.533333 0.200000 0.015686
0.564706 0.200000 0.019608
0.592157 0.203922 0.011765
0.623529 0.200000 0.011765
0.654902 0.200000 0.015686
0.682353 0.200000 0.023529
0.709804 0.203922 0.023529
0.741176 0.200000 0.027451
0.764706 0.203922 0.019608
0.800000 0.203922 0.019608
0.827451 0.203922 0.023529
0.862745 0.203922 0.023529
0.882353 0.207843 0.023529
0.917647 0.207843 0.015686
0.945098 0.207843 0.019608
0.015686 0.219608 0.007843
0.050980 0.215686 0.007843
0.070588 0.223529 0.000000
0.105882 0.215686 0.000000
0.133333 0.215686 0.000000
0.160784 0.223529 0.003922
0.188235 0.223529 0.003922
0.223529 0.223529 0.000000
0.258824 0.223529 0.000000
0.278431 0.227451 0.000000
0.313726 0.223529 0.003922
0.337255 0.223529 0.015686
0.364706 0.227451 0.007843
0.392157 0.227451 0.011765
0.423529 0.223529 0.015686
0.450980 0.227451 0.015686
0.478431 0.227451 0.015686
0.505882 0.227451 0.019608
0.533333 0.231373 0.011765
0.568627 0.227451 0.011765
0.592157 0.231373 0.015686
0.623529 0.231373 0.023529
0.650980 0.231373 0.023529
0.682353 0.231373 0.027451
0.709804 0.235294 0.019608
0.741176 0.231373 0.019608
0.768627 0.235294 0.023529
0.800000 0.235294 0.023529
0.823529 0.231373 0.019608
0.858824 0.235294 0.015686
0.890196 0.235294 0.019608
0.917647 0.239216 0.019608
0.945098 0.235294 0.027451
0.015686 0.250980 0.000000
0.043137 0.243137 0.000000
0.070588 0.247059 0.000000
0.098039 0.247059 0.000000
0.133333 0.247059 0.000000
0.164706 0.250980 0.000000
0.196078 0.254902 0.000000
0.223529 0.254902 0.000000
0.254902 0.250980 0.003922
0.286275 0.250980 0.011765
0.309804 0.254902 0.015686
0.337255 0.254902 0.011765
0.372549 0.254902 0.011765
0.392157 0.258824 0.011765
0.423529 0.254902 0.015686
0.450980 0.258824 0.019608
0.486275 0.254902 0.011765
0.505882 0.258824 0.011765
0.533333 0.262745 0.015686
0.568627 0.258824 0.023529
0.596078 0.258824 0.023529
0.623529 0.258824 0.027451
0.650980 0.262745 0.019608
0.686275 0.262745 0.019608
0.709804 0.266667 0.023529
0.741176 0.262745 0.023529
0.764706 0.258824 0.019608
0.800000 0.258824 0.011765
0.827451 0.266667 0.019608
0.858824 0.266667 0.019608
0.886275 0.266667 0.027451
0.917647 0.266667 0.031373
0.945098 0.266667 0.031373
0.015686 0.274510 0.000000
0.043137 0.274510 0.000000
0.078431 0.274510 0.000000
0.105882 0.274510 0.003922
0.137255 0.282353 0.000000
0.164706 0.282353 0.000000
0.200000 0.282353 0.003922
0.223529 0.282353 0.011765
0.254902 0.282353 0.011765
0.282353 0.286275 0.007843
0.313726 0.282353 0.011765
0.337255 0.286275 0.011765
0.368627 0.286275 0.011765
0.392157 0.286275 0.019608
0.423529 0.290196 0.011765
0.450980 0.290196 0.011765
0.482353 0.286275 0.015686
0.513726 0.286275 0.023529
0.533333 0.290196 0.023529
0.568627 0.290196 0.027451
0.596078 0.290196 0.019608
0.623529 0.294118 0.019608
0.650980 0.294118 0.023529
0.686275 0.290196 0.023529
0.709804 0.290196 0.019608
0.737255 0.290196 0.019608
0.764706 0.294118 0.015686
0.803922 0.294118 0.019608
0.831373 0.294118 0.027451
0.858824 0.294118 0.031373
0.886275 0.298039 0.031373
0.921569 0.294118 0.023529
0.949020 0.298039 0.027451
0.019608 0.301961 0.000000
0.043137 0.305882 0.003922
0.078431 0.305882 0.000000
0.105882 0.313726 0.003922
0.133333 0.313726 0.007843
0.160784 0.313726 0.015686
0.196078 0.309804 0.015686
0.223529 0.313726 0.011765
0.250980 0.313726 0.011765
0.278431 0.313726 0.011765
0.313726 0.313726 0.011765
0.341176 0.313726 0.015686
0.368627 0.317647 0.007843
0.396078 0.317647 0.007843
0.427451 0.317647 0.015686
0.450980 0.317647 0.023529
0.482353 0.317647 0.023529
0.509804 0.317647 0.027451
0.541176 0.317647 0.027451
0.568627 0.321569 0.019608
0.596078 0.321569 0.023529
0.627451 0.321569 0.023529
0.647059 0.321569 0.019608
0.682353 0.317647 0.019608
0.709804 0.321569 0.015686
0.741176 0.317647 0.015686
0.764706 0.321569 0.023529
0.803922 0.325490 0.031373
0.839216 0.321569 0.031373
0.858824 0.329412 0.023529
0.894118 0.325490 0.027451
0.921569 0.325490 0.027451
0.956863 0.325490 0.027451
0.015686 0.333333 0.000000
0.043137 0.337255 0.000000
0.074510 0.337255 0.000000
0.105882 0.341176 0.015686
0.141176 0.341176 0.015686
0.160784 0.345098 0.011765
0.196078 0.341176 0.011765
0.223529 0.345098 0.011765
0.258824 0.341176 0.011765
0.278431 0.345098 0.015686
0.313726 0.345098 0.015686
0.341176 0.345098 0.007843
0.368627 0.349020 0.011765
0.392157 0.349020 0.023529
0.427451 0.345098 0.023529
0.454902 0.345098 0.027451
0.482353 0.349020 0.019608
0.509804 0.349020 0.019608
0.537255 0.352941 0.023529
0.572549 0.349020 0.023529
0.588235 0.349020 0.019608
0.623529 0.345098 0.019608
0.650980 0.349020 0.015686
0.678431 0.349020 0.015686
0.713726 0.349020 0.023529
0.741176 0.349020 0.027451
0.780392 0.349020 0.031373
0.803922 0.356863 0.023529
0.835294 0.352941 0.027451
0.862745 0.356863 0.027451
0.894118 0.356863 0.027451
0.921569 0.356863 0.031373
0.952941 0.356863 0.031373
0.015686 0.364706 0.000000
0.043137 0.364706 0.011765
0.078431 0.372549 0.015686
0.105882 0.372549 0.019608
0.137255 0.372549 0.011765
0.168627 0.372549 0.011765
0.196078 0.372549 0.011765
0.223529 0.376471 0.015686
0.258824 0.372549 0.015686
0.286275 0.376471 0.007843
0.313726 0.376471 0.011765
0.341176 0.376471 0.019608
0.376471 0.372549 0.019608
0.392157 0.376471 0.027451
0.427451 0.376471 0.019608
0.454902 0.380392 0.019608
0.490196 0.376471 0.023529
0.509804 0.380392 0.023529
0.533333 0.376471 0.019608
0.568627 0.376471 0.019608
0.596078 0.376471 0.015686
0.623529 0.380392 0.015686
0.658824 0.376471 0.023529
0.686275 0.376471 0.027451
0.713726 0.376471 0.027451
0.745098 0.384314 0.031373
0.780392 0.384314 0.027451
0.807843 0.384314 0.027451
0.835294 0.384314 0.027451
0.862745 0.388235 0.031373
0.898039 0.384314 0.031373
0.921569 0.388235 0.023529
0.952941 0.388235 0.035294
0.015686 0.396078 0.011765
0.039216 0.396078 0.015686
0.078431 0.400000 0.015686
0.101961 0.403922 0.015686
0.133333 0.403922 0.015686
0.160784 0.403922 0.019608
0.196078 0.400000 0.019608
0.219608 0.407843 0.011765
0.250980 0.403922 0.015686
0.282353 0.403922 0.023529
0.309804 0.407843 0.023529
0.337255 0.407843 0.027451
0.368627 0.403922 0.027451
0.400000 0.407843 0.019608
0.427451 0.407843 0.023529
0.454902 0.411765 0.023529
0.482353 0.403922 0.019608
0.509804 0.403922 0.019608
0.541176 0.403922 0.023529
0.568627 0.407843 0.015686
0.600000 0.403922 0.023529
0.623529 0.407843 0.027451
0.658824 0.407843 0.027451
0.686275 0.407843 0.027451
0.717647 0.407843 0.019608
0.745098 0.415686 0.027451
0.780392 0.415686 0.027451
0.807843 0.415686 0.031373
0.835294 0.415686 0.031373
0.862745 0.419608 0.023529
0.898039 0.415686 0.035294
0.925490 0.415686 0.035294
0.952941 0.415686 0.035294
0.019608 0.423529 0.011765
0.043137 0.435294 0.015686
0.078431 0.431373 0.015686
0.105882 0.431373 0.019608
0.133333 0.435294 0.019608
0.160784 0.435294 0.019608
0.196078 0.435294 0.015686
0.223529 0.435294 0.023529
0.250980 0.435294 0.023529
0.278431 0.435294 0.027451
0.313726 0.435294 0.027451
0.337255 0.439216 0.019608
0.368627 0.439216 0.023529
0.396078 0.439216 0.023529
0.427451 0.431373 0.019608
0.450980 0.435294 0.019608
0.482353 0.435294 0.015686
0.509804 0.435294 0.015686
0.537255 0.435294 0.023529
0.568627 0.439216 0.027451
0.600000 0.435294 0.027451
0.627451 0.435294 0.027451
0.658824 0.439216 0.019608
0.686275 0.439216 0.023529
0.725490 0.443137 0.027451
0.752941 0.443137 0.031373
0.780392 0.443137 0.031373
0.807843 0.447059 0.031373
0.843137 0.443137 0.035294
0.862745 0.447059 0.035294
0.898039 0.447059 0.035294
0.925490 0.447059 0.035294
0.960784 0.447059 0.039216
0.023529 0.458824 0.015686
0.050980 0.462745 0.019608
0.078431 0.462745 0.019608
0.105882 0.462745 0.019608
0.141176 0.462745 0.015686
0.160784 0.466667 0.023529
0.196078 0.462745 0.023529
0.223529 0.462745 0.027451
0.258824 0.462745 0.027451
0.278431 0.466667 0.019608
0.313726 0.466667 0.023529
0.341176 0.466667 0.023529
0.364706 0.462745 0.019608
0.400000 0.462745 0.019608
0.427451 0.462745 0.015686
0.462745 0.462745 0.015686
0.482353 0.466667 0.023529
0.509804 0.466667 0.027451
0.545098 0.462745 0.027451
0.564706 0.466667 0.027451
0.600000 0.466667 0.031373
0.627451 0.470588 0.023529
0.662745 0.466667 0.023529
0.686275 0.470588 0.023529
0.721569 0.474510 0.031373
0.749020 0.474510 0.031373
0.780392 0.474510 0.035294
0.807843 0.478431 0.035294
0.839216 0.474510 0.035294
0.870588 0.474510 0.035294
0.898039 0.478431 0.039216
0.925490 0.478431 0.031373
0.960784 0.478431 0.031373
0.019608 0.490196 0.019608
0.050980 0.490196 0.019608
0.078431 0.494118 0.015686
0.105882 0.494118 0.023529
0.141176 0.490196 0.023529
0.168627 0.494118 0.027451
0.196078 0.494118 0.027451
0.223529 0.498039 0.019608
0.258824 0.494118 0.023529
0.286275 0.494118 0.023529
0.309804 0.494118 0.019608
0.341176 0.490196 0.019608
0.368627 0.490196 0.023529
0.400000 0.494118 0.015686
0.427451 0.494118 0.023529
0.458824 0.490196 0.027451
0.490196 0.494118 0.027451
0.509804 0.498039 0.027451
0.545098 0.494118 0.031373
0.572549 0.498039 0.023529
0.600000 0.498039 0.023529
0.627451 0.498039 0.023529
0.662745 0.498039 0.027451
0.694118 0.501961 0.031373
0.721569 0.505882 0.035294
0.749020 0.505882 0.035294
0.784314 0.501961 0.035294
0.807843 0.505882 0.035294
0.839216 0.505882 0.039216
0.866667 0.509804 0.031373
0.901961 0.505882 0.031373
0.925490 0.509804 0.035294
0.956863 0.509804 0.035294
0.015686 0.517647 0.019608
0.050980 0.513726 0.019608
0.078431 0.517647 0.019608
0.105882 0.517647 0.019608
0.133333 0.517647 0.023529
0.168627 0.517647 0.023529
0.196078 0.517647 0.023529
0.223529 0.521569 0.019608
0.247059 0.517647 0.015686
0.286275 0.517647 0.019608
0.309804 0.521569 0.023529
0.341176 0.521569 0.023529
0.368627 0.521569 0.023529
0.403922 0.521569 0.027451
0.431373 0.521569 0.027451
0.458824 0.521569 0.027451
0.494118 0.521569 0.031373
0.517647 0.525490 0.031373
0.545098 0.525490 0.031373
0.576471 0.525490 0.023529
0.603922 0.525490 0.027451
0.635294 0.529412 0.027451
0.662745 0.529412 0.027451
0.694118 0.525490 0.039216
0.725490 0.529412 0.031373
0.752941 0.529412 0.031373
0.780392 0.529412 0.035294
0.811765 0.529412 0.035294
0.835294 0.533333 0.035294
0.870588 0.533333 0.031373
0.898039 0.533333 0.031373
0.933333 0.529412 0.031373
0.952941 0.533333 0.031373
0.015686 0.549020 0.019608
0.050980 0.545098 0.019608
0.078431 0.549020 0.023529
0.113725 0.545098 0.023529
0.133333 0.549020 0.023529
0.168627 0.549020 0.019608
0.192157 0.545098 0.015686
0.219608 0.545098 0.015686
0.250980 0.552941 0.023529
0.286275 0.549020 0.023529
0.321569 0.549020 0.023529
0.341176 0.552941 0.027451
0.376471 0.549020 0.027451
0.403922 0.552941 0.027451
0.431373 0.552941 0.031373
0.458824 0.552941 0.031373
0.494118 0.552941 0.023529
0.521569 0.552941 0.023529
0.545098 0.556863 0.027451
0.576471 0.556863 0.027451
0.603922 0.556863 0.027451
0.639216 0.552941 0.039216
0.662745 0.560784 0.031373
0.694118 0.556863 0.031373
0.721569 0.556863 0.035294
0.752941 0.560784 0.035294
0.780392 0.560784 0.035294
0.811765 0.556863 0.039216
0.839216 0.560784 0.031373
0.870588 0.560784 0.031373
0.898039 0.564706 0.031373
0.929412 0.560784 0.035294
0.960784 0.560784 0.043137
0.023529 0.576471 0.023529
0.050980 0.576471 0.023529
0.078431 0.576471 0.023529
0.109804 0.576471 0.027451
0.133333 0.572549 0.015686
0.164706 0.576471 0.015686
0.196078 0.572549 0.015686
0.231373 0.580392 0.023529
0.258824 0.580392 0.023529
0.286275 0.580392 0.027451
0.317647 0.580392 0.027451
0.349020 0.580392 0.027451
0.376471 0.580392 0.031373
0.403922 0.580392 0.031373
0.439216 0.580392 0.023529
0.458824 0.584314 0.023529
0.494118 0.584314 0.027451
0.521569 0.584314 0.027451
0.549020 0.584314 0.027451
0.576471 0.584314 0.039216
0.603922 0.588235 0.031373
0.639216 0.584314 0.031373
0.666667 0.588235 0.035294
0.694118 0.588235 0.035294
0.721569 0.588235 0.035294
0.756863 0.588235 0.039216
0.780392 0.592157 0.031373
0.811765 0.592157 0.031373
0.839216 0.592157 0.031373
0.870588 0.584314 0.031373
0.890196 0.588235 0.039216
0.929412 0.592157 0.035294
0.956863 0.592157 0.039216
0.019608 0.607843 0.023529
0.054902 0.603922 0.027451
0.078431 0.603922 0.015686
0.105882 0.603922 0.015686
0.141176 0.600000 0.015686
0.168627 0.603922 0.019608
0.196078 0.603922 0.019608
0.227451 0.607843 0.027451
0.262745 0.607843 0.027451
0.286275 0.611765 0.027451
0.317647 0.607843 0.031373
0.345098 0.611765 0.031373
0.380392 0.607843 0.031373
0.403922 0.615686 0.023529
0.435294 0.611765 0.027451
0.466667 0.611765 0.027451
0.494118 0.615686 0.027451
0.521569 0.615686 0.039216
0.549020 0.615686 0.039216
0.584314 0.615686 0.031373
0.603922 0.619608 0.035294
0.639216 0.615686 0.035294
0.666667 0.619608 0.035294
0.694118 0.619608 0.039216
0.721569 0.623529 0.031373
0.756863 0.619608 0.031373
0.784314 0.619608 0.031373
0.807843 0.615686 0.031373
0.835294 0.615686 0.039216
0.870588 0.615686 0.031373
0.901961 0.623529 0.039216
0.929412 0.623529 0.039216
0.956863 0.623529 0.039216
0.023529 0.631373 0.015686
0.050980 0.631373 0.015686
0.086275 0.631373 0.015686
0.105882 0.635294 0.019608
0.141176 0.631373 0.019608
0.168627 0.631373 0.027451
0.200000 0.639216 0.027451
0.227451 0.639216 0.027451
0.262745 0.639216 0.031373
0.290196 0.639216 0.031373
0.317647 0.639216 0.031373
0.345098 0.643137 0.023529
0.380392 0.643137 0.027451
0.407843 0.643137 0.027451
0.435294 0.643137 0.027451
0.462745 0.643137 0.039216
0.498039 0.643137 0.031373
0.521569 0.647059 0.031373
0.549020 0.647059 0.035294
0.580392 0.647059 0.035294
0.611765 0.647059 0.035294
0.639216 0.647059 0.039216
0.666667 0.650980 0.031373
0.701961 0.647059 0.031373
0.721569 0.650980 0.031373
0.752941 0.647059 0.031373
0.780392 0.647059 0.039216
0.811765 0.643137 0.039216
0.835294 0.650980 0.035294
0.874510 0.650980 0.039216
0.909804 0.650980 0.039216
0.929412 0.654902 0.043137
0.964706 0.650980 0.043137
0.023529 0.662745 0.015686
0.050980 0.662745 0.019608
0.082353 0.662745 0.019608
0.109804 0.662745 0.027451
0.141176 0.662745 0.023529
0.168627 0.662745 0.023529
0.207843 0.666667 0.031373
0.227451 0.670588 0.031373
0.262745 0.670588 0.031373
0.290196 0.670588 0.023529
0.325490 0.670588 0.027451
0.345098 0.674510 0.027451
0.380392 0.670588 0.027451
0.407843 0.670588 0.039216
0.435294 0.674510 0.031373
0.462745 0.674510 0.031373
0.498039 0.674510 0.035294
0.525490 0.674510 0.035294
0.549020 0.678431 0.035294
0.580392 0.678431 0.039216
0.607843 0.678431 0.039216
0.643137 0.678431 0.031373
0.666667 0.682353 0.031373
0.694118 0.674510 0.031373
0.721569 0.674510 0.039216
0.749020 0.674510 0.039216
0.784314 0.674510 0.035294
0.811765 0.674510 0.035294
0.847059 0.674510 0.035294
0.874510 0.682353 0.043137
0.905882 0.682353 0.043137
0.937255 0.682353 0.035294
0.964706 0.686275 0.039216
0.027451 0.690196 0.019608
0.050980 0.694118 0.027451
0.082353 0.694118 0.023529
0.109804 0.694118 0.023529
0.137255 0.694118 0.023529
0.172549 0.701961 0.031373
0.203922 0.698039 0.031373
0.235294 0.701961 0.023529
0.262745 0.701961 0.027451
0.290196 0.701961 0.027451
0.325490 0.701961 0.027451
0.352941 0.701961 0.039216
0.380392 0.701961 0.039216
0.407843 0.705882 0.031373
0.443137 0.701961 0.035294
0.462745 0.705882 0.035294
0.498039 0.705882 0.035294
0.525490 0.705882 0.039216
0.552941 0.705882 0.039216
0.580392 0.709804 0.031373
0.607843 0.709804 0.031373
0.639216 0.701961 0.031373
0.666667 0.701961 0.039216
0.694118 0.705882 0.039216
0.729412 0.701961 0.035294
0.756863 0.705882 0.035294
0.784314 0.705882 0.035294
0.811765 0.705882 0.035294
0.850980 0.709804 0.043137
0.878431 0.709804 0.043137
0.905882 0.713726 0.039216
0.933333 0.713726 0.039216
0.968627 0.709804 0.047059
0.027451 0.721569 0.023529
0.054902 0.721569 0.023529
0.082353 0.721569 0.023529
0.109804 0.725490 0.027451
0.149020 0.725490 0.031373
0.172549 0.729412 0.031373
0.203922 0.729412 0.027451
0.231373 0.733333 0.027451
0.266667 0.729412 0.027451
0.290196 0.733333 0.039216
0.321569 0.729412 0.039216
0.352941 0.733333 0.031373
0.380392 0.733333 0.035294
0.407843 0.733333 0.035294
0.439216 0.733333 0.035294
0.470588 0.733333 0.039216
0.498039 0.737255 0.031373
0.525490 0.737255 0.031373
0.560784 0.737255 0.031373
0.580392 0.733333 0.031373
0.611765 0.733333 0.039216
0.639216 0.733333 0.039216
0.670588 0.733333 0.035294
0.694118 0.737255 0.035294
0.729412 0.733333 0.035294
0.756863 0.737255 0.035294
0.788235 0.733333 0.039216
0.815686 0.741176 0.043137
0.850980 0.741176 0.039216
0.878431 0.741176 0.039216
0.905882 0.741176 0.047059
0.933333 0.745098 0.050980
0.968627 0.741176 0.050980
0.027451 0.752941 0.023529
0.054902 0.752941 0.027451
0.090196 0.749020 0.027451
0.109804 0.756863 0.027451
0.149020 0.760784 0.027451
0.176471 0.760784 0.027451
0.203922 0.760784 0.027451
0.231373 0.760784 0.039216
0.266667 0.760784 0.039216
0.294118 0.760784 0.031373
0.321569 0.760784 0.035294
0.349020 0.764706 0.035294
0.384314 0.760784 0.035294
0.407843 0.764706 0.039216
0.439216 0.764706 0.039216
0.466667 0.764706 0.031373
0.501961 0.764706 0.031373
0.521569 0.764706 0.031373
0.552941 0.760784 0.039216
0.580392 0.760784 0.039216
0.607843 0.760784 0.043137
0.639216 0.764706 0.035294
0.670588 0.764706 0.035294
0.698039 0.764706 0.035294
0.729412 0.764706 0.039216
0.756863 0.764706 0.039216
0.788235 0.764706 0.031373
0.823529 0.772549 0.039216
0.850980 0.772549 0.047059
0.878431 0.772549 0.050980
0.913725 0.768627 0.050980
0.933333 0.776471 0.043137
0.968627 0.772549 0.043137
0.027451 0.784314 0.027451
0.054902 0.784314 0.027451
0.086275 0.784314 0.023529
0.121569 0.788235 0.027451
0.149020 0.788235 0.027451
0.176471 0.788235 0.039216
0.211765 0.788235 0.039216
0.231373 0.792157 0.039216
0.266667 0.792157 0.035294
0.294118 0.792157 0.035294
0.329412 0.792157 0.035294
0.349020 0.796078 0.039216
0.384314 0.792157 0.039216
0.411765 0.796078 0.031373
0.439216 0.796078 0.031373
0.470588 0.788235 0.031373
0.498039 0.788235 0.039216
0.525490 0.792157 0.039216
0.552941 0.792157 0.043137
0.580392 0.792157 0.035294
0.615686 0.792157 0.035294
0.635294 0.796078 0.035294
0.670588 0.796078 0.039216
0.698039 0.796078 0.039216
0.733333 0.796078 0.031373
0.756863 0.800000 0.035294
0.792157 0.800000 0.047059
