assets/luts/clean_neutral.cube
TITLE "myaniform/clean_neutral"
LUT_3D_SIZE 9
DOMAIN_MIN 0.0 0.0 0.0
DOMAIN_MAX 1.0 1.0 1.0
0.011765 0.007843 0.000000
0.129412 0.011765 0.000000
0.243137 0.011765 0.000000
0.360784 0.019608 0.003922
0.474510 0.019608 0.011765
0.588235 0.019608 0.003922
0.705882 0.019608 0.011765
0.815686 0.023529 0.015686
0.933333 0.027451 0.011765
0.015686 0.129412 0.000000
0.133333 0.133333 0.000000
0.250980 0.137255 0.003922
0.360784 0.137255 0.000000
0.474510 0.137255 0.011765
0.592157 0.137255 0.015686
0.701961 0.145098 0.011765
0.819608 0.145098 0.023529
0.945098 0.152941 0.027451
0.015686 0.250980 0.000000
0.133333 0.247059 0.000000
0.254902 0.250980 0.003922
0.372549 0.254902 0.011765
0.486275 0.254902 0.011765
0.596078 0.258824 0.023529
0.709804 0.266667 0.023529
0.827451 0.266667 0.019608
0.945098 0.266667 0.031373
0.015686 0.364706 0.000000
0.137255 0.372549 0.011765
0.258824 0.372549 0.015686
0.376471 0.372549 0.019608
0.490196 0.376471 0.023529
0.596078 0.376471 0.015686
0.713726 0.376471 0.027451
0.835294 0.384314 0.027451
0.952941 0.388235 0.035294
0.019608 0.490196 0.019608
0.141176 0.490196 0.023529
0.258824 0.494118 0.023529
0.368627 0.490196 0.023529
0.490196 0.494118 0.027451
0.600000 0.498039 0.023529
0.721569 0.505882 0.035294
0.839216 0.505882 0.039216
0.956863 0.509804 0.035294
0.019608 0.607843 0.023529
0.141176 0.600000 0.015686
0.262745 0.607843 0.027451
0.380392 0.607843 0.031373
0.494118 0.615686 0.027451
0.603922 0.619608 0.035294
0.721569 0.623529 0.031373
0.835294 0.615686 0.039216
0.956863 0.623529 0.039216
0.027451 0.721569 0.023529
0.149020 0.725490 0.031373
0.266667 0.729412 0.027451
0.380392 0.733333 0.035294
0.498039 0.737255 0.031373
0.611765 0.733333 0.039216
0.729412 0.733333 0.035294
0.850980 0.741176 0.039216
0.968627 0.741176 0.050980
0.031373 0.843137 0.023529
0.152941 0.847059 0.035294
0.270588 0.850980 0.039216
0.380392 0.850980 0.039216
0.498039 0.850980 0.035294
0.615686 0.854902 0.039216
0.733333 0.854902 0.047059
0.854902 0.862745 0.047059
0.972549 0.866667 0.043137
0.039216 0.968627 0.039216
0.152941 0.964706 0.039216
0.270588 0.968627 0.035294
0.384314 0.972549 0.039216
0.501961 0.972549 0.047059
0.619608 0.976471 0.043137
0.741176 0.980392 0.050980
0.854902 0.976471 0.050980
0.972549 0.980392 0.050980
0.011765 0.007843 0.101961
0.129412 0.011765 0.105882
0.247059 0.015686 0.121569
0.360784 0.019608 0.121569
0.470588 0.015686 0.125490
0.588235 0.019608 0.121569
0.705882 0.019608 0.125490
0.823529 0.019608 0.133333
0.941176 0.031373 0.133333
0.015686 0.129412 0.109804
0.129412 0.133333 0.113725
0.243137 0.133333 0.121569
0.356863 0.133333 0.129412
0.474510 0.137255 0.125490
0.592157 0.137255 0.133333
0.709804 0.141176 0.129412
0.835294 0.149020 0.137255
0.941176 0.149020 0.137255
0.011765 0.247059 0.113725
0.129412 0.254902 0.125490
0.247059 0.254902 0.121569
0.360784 0.258824 0.133333
0.478431 0.258824 0.129412
0.596078 0.262745 0.133333
0.709804 0.258824 0.133333
0.827451 0.266667 0.137255
0.945098 0.266667 0.149020
0.015686 0.372549 0.121569
0.129412 0.376471 0.133333
0.254902 0.372549 0.137255
0.372549 0.376471 0.133333
0.486275 0.372549 0.133333
0.596078 0.376471 0.137255
0.717647 0.384314 0.149020
0.831373 0.388235 0.145098
0.949020 0.392157 0.141176
0.023529 0.490196 0.137255
0.141176 0.494118 0.133333
0.254902 0.490196 0.133333
0.372549 0.490196 0.137255
0.494118 0.498039 0.149020
0.600000 0.498039 0.141176
0.725490 0.505882 0.141176
0.843137 0.505882 0.152941
0.960784 0.509804 0.152941
0.023529 0.607843 0.141176
0.141176 0.607843 0.137255
0.258824 0.611765 0.145098
0.376471 0.611765 0.149020
0.494118 0.615686 0.145098
0.611765 0.615686 0.149020
0.721569 0.623529 0.149020
0.843137 0.623529 0.152941
0.960784 0.623529 0.156863
0.023529 0.721569 0.145098
0.145098 0.729412 0.149020
0.266667 0.729412 0.145098
0.388235 0.729412 0.149020
0.505882 0.733333 0.156863
0.603922 0.737255 0.149020
0.721569 0.737255 0.152941
0.847059 0.745098 0.152941
0.964706 0.745098 0.168627
0.035294 0.847059 0.145098
0.152941 0.847059 0.149020
0.274510 0.850980 0.156863
0.384314 0.847059 0.149020
0.498039 0.850980 0.152941
0.607843 0.858824 0.156863
0.737255 0.858824 0.168627
0.854902 0.862745 0.164706
0.972549 0.866667 0.160784
0.039216 0.968627 0.156863
0.152941 0.964706 0.149020
0.270588 0.968627 0.152941
0.392157 0.968627 0.156863
0.505882 0.976471 0.168627
0.623529 0.980392 0.164706
0.741176 0.980392 0.168627
0.854902 0.976471 0.168627
0.972549 0.980392 0.164706
0.007843 0.007843 0.223529
0.125490 0.011765 0.219608
0.247059 0.015686 0.235294
0.364706 0.019608 0.235294
0.470588 0.015686 0.243137
0.584314 0.019608 0.247059
0.701961 0.023529 0.243137
0.823529 0.027451 0.250980
0.941176 0.031373 0.250980
0.019608 0.125490 0.231373
0.129412 0.137255 0.235294
0.243137 0.133333 0.239216
0.356863 0.133333 0.247059
0.478431 0.137255 0.243137
0.596078 0.137255 0.247059
0.713726 0.141176 0.247059
0.835294 0.149020 0.254902
0.949020 0.145098 0.254902
0.015686 0.250980 0.235294
0.129412 0.254902 0.243137
0.243137 0.254902 0.243137
0.364706 0.258824 0.247059
0.482353 0.258824 0.254902
0.600000 0.262745 0.250980
0.717647 0.262745 0.254902
0.835294 0.266667 0.250980
0.952941 0.266667 0.254902
0.015686 0.372549 0.239216
0.129412 0.376471 0.247059
0.250980 0.376471 0.254902
0.368627 0.380392 0.250980
0.486275 0.380392 0.254902
0.600000 0.376471 0.254902
0.721569 0.384314 0.254902
0.839216 0.384314 0.262745
0.949020 0.392157 0.258824
0.015686 0.494118 0.254902
0.137255 0.498039 0.250980
0.247059 0.494118 0.250980
0.372549 0.490196 0.254902
0.494118 0.498039 0.254902
0.607843 0.501961 0.262745
0.725490 0.505882 0.266667
0.843137 0.505882 0.270588
0.949020 0.505882 0.262745
0.019608 0.603922 0.254902
0.141176 0.607843 0.254902
0.258824 0.611765 0.250980
0.376471 0.611765 0.266667
0.494118 0.615686 0.262745
0.611765 0.615686 0.266667
0.725490 0.611765 0.266667
0.843137 0.623529 0.270588
0.960784 0.623529 0.274510
0.027451 0.729412 0.258824
0.145098 0.729412 0.266667
0.262745 0.733333 0.262745
0.380392 0.733333 0.266667
0.494118 0.729412 0.266667
0.611765 0.733333 0.262745
0.733333 0.741176 0.274510
0.847059 0.745098 0.270588
0.964706 0.745098 0.274510
0.031373 0.850980 0.262745
0.149020 0.850980 0.274510
0.262745 0.847059 0.266667
0.388235 0.847059 0.262745
0.509804 0.854902 0.274510
0.619608 0.858824 0.278431
0.733333 0.862745 0.274510
0.850980 0.866667 0.278431
0.964706 0.862745 0.274510
0.039216 0.964706 0.266667
0.156863 0.964706 0.262745
0.274510 0.968627 0.270588
0.392157 0.968627 0.274510
0.513726 0.976471 0.274510
0.627451 0.980392 0.278431
0.733333 0.980392 0.282353
0.854902 0.976471 0.286275
0.976471 0.980392 0.282353
0.003922 0.007843 0.341176
0.129412 0.015686 0.345098
0.247059 0.015686 0.356863
0.352941 0.019608 0.349020
0.466667 0.019608 0.349020
0.584314 0.019608 0.364706
0.701961 0.023529 0.360784
0.823529 0.027451 0.368627
0.945098 0.031373 0.364706
0.015686 0.133333 0.356863
0.125490 0.133333 0.352941
0.243137 0.137255 0.349020
0.360784 0.133333 0.364706
0.478431 0.137255 0.360784
0.588235 0.141176 0.364706
0.713726 0.149020 0.372549
0.831373 0.152941 0.372549
0.941176 0.149020 0.372549
0.019608 0.247059 0.352941
0.133333 0.250980 0.364706
0.247059 0.254902 0.360784
0.364706 0.258824 0.364706
0.486275 0.262745 0.372549
0.592157 0.262745 0.364706
0.717647 0.262745 0.372549
0.835294 0.266667 0.368627
0.952941 0.266667 0.372549
0.023529 0.372549 0.356863
0.133333 0.376471 0.364706
0.250980 0.376471 0.368627
0.368627 0.380392 0.364706
0.486275 0.380392 0.372549
0.603922 0.380392 0.376471
0.721569 0.384314 0.372549
0.839216 0.384314 0.376471
0.956863 0.388235 0.376471
0.023529 0.490196 0.368627
0.137255 0.498039 0.364706
0.250980 0.494118 0.368627
0.372549 0.498039 0.376471
0.490196 0.501961 0.372549
0.607843 0.501961 0.376471
0.725490 0.505882 0.384314
0.843137 0.505882 0.380392
0.956863 0.505882 0.380392
0.023529 0.607843 0.376471
0.141176 0.607843 0.372549
0.258824 0.611765 0.368627
0.376471 0.611765 0.380392
0.498039 0.615686 0.380392
0.607843 0.619608 0.376471
0.733333 0.615686 0.388235
0.850980 0.619608 0.384314
0.960784 0.623529 0.388235
0.027451 0.729412 0.376471
0.145098 0.729412 0.380392
0.262745 0.733333 0.380392
0.384314 0.737255 0.376471
0.501961 0.737255 0.388235
0.619608 0.737255 0.384314
0.737255 0.741176 0.388235
0.854902 0.741176 0.396078
0.964706 0.745098 0.392157
0.031373 0.850980 0.380392
0.149020 0.850980 0.384314
0.262745 0.847059 0.384314
0.380392 0.850980 0.380392
0.505882 0.858824 0.388235
0.623529 0.858824 0.396078
0.741176 0.862745 0.392157
0.858824 0.862745 0.396078
0.964706 0.862745 0.388235
0.031373 0.968627 0.384314
0.149020 0.968627 0.380392
0.266667 0.968627 0.392157
0.392157 0.976471 0.396078
0.513726 0.976471 0.392157
0.627451 0.980392 0.396078
0.741176 0.976471 0.396078
0.850980 0.984314 0.396078
0.968627 0.984314 0.400000
0.007843 0.015686 0.466667
0.125490 0.015686 0.462745
0.243137 0.019608 0.470588
0.356863 0.015686 0.470588
0.466667 0.019608 0.466667
0.584314 0.019608 0.478431
0.709804 0.027451 0.482353
0.827451 0.031373 0.478431
0.945098 0.031373 0.482353
0.011765 0.137255 0.470588
0.125490 0.133333 0.470588
0.243137 0.137255 0.466667
0.360784 0.137255 0.478431
0.478431 0.145098 0.482353
0.592157 0.145098 0.474510
0.713726 0.149020 0.490196
0.827451 0.145098 0.482353
0.945098 0.149020 0.486275
0.011765 0.250980 0.474510
0.129412 0.254902 0.478431
0.247059 0.254902 0.474510
0.364706 0.258824 0.474510
0.486275 0.262745 0.490196
0.596078 0.262745 0.482353
0.713726 0.266667 0.486275
0.831373 0.266667 0.494118
0.949020 0.270588 0.490196
0.023529 0.372549 0.474510
0.141176 0.372549 0.482353
0.258824 0.372549 0.486275
0.368627 0.380392 0.482353
0.486275 0.380392 0.486275
0.600000 0.384314 0.494118
0.717647 0.388235 0.490196
0.839216 0.384314 0.494118
0.960784 0.388235 0.490196
0.027451 0.490196 0.486275
0.141176 0.490196 0.478431
0.254902 0.498039 0.486275
0.372549 0.498039 0.494118
0.490196 0.501961 0.490196
0.607843 0.501961 0.494118
0.725490 0.505882 0.498039
0.839216 0.501961 0.490196
0.964706 0.509804 0.501961
0.027451 0.607843 0.482353
0.145098 0.611765 0.490196
0.254902 0.615686 0.486275
0.380392 0.611765 0.498039
0.501961 0.619608 0.498039
0.607843 0.619608 0.490196
0.725490 0.619608 0.505882
0.843137 0.623529 0.501961
0.960784 0.627451 0.498039
0.035294 0.725490 0.494118
0.149020 0.729412 0.498039
0.266667 0.733333 0.494118
0.384314 0.737255 0.490196
0.501961 0.737255 0.505882
0.611765 0.741176 0.501961
0.729412 0.745098 0.498039
0.854902 0.741176 0.509804
0.972549 0.745098 0.509804
0.039216 0.847059 0.494118
0.152941 0.850980 0.498039
0.266667 0.847059 0.501961
0.388235 0.854902 0.501961
0.505882 0.858824 0.498039
0.623529 0.858824 0.509804
0.741176 0.862745 0.509804
0.858824 0.862745 0.513726
0.972549 0.858824 0.513726
0.035294 0.968627 0.501961
0.152941 0.968627 0.498039
0.274510 0.976471 0.505882
0.392157 0.976471 0.509804
0.509804 0.980392 0.509804
0.627451 0.980392 0.513726
0.741176 0.976471 0.513726
0.858824 0.980392 0.509804
0.980392 0.984314 0.521569
0.007843 0.015686 0.584314
0.125490 0.015686 0.580392
0.243137 0.019608 0.576471
0.356863 0.015686 0.584314
0.474510 0.019608 0.584314
0.592157 0.019608 0.588235
0.709804 0.031373 0.588235
0.827451 0.031373 0.596078
0.945098 0.031373 0.600000
0.011765 0.137255 0.584314
0.125490 0.133333 0.584314
0.243137 0.137255 0.584314
0.360784 0.137255 0.588235
0.486275 0.141176 0.596078
0.596078 0.149020 0.596078
0.713726 0.149020 0.600000
0.827451 0.149020 0.592157
0.945098 0.149020 0.596078
0.011765 0.254902 0.584314
0.129412 0.254902 0.588235
0.247059 0.254902 0.592157
0.364706 0.258824 0.588235
0.490196 0.266667 0.600000
0.596078 0.262745 0.600000
0.713726 0.266667 0.596078
0.831373 0.266667 0.600000
0.949020 0.270588 0.600000
0.015686 0.372549 0.592157
0.133333 0.376471 0.588235
0.250980 0.376471 0.596078
0.376471 0.376471 0.600000
0.490196 0.380392 0.596078
0.600000 0.388235 0.600000
0.717647 0.388235 0.607843
0.835294 0.388235 0.611765
0.952941 0.392157 0.607843
0.027451 0.490196 0.603922
0.141176 0.490196 0.596078
0.262745 0.498039 0.596078
0.380392 0.498039 0.600000
0.494118 0.501961 0.607843
0.603922 0.505882 0.611765
0.721569 0.509804 0.607843
0.843137 0.501961 0.607843
0.964706 0.509804 0.619608
0.027451 0.607843 0.600000
0.145098 0.611765 0.603922
0.262745 0.611765 0.600000
0.372549 0.615686 0.607843
0.498039 0.623529 0.615686
0.611765 0.619608 0.607843
0.729412 0.623529 0.611765
0.847059 0.623529 0.619608
0.964706 0.627451 0.615686
0.031373 0.729412 0.600000
0.149020 0.733333 0.607843
0.266667 0.733333 0.611765
0.384314 0.737255 0.607843
0.501961 0.737255 0.611765
0.615686 0.741176 0.619608
0.733333 0.745098 0.615686
0.850980 0.745098 0.619608
0.968627 0.749020 0.615686
0.043137 0.847059 0.611765
0.156863 0.847059 0.603922
0.266667 0.850980 0.607843
0.388235 0.854902 0.619608
0.505882 0.858824 0.615686
0.619608 0.862745 0.619608
0.741176 0.862745 0.623529
0.854902 0.858824 0.615686
0.972549 0.862745 0.623529
0.043137 0.964706 0.615686
0.160784 0.964706 0.615686
0.274510 0.976471 0.615686
0.392157 0.976471 0.619608
0.509804 0.980392 0.623529
0.623529 0.976471 0.615686
0.741176 0.980392 0.623529
0.858824 0.980392 0.627451
0.984314 0.984314 0.635294
0.003922 0.019608 0.701961
0.121569 0.019608 0.698039
0.243137 0.015686 0.690196
0.360784 0.015686 0.701961
0.482353 0.023529 0.705882
0.592157 0.027451 0.701961
0.709804 0.027451 0.713726
0.827451 0.031373 0.709804
0.937255 0.031373 0.709804
0.007843 0.133333 0.698039
0.129412 0.133333 0.701961
0.247059 0.137255 0.698039
0.364706 0.137255 0.698039
0.486275 0.141176 0.713726
0.596078 0.149020 0.709804
0.717647 0.141176 0.709804
0.827451 0.149020 0.709804
0.945098 0.149020 0.713726
0.015686 0.254902 0.698039
0.133333 0.254902 0.705882
0.250980 0.254902 0.709804
0.372549 0.262745 0.709804
0.486275 0.258824 0.709804
0.603922 0.262745 0.717647
0.713726 0.266667 0.713726
0.831373 0.270588 0.717647
0.949020 0.270588 0.713726
0.019608 0.372549 0.709804
0.137255 0.376471 0.705882
0.254902 0.376471 0.709804
0.372549 0.380392 0.717647
0.490196 0.380392 0.713726
0.607843 0.384314 0.717647
0.717647 0.388235 0.721569
0.835294 0.392157 0.721569
0.960784 0.396078 0.729412
0.023529 0.498039 0.709804
0.137255 0.494118 0.709804
0.258824 0.501961 0.713726
0.376471 0.501961 0.717647
0.501961 0.498039 0.721569
0.611765 0.505882 0.721569
0.721569 0.509804 0.725490
0.835294 0.505882 0.725490
0.960784 0.513726 0.733333
0.027451 0.607843 0.717647
0.145098 0.611765 0.721569
0.262745 0.611765 0.717647
0.388235 0.619608 0.721569
0.505882 0.619608 0.733333
0.611765 0.619608 0.725490
0.729412 0.623529 0.729412
0.847059 0.623529 0.733333
0.964706 0.627451 0.733333
0.031373 0.729412 0.717647
0.149020 0.733333 0.721569
0.266667 0.733333 0.729412
0.384314 0.737255 0.725490
0.498039 0.741176 0.729412
0.615686 0.741176 0.733333
0.733333 0.745098 0.733333
0.850980 0.745098 0.737255
0.968627 0.745098 0.741176
0.035294 0.850980 0.729412
0.149020 0.850980 0.721569
0.270588 0.854902 0.729412
0.392157 0.854902 0.733333
0.509804 0.858824 0.733333
0.619608 0.862745 0.737255
0.737255 0.866667 0.741176
0.850980 0.862745 0.733333
0.972549 0.870588 0.745098
0.043137 0.964706 0.725490
0.160784 0.968627 0.729412
0.282353 0.972549 0.733333
0.396078 0.980392 0.737255
0.513726 0.980392 0.741176
0.619608 0.980392 0.733333
0.737255 0.980392 0.737255
0.866667 0.984314 0.749020
0.984314 0.988235 0.745098
0.011765 0.015686 0.807843
0.121569 0.019608 0.815686
0.235294 0.019608 0.807843
0.352941 0.019608 0.819608
0.478431 0.027451 0.819608
0.596078 0.027451 0.819608
0.713726 0.027451 0.831373
0.831373 0.031373 0.827451
0.945098 0.027451 0.819608
0.003922 0.133333 0.815686
0.121569 0.137255 0.819608
0.239216 0.137255 0.815686
0.368627 0.145098 0.819608
0.486275 0.141176 0.831373
0.600000 0.149020 0.827451
0.713726 0.149020 0.819608
0.831373 0.145098 0.831373
0.949020 0.149020 0.831373
0.015686 0.254902 0.815686
0.133333 0.254902 0.819608
0.254902 0.262745 0.831373
0.372549 0.262745 0.827451
0.486275 0.262745 0.819608
0.600000 0.266667 0.831373
0.717647 0.266667 0.831373
0.839216 0.266667 0.835294
0.956863 0.274510 0.835294
0.019608 0.372549 0.827451
0.137255 0.376471 0.823529
0.254902 0.376471 0.827451
0.372549 0.380392 0.831373
0.490196 0.384314 0.831373
0.607843 0.384314 0.835294
0.725490 0.384314 0.839216
0.839216 0.392157 0.835294
0.956863 0.392157 0.843137
0.019608 0.490196 0.823529
0.141176 0.498039 0.831373
0.258824 0.501961 0.831373
0.376471 0.501961 0.835294
0.494118 0.501961 0.839216
0.611765 0.505882 0.835294
0.725490 0.501961 0.835294
0.843137 0.509804 0.847059
0.960784 0.513726 0.843137
0.027451 0.607843 0.831373
0.149020 0.611765 0.831373
0.266667 0.611765 0.835294
0.388235 0.619608 0.835294
0.501961 0.615686 0.843137
0.611765 0.619608 0.843137
0.729412 0.623529 0.839216
0.847059 0.623529 0.850980
0.964706 0.627451 0.847059
0.035294 0.729412 0.835294
0.152941 0.733333 0.839216
0.270588 0.733333 0.843137
0.388235 0.737255 0.843137
0.505882 0.737255 0.839216
0.623529 0.737255 0.850980
0.733333 0.745098 0.847059
0.850980 0.745098 0.854902
0.968627 0.745098 0.858824
0.031373 0.847059 0.839216
0.152941 0.850980 0.835294
0.274510 0.854902 0.847059
0.392157 0.854902 0.850980
0.509804 0.858824 0.847059
0.619608 0.862745 0.854902
0.737255 0.866667 0.858824
0.854902 0.866667 0.854902
0.976471 0.870588 0.858824
0.039216 0.968627 0.843137
0.160784 0.976471 0.850980
0.278431 0.976471 0.847059
0.396078 0.980392 0.854902
0.513726 0.980392 0.858824
0.619608 0.980392 0.850980
0.737255 0.984314 0.854902
0.862745 0.988235 0.866667
0.980392 0.992157 0.862745
0.011765 0.015686 0.925490
0.129412 0.015686 0.929412
0.239216 0.015686 0.929412
0.360784 0.023529 0.933333
0.478431 0.027451 0.937255
0.596078 0.027451 0.933333
0.713726 0.027451 0.945098
0.831373 0.031373 0.945098
0.945098 0.027451 0.937255
0.011765 0.133333 0.929412
0.129412 0.133333 0.929412
0.247059 0.145098 0.937255
0.364706 0.145098 0.933333
0.482353 0.145098 0.945098
0.600000 0.149020 0.945098
0.713726 0.149020 0.937255
0.831373 0.145098 0.949020
0.952941 0.152941 0.949020
0.015686 0.254902 0.933333
0.129412 0.258824 0.937255
0.250980 0.262745 0.945098
0.368627 0.266667 0.945098
0.486275 0.262745 0.937255
0.600000 0.266667 0.949020
0.717647 0.266667 0.945098
0.835294 0.270588 0.945098
0.956863 0.274510 0.960784
0.019608 0.372549 0.941176
0.141176 0.380392 0.945098
0.254902 0.380392 0.945098
0.372549 0.380392 0.949020
0.490196 0.384314 0.945098
0.603922 0.388235 0.945098
0.721569 0.388235 0.956863
0.843137 0.396078 0.956863
0.964706 0.388235 0.956863
0.019608 0.490196 0.941176
0.141176 0.498039 0.949020
0.258824 0.501961 0.945098
0.376471 0.501961 0.952941
0.498039 0.501961 0.956863
0.615686 0.505882 0.952941
0.733333 0.505882 0.956863
0.850980 0.509804 0.960784
0.960784 0.513726 0.960784
0.023529 0.611765 0.949020
0.141176 0.615686 0.945098
0.262745 0.619608 0.956863
0.388235 0.619608 0.960784
0.501961 0.615686 0.952941
0.615686 0.619608 0.956863
0.733333 0.623529 0.956863
0.850980 0.623529 0.968627
0.964706 0.635294 0.968627
0.035294 0.729412 0.952941
0.152941 0.733333 0.956863
0.270588 0.733333 0.952941
0.388235 0.737255 0.956863
0.505882 0.737255 0.956863
0.619608 0.741176 0.968627
0.737255 0.745098 0.964706
0.858824 0.752941 0.964706
0.972549 0.749020 0.976471
0.035294 0.847059 0.949020
0.156863 0.854902 0.956863
0.274510 0.854902 0.964706
0.392157 0.854902 0.968627
0.509804 0.858824 0.964706
0.627451 0.858824 0.968627
0.741176 0.858824 0.968627
0.858824 0.866667 0.972549
0.976471 0.870588 0.976471
0.043137 0.972549 0.964706
0.160784 0.976471 0.968627
0.278431 0.976471 0.964706
0.396078 0.980392 0.968627
0.509804 0.976471 0.968627
0.627451 0.976471 0.968627
0.745098 0.988235 0.976471
0.862745 0.988235 0.980392
0.980392 0.992157 0.976471
