assets/luts/clean_neutral.cube
TITLE "myaniform/clean_neutral"
LUT_3D_SIZE 5
DOMAIN_MIN 0.0 0.0 0.0
DOMAIN_MAX 1.0 1.0 1.0
0.011765 0.007843 0.000000
0.243137 0.011765 0.000000
0.474510 0.019608 0.011765
0.705882 0.019608 0.011765
0.933333 0.027451 0.011765
0.015686 0.250980 0.000000
0.254902 0.250980 0.003922
0.486275 0.254902 0.011765
0.709804 0.266667 0.023529
0.945098 0.266667 0.031373
0.019608 0.490196 0.019608
0.258824 0.494118 0.023529
0.490196 0.494118 0.027451
0.721569 0.505882 0.035294
0.956863 0.509804 0.035294
0.027451 0.721569 0.023529
0.266667 0.729412 0.027451
0.498039 0.737255 0.031373
0.729412 0.733333 0.035294
0.968627 0.741176 0.050980
0.039216 0.968627 0.039216
0.270588 0.968627 0.035294
0.501961 0.972549 0.047059
0.741176 0.980392 0.050980
0.972549 0.980392 0.050980
0.007843 0.007843 0.223529
0.247059 0.015686 0.235294
0.470588 0.015686 0.243137
0.701961 0.023529 0.243137
0.941176 0.031373 0.250980
0.015686 0.250980 0.235294
0.243137 0.254902 0.243137
0.482353 0.258824 0.254902
0.717647 0.262745 0.254902
0.952941 0.266667 0.254902
0.015686 0.494118 0.254902
0.247059 0.494118 0.250980
0.494118 0.498039 0.254902
0.725490 0.505882 0.266667
0.949020 0.505882 0.262745
0.027451 0.729412 0.258824
0.262745 0.733333 0.262745
0.494118 0.729412 0.266667
0.733333 0.741176 0.274510
0.964706 0.745098 0.274510
0.039216 0.964706 0.266667
0.274510 0.968627 0.270588
0.513726 0.976471 0.274510
0.733333 0.980392 0.282353
0.976471 0.980392 0.282353
0.007843 0.015686 0.466667
0.243137 0.019608 0.470588
0.466667 0.019608 0.466667
0.709804 0.027451 0.482353
0.945098 0.031373 0.482353
0.011765 0.250980 0.474510
0.247059 0.254902 0.474510
0.486275 0.262745 0.490196
0.713726 0.266667 0.486275
0.949020 0.270588 0.490196
0.027451 0.490196 0.486275
0.254902 0.498039 0.486275
0.490196 0.501961 0.490196
0.725490 0.505882 0.498039
0.964706 0.509804 0.501961
0.035294 0.725490 0.494118
0.266667 0.733333 0.494118
0.501961 0.737255 0.505882
0.729412 0.745098 0.498039
0.972549 0.745098 0.509804
0.035294 0.968627 0.501961
0.274510 0.976471 0.505882
0.509804 0.980392 0.509804
0.741176 0.976471 0.513726
0.980392 0.984314 0.521569
0.003922 0.019608 0.701961
0.243137 0.015686 0.690196
0.482353 0.023529 0.705882
0.709804 0.027451 0.713726
0.937255 0.031373 0.709804
0.015686 0.254902 0.698039
0.250980 0.254902 0.709804
0.486275 0.258824 0.709804
0.713726 0.266667 0.713726
0.949020 0.270588 0.713726
0.023529 0.498039 0.709804
0.258824 0.501961 0.713726
0.501961 0.498039 0.721569
0.721569 0.509804 0.725490
0.960784 0.513726 0.733333
0.031373 0.729412 0.717647
0.266667 0.733333 0.729412
0.498039 0.741176 0.729412
0.733333 0.745098 0.733333
0.968627 0.745098 0.741176
0.043137 0.964706 0.725490
0.282353 0.972549 0.733333
0.513726 0.980392 0.741176
0.737255 0.980392 0.737255
0.984314 0.988235 0.745098
0.011765 0.015686 0.925490
0.239216 0.015686 0.929412
0.478431 0.027451 0.937255
0.713726 0.027451 0.945098
0.945098 0.027451 0.937255
0.015686 0.254902 0.933333
0.250980 0.262745 0.945098
0.486275 0.262745 0.937255
0.717647 0.266667 0.945098
0.956863 0.274510 0.960784
0.019608 0.490196 0.941176
0.258824 0.501961 0.945098
0.498039 0.501961 0.956863
0.733333 0.505882 0.956863
0.960784 0.513726 0.960784
0.035294 0.729412 0.952941
0.270588 0.733333 0.952941
0.505882 0.737255 0.956863
0.737255 0.745098 0.964706
0.972549 0.749020 0.976471
0.043137 0.972549 0.964706
0.278431 0.976471 0.964706
0.509804 0.976471 0.968627
0.745098 0.988235 0.976471
0.980392 0.992157 0.976471
