assets/luts/dream_blush.cube
TITLE "myaniform/dream_blush"
LUT_3D_SIZE 33
DOMAIN_MIN 0.0 0.0 0.0
DOMAIN_MAX 1.0 1.0 1.0
0.215686 0.152941 0.105882
0.250980 0.152941 0.117647
0.270588 0.149020 0.121569
0.301961 0.152941 0.113725
0.337255 0.152941 0.129412
0.368627 0.149020 0.129412
0.392157 0.152941 0.129412
0.419608 0.164706 0.129412
0.435294 0.160784 0.133333
0.470588 0.164706 0.133333
0.498039 0.176471 0.137255
0.521569 0.168627 0.145098
0.549020 0.176471 0.149020
0.572549 0.176471 0.149020
0.584314 0.176471 0.145098
0.607843 0.176471 0.149020
0.627451 0.184314 0.160784
0.643137 0.184314 0.152941
0.662745 0.180392 0.168627
0.678431 0.188235 0.176471
0.698039 0.184314 0.164706
0.713726 0.196078 0.176471
0.733333 0.196078 0.180392
0.745098 0.196078 0.176471
0.772549 0.196078 0.180392
0.792157 0.196078 0.180392
0.811765 0.196078 0.176471
0.827451 0.196078 0.188235
0.847059 0.200000 0.188235
0.862745 0.200000 0.184314
0.882353 0.200000 0.184314
0.898039 0.203922 0.188235
0.917647 0.203922 0.188235
0.215686 0.180392 0.121569
0.250980 0.184314 0.113725
0.282353 0.188235 0.129412
0.305882 0.184314 0.121569
0.329412 0.188235 0.121569
0.364706 0.188235 0.129412
0.392157 0.184314 0.133333
0.415686 0.196078 0.129412
0.447059 0.200000 0.129412
0.478431 0.196078 0.145098
0.501961 0.203922 0.149020
0.533333 0.203922 0.149020
0.549020 0.203922 0.145098
0.572549 0.203922 0.145098
0.592157 0.211765 0.152941
0.611765 0.203922 0.149020
0.623529 0.215686 0.164706
0.647059 0.215686 0.168627
0.662745 0.215686 0.160784
0.682353 0.215686 0.168627
0.701961 0.223529 0.176471
0.717647 0.223529 0.168627
0.733333 0.223529 0.180392
0.752941 0.231373 0.188235
0.772549 0.223529 0.176471
0.788235 0.231373 0.188235
0.807843 0.231373 0.188235
0.827451 0.223529 0.184314
0.850980 0.223529 0.184314
0.866667 0.235294 0.188235
0.886275 0.235294 0.188235
0.901961 0.231373 0.184314
0.921569 0.239216 0.203922
0.219608 0.215686 0.129412
0.254902 0.211765 0.121569
0.282353 0.215686 0.121569
0.309804 0.219608 0.121569
0.333333 0.215686 0.129412
0.368627 0.219608 0.129412
0.392157 0.223529 0.129412
0.415686 0.223529 0.133333
0.447059 0.235294 0.149020
0.478431 0.235294 0.149020
0.501961 0.231373 0.145098
0.533333 0.235294 0.145098
0.556863 0.239216 0.149020
0.572549 0.235294 0.145098
0.592157 0.239216 0.160784
0.611765 0.247059 0.164706
0.623529 0.247059 0.152941
0.643137 0.250980 0.164706
0.662745 0.250980 0.168627
0.682353 0.247059 0.164706
0.701961 0.254902 0.176471
0.717647 0.254902 0.188235
0.737255 0.254902 0.176471
0.752941 0.258824 0.188235
0.776471 0.258824 0.188235
0.792157 0.254902 0.184314
0.811765 0.258824 0.184314
0.831373 0.258824 0.188235
0.847059 0.266667 0.188235
0.866667 0.258824 0.184314
0.882353 0.266667 0.196078
0.901961 0.266667 0.200000
0.921569 0.270588 0.188235
0.219608 0.247059 0.121569
0.254902 0.247059 0.121569
0.274510 0.247059 0.129412
0.313726 0.250980 0.121569
0.337255 0.254902 0.121569
0.368627 0.247059 0.133333
0.392157 0.254902 0.137255
0.423529 0.258824 0.137255
0.447059 0.266667 0.137255
0.478431 0.266667 0.145098
0.501961 0.270588 0.149020
0.525490 0.266667 0.145098
0.552941 0.266667 0.152941
0.576471 0.270588 0.164706
0.592157 0.270588 0.149020
0.611765 0.274510 0.160784
0.631373 0.282353 0.164706
0.643137 0.282353 0.160784
0.662745 0.282353 0.168627
0.682353 0.286275 0.180392
0.698039 0.282353 0.168627
0.717647 0.286275 0.188235
0.741176 0.286275 0.188235
0.752941 0.286275 0.184314
0.776471 0.290196 0.184314
0.800000 0.290196 0.188235
0.815686 0.294118 0.188235
0.831373 0.290196 0.184314
0.850980 0.294118 0.196078
0.870588 0.294118 0.200000
0.882353 0.294118 0.196078
0.905882 0.305882 0.200000
0.921569 0.301961 0.200000
0.215686 0.274510 0.129412
0.250980 0.282353 0.137255
0.286275 0.282353 0.121569
0.305882 0.282353 0.133333
0.337255 0.282353 0.137255
0.372549 0.286275 0.137255
0.396078 0.282353 0.133333
0.427451 0.294118 0.137255
0.454902 0.301961 0.149020
0.482353 0.294118 0.145098
0.501961 0.301961 0.152941
0.533333 0.301961 0.160784
0.552941 0.301961 0.145098
0.572549 0.301961 0.152941
0.596078 0.305882 0.160784
0.615686 0.305882 0.152941
0.631373 0.309804 0.164706
0.650980 0.309804 0.180392
0.666667 0.309804 0.164706
0.686275 0.309804 0.184314
0.701961 0.317647 0.184314
0.717647 0.313726 0.180392
0.737255 0.317647 0.184314
0.756863 0.317647 0.200000
0.776471 0.329412 0.188235
0.792157 0.325490 0.184314
0.819608 0.325490 0.196078
0.839216 0.325490 0.200000
0.850980 0.325490 0.196078
0.870588 0.325490 0.196078
0.890196 0.329412 0.200000
0.909804 0.329412 0.200000
0.921569 0.337255 0.200000
0.219608 0.313726 0.129412
0.250980 0.309804 0.133333
0.282353 0.313726 0.137255
0.313726 0.313726 0.137255
0.333333 0.313726 0.133333
0.368627 0.313726 0.133333
0.396078 0.325490 0.137255
0.427451 0.325490 0.137255
0.454902 0.325490 0.152941
0.486275 0.329412 0.160784
0.501961 0.329412 0.145098
0.533333 0.329412 0.152941
0.552941 0.333333 0.152941
0.576471 0.329412 0.149020
0.592157 0.333333 0.160784
0.611765 0.337255 0.176471
0.635294 0.337255 0.160784
0.654902 0.337255 0.180392
0.666667 0.345098 0.180392
0.690196 0.337255 0.180392
0.705882 0.349020 0.180392
0.721569 0.349020 0.200000
0.741176 0.352941 0.188235
0.756863 0.349020 0.184314
0.776471 0.352941 0.196078
0.800000 0.352941 0.200000
0.811765 0.352941 0.196078
0.831373 0.356863 0.196078
0.854902 0.356863 0.200000
0.870588 0.352941 0.196078
0.890196 0.364706 0.200000
0.909804 0.356863 0.203922
0.925490 0.364706 0.211765
0.215686 0.345098 0.137255
0.254902 0.349020 0.137255
0.274510 0.349020 0.133333
0.309804 0.349020 0.133333
0.333333 0.352941 0.137255
0.364706 0.349020 0.133333
0.396078 0.356863 0.149020
0.427451 0.356863 0.152941
0.454902 0.352941 0.152941
0.486275 0.356863 0.152941
0.509804 0.364706 0.152941
0.537255 0.356863 0.149020
0.560784 0.356863 0.152941
0.576471 0.364706 0.168627
0.600000 0.356863 0.152941
0.611765 0.368627 0.176471
0.635294 0.368627 0.176471
0.650980 0.368627 0.168627
0.670588 0.372549 0.176471
0.686275 0.376471 0.196078
0.705882 0.380392 0.184314
0.725490 0.376471 0.184314
0.741176 0.380392 0.196078
0.764706 0.380392 0.200000
0.776471 0.380392 0.196078
0.800000 0.380392 0.196078
0.819608 0.388235 0.200000
0.835294 0.380392 0.196078
0.850980 0.392157 0.196078
0.870588 0.388235 0.203922
0.890196 0.392157 0.211765
0.913725 0.392157 0.200000
0.929412 0.396078 0.211765
0.219608 0.372549 0.133333
0.254902 0.372549 0.145098
0.282353 0.380392 0.137255
0.309804 0.376471 0.133333
0.337255 0.380392 0.145098
0.376471 0.388235 0.160784
0.396078 0.388235 0.152941
0.431373 0.388235 0.152941
0.462745 0.388235 0.152941
0.482353 0.388235 0.149020
0.509804 0.392157 0.152941
0.541176 0.392157 0.164706
0.556863 0.392157 0.149020
0.580392 0.392157 0.168627
0.603922 0.396078 0.168627
0.611765 0.396078 0.168627
0.635294 0.396078 0.168627
0.654902 0.400000 0.188235
0.666667 0.403922 0.180392
0.690196 0.403922 0.180392
0.701961 0.407843 0.188235
0.721569 0.415686 0.200000
0.741176 0.407843 0.196078
0.764706 0.407843 0.196078
0.784314 0.415686 0.200000
0.800000 0.407843 0.196078
0.819608 0.415686 0.196078
0.839216 0.415686 0.203922
0.850980 0.415686 0.200000
0.878431 0.423529 0.200000
0.890196 0.427451 0.211765
0.909804 0.423529 0.203922
0.929412 0.423529 0.211765
0.219608 0.407843 0.145098
0.250980 0.403922 0.137255
0.286275 0.403922 0.149020
0.317647 0.403922 0.149020
0.352941 0.407843 0.152941
0.376471 0.415686 0.152941
0.407843 0.415686 0.152941
0.431373 0.415686 0.149020
0.462745 0.415686 0.152941
0.486275 0.419608 0.164706
0.509804 0.415686 0.160784
0.537255 0.419608 0.164706
0.560784 0.423529 0.164706
0.572549 0.419608 0.160784
0.600000 0.423529 0.164706
0.619608 0.427451 0.184314
0.643137 0.427451 0.176471
0.654902 0.427451 0.176471
0.670588 0.431373 0.184314
0.694118 0.435294 0.196078
0.701961 0.435294 0.188235
0.721569 0.435294 0.196078
0.741176 0.447059 0.200000
0.760784 0.443137 0.196078
0.784314 0.443137 0.196078
0.803922 0.443137 0.203922
0.819608 0.443137 0.200000
0.839216 0.443137 0.196078
0.858824 0.450980 0.211765
0.878431 0.447059 0.203922
0.894118 0.454902 0.211765
0.913725 0.450980 0.219608
0.925490 0.450980 0.215686
0.223529 0.431373 0.149020
0.254902 0.435294 0.149020
0.290196 0.435294 0.152941
0.309804 0.435294 0.149020
0.352941 0.447059 0.152941
0.380392 0.443137 0.149020
0.415686 0.443137 0.152941
0.435294 0.447059 0.164706
0.462745 0.443137 0.160784
0.490196 0.447059 0.164706
0.517647 0.447059 0.164706
0.537255 0.447059 0.160784
0.560784 0.447059 0.160784
0.580392 0.450980 0.180392
0.603922 0.458824 0.168627
0.611765 0.458824 0.168627
0.635294 0.458824 0.180392
0.662745 0.458824 0.188235
0.670588 0.458824 0.184314
0.694118 0.462745 0.188235
0.709804 0.466667 0.196078
0.725490 0.462745 0.196078
0.741176 0.466667 0.196078
0.764706 0.466667 0.203922
0.780392 0.466667 0.200000
0.803922 0.470588 0.203922
0.823529 0.470588 0.203922
0.843137 0.470588 0.203922
0.858824 0.478431 0.211765
0.882353 0.478431 0.219608
0.894118 0.478431 0.215686
0.913725 0.482353 0.203922
0.933333 0.482353 0.219608
0.235294 0.462745 0.152941
0.254902 0.462745 0.149020
0.290196 0.462745 0.149020
0.317647 0.466667 0.149020
0.352941 0.470588 0.152941
0.380392 0.470588 0.164706
0.407843 0.466667 0.160784
0.443137 0.470588 0.164706
0.462745 0.478431 0.164706
0.490196 0.470588 0.160784
0.517647 0.470588 0.160784
0.541176 0.478431 0.176471
0.564706 0.482353 0.164706
0.580392 0.478431 0.164706
0.603922 0.482353 0.176471
0.619608 0.486275 0.184314
0.639216 0.486275 0.180392
0.654902 0.490196 0.184314
0.670588 0.490196 0.203922
0.694118 0.490196 0.188235
0.709804 0.494118 0.188235
0.729412 0.494118 0.203922
0.741176 0.494118 0.200000
0.764706 0.494118 0.203922
0.784314 0.498039 0.203922
0.803922 0.494118 0.200000
0.819608 0.501961 0.203922
0.843137 0.505882 0.219608
0.862745 0.501961 0.215686
0.878431 0.505882 0.203922
0.898039 0.505882 0.219608
0.913725 0.501961 0.215686
0.933333 0.505882 0.215686
0.235294 0.490196 0.149020
0.266667 0.494118 0.149020
0.294118 0.490196 0.149020
0.317647 0.498039 0.164706
0.352941 0.494118 0.160784
0.376471 0.498039 0.164706
0.407843 0.498039 0.164706
0.431373 0.498039 0.160784
0.458824 0.501961 0.160784
0.486275 0.501961 0.176471
0.513726 0.505882 0.176471
0.541176 0.501961 0.160784
0.564706 0.501961 0.168627
0.584314 0.505882 0.180392
0.603922 0.505882 0.176471
0.619608 0.509804 0.180392
0.639216 0.513726 0.188235
0.658824 0.513726 0.184314
0.670588 0.517647 0.184314
0.694118 0.521569 0.200000
0.709804 0.517647 0.196078
0.729412 0.517647 0.203922
0.749020 0.521569 0.203922
0.768627 0.517647 0.200000
0.792157 0.517647 0.203922
0.803922 0.521569 0.215686
0.831373 0.521569 0.215686
0.843137 0.533333 0.203922
0.866667 0.533333 0.219608
0.878431 0.533333 0.215686
0.898039 0.533333 0.215686
0.913725 0.537255 0.219608
0.929412 0.533333 0.223529
0.223529 0.517647 0.149020
0.258824 0.513726 0.160784
0.290196 0.521569 0.160784
0.317647 0.521569 0.164706
0.352941 0.521569 0.164706
0.376471 0.521569 0.160784
0.407843 0.521569 0.160784
0.431373 0.525490 0.180392
0.462745 0.525490 0.180392
0.482353 0.533333 0.160784
0.509804 0.533333 0.176471
0.537255 0.537255 0.180392
0.560784 0.533333 0.176471
0.584314 0.533333 0.176471
0.607843 0.537255 0.184314
0.619608 0.537255 0.180392
0.643137 0.541176 0.184314
0.658824 0.541176 0.196078
0.670588 0.541176 0.188235
0.694118 0.545098 0.200000
0.713726 0.549020 0.203922
0.725490 0.549020 0.200000
0.749020 0.549020 0.203922
0.772549 0.549020 0.215686
0.788235 0.549020 0.211765
0.811765 0.552941 0.219608
0.831373 0.552941 0.219608
0.843137 0.552941 0.215686
0.866667 0.556863 0.215686
0.882353 0.560784 0.219608
0.898039 0.556863 0.223529
0.913725 0.560784 0.215686
0.937255 0.560784 0.215686
0.223529 0.545098 0.164706
0.250980 0.545098 0.160784
0.286275 0.552941 0.168627
0.309804 0.552941 0.164706
0.349020 0.552941 0.164706
0.376471 0.552941 0.180392
0.407843 0.552941 0.180392
0.431373 0.552941 0.164706
0.458824 0.552941 0.176471
0.486275 0.556863 0.180392
0.509804 0.552941 0.176471
0.533333 0.560784 0.176471
0.560784 0.560784 0.188235
0.580392 0.560784 0.176471
0.603922 0.564706 0.176471
0.623529 0.564706 0.188235
0.643137 0.560784 0.188235
0.658824 0.564706 0.196078
0.682353 0.568627 0.200000
0.694118 0.568627 0.196078
0.713726 0.572549 0.203922
0.729412 0.572549 0.215686
0.749020 0.568627 0.211765
0.768627 0.576471 0.211765
0.792157 0.576471 0.215686
0.807843 0.580392 0.215686
0.831373 0.580392 0.215686
0.850980 0.580392 0.219608
0.866667 0.576471 0.223529
0.882353 0.584314 0.215686
0.901961 0.584314 0.215686
0.917647 0.584314 0.223529
0.937255 0.584314 0.223529
0.223529 0.568627 0.164706
0.250980 0.576471 0.164706
0.286275 0.580392 0.164706
0.309804 0.580392 0.184314
0.345098 0.584314 0.184314
0.364706 0.580392 0.180392
0.396078 0.584314 0.180392
0.431373 0.584314 0.184314
0.458824 0.580392 0.180392
0.482353 0.584314 0.180392
0.509804 0.584314 0.196078
0.533333 0.584314 0.180392
0.560784 0.588235 0.180392
0.580392 0.588235 0.188235
0.603922 0.588235 0.184314
0.619608 0.592157 0.188235
0.643137 0.592157 0.196078
0.662745 0.588235 0.188235
0.674510 0.592157 0.200000
0.694118 0.596078 0.211765
0.713726 0.592157 0.211765
0.733333 0.596078 0.211765
0.756863 0.600000 0.215686
0.768627 0.596078 0.211765
0.796078 0.603922 0.215686
0.811765 0.607843 0.219608
0.831373 0.603922 0.223529
0.847059 0.607843 0.223529
0.866667 0.607843 0.215686
0.886275 0.603922 0.223529
0.905882 0.603922 0.223529
0.921569 0.611765 0.223529
0.937255 0.607843 0.219608
0.223529 0.600000 0.168627
0.250980 0.603922 0.184314
0.286275 0.603922 0.184314
0.305882 0.603922 0.180392
0.337255 0.603922 0.180392
0.368627 0.611765 0.184314
0.396078 0.607843 0.180392
0.419608 0.611765 0.180392
0.450980 0.611765 0.196078
0.478431 0.607843 0.180392
0.505882 0.607843 0.180392
0.533333 0.611765 0.188235
0.556863 0.607843 0.184314
0.584314 0.611765 0.188235
0.607843 0.611765 0.188235
0.627451 0.611765 0.184314
0.643137 0.611765 0.196078
0.662745 0.615686 0.203922
0.678431 0.615686 0.203922
0.694118 0.619608 0.203922
0.713726 0.619608 0.215686
0.733333 0.615686 0.211765
0.756863 0.615686 0.211765
0.776471 0.623529 0.211765
0.796078 0.619608 0.223529
0.811765 0.623529 0.223529
0.831373 0.627451 0.215686
0.847059 0.627451 0.223529
0.866667 0.627451 0.223529
0.882353 0.631373 0.223529
0.898039 0.627451 0.219608
0.921569 0.627451 0.223529
0.941176 0.631373 0.223529
0.215686 0.627451 0.188235
0.247059 0.623529 0.184314
0.282353 0.623529 0.184314
0.309804 0.627451 0.188235
0.337255 0.623529 0.184314
0.364706 0.627451 0.184314
0.396078 0.627451 0.200000
0.419608 0.631373 0.184314
0.450980 0.631373 0.184314
0.482353 0.631373 0.196078
0.498039 0.631373 0.188235
0.525490 0.631373 0.196078
0.556863 0.631373 0.196078
0.576471 0.631373 0.188235
0.603922 0.635294 0.196078
0.627451 0.631373 0.203922
0.643137 0.631373 0.200000
0.662745 0.635294 0.200000
0.682353 0.643137 0.211765
0.694118 0.643137 0.203922
0.713726 0.643137 0.211765
0.733333 0.647059 0.211765
0.752941 0.643137 0.219608
0.776471 0.647059 0.223529
0.800000 0.650980 0.215686
0.815686 0.647059 0.223529
0.835294 0.650980 0.223529
0.850980 0.654902 0.223529
0.866667 0.650980 0.219608
0.886275 0.654902 0.223529
0.905882 0.654902 0.223529
0.917647 0.654902 0.219608
0.937255 0.654902 0.231373
0.211765 0.643137 0.180392
0.239216 0.643137 0.196078
0.270588 0.647059 0.180392
0.305882 0.647059 0.180392
0.333333 0.647059 0.188235
0.368627 0.643137 0.188235
0.388235 0.647059 0.188235
0.419608 0.647059 0.188235
0.447059 0.647059 0.184314
0.478431 0.654902 0.196078
0.501961 0.658824 0.196078
0.525490 0.654902 0.200000
0.545098 0.658824 0.211765
0.572549 0.658824 0.211765
0.600000 0.654902 0.200000
0.619608 0.658824 0.203922
0.643137 0.658824 0.211765
0.662745 0.654902 0.215686
0.682353 0.662745 0.215686
0.701961 0.662745 0.203922
0.717647 0.662745 0.219608
0.741176 0.662745 0.219608
0.756863 0.666667 0.219608
0.780392 0.666667 0.223529
0.792157 0.666667 0.219608
0.815686 0.666667 0.219608
0.835294 0.670588 0.219608
0.854902 0.662745 0.223529
0.870588 0.666667 0.231373
0.890196 0.670588 0.219608
0.901961 0.670588 0.223529
0.921569 0.670588 0.231373
0.941176 0.674510 0.231373
0.203922 0.662745 0.180392
0.247059 0.666667 0.180392
0.266667 0.666667 0.196078
0.301961 0.662745 0.196078
0.325490 0.670588 0.196078
0.356863 0.670588 0.196078
0.392157 0.666667 0.188235
0.407843 0.670588 0.196078
0.447059 0.678431 0.200000
0.470588 0.674510 0.203922
0.505882 0.678431 0.211765
0.525490 0.682353 0.211765
0.552941 0.678431 0.203922
0.576471 0.682353 0.203922
0.603922 0.682353 0.211765
0.611765 0.682353 0.215686
0.643137 0.682353 0.203922
0.662745 0.686275 0.203922
0.682353 0.682353 0.215686
0.701961 0.682353 0.219608
0.717647 0.686275 0.219608
0.741176 0.690196 0.223529
0.756863 0.690196 0.219608
0.780392 0.690196 0.219608
0.796078 0.694118 0.219608
0.815686 0.690196 0.223529
0.831373 0.694118 0.231373
0.854902 0.694118 0.231373
0.870588 0.690196 0.223529
0.886275 0.694118 0.231373
0.909804 0.694118 0.231373
0.929412 0.694118 0.231373
0.941176 0.698039 0.239216
0.211765 0.694118 0.196078
0.239216 0.690196 0.196078
0.266667 0.694118 0.196078
0.301961 0.694118 0.196078
0.325490 0.694118 0.188235
0.352941 0.694118 0.196078
0.388235 0.694118 0.196078
0.415686 0.698039 0.203922
0.447059 0.698039 0.215686
0.466667 0.701961 0.215686
0.494118 0.698039 0.203922
0.521569 0.701961 0.211765
0.552941 0.701961 0.215686
0.572549 0.698039 0.219608
0.600000 0.701961 0.211765
0.615686 0.705882 0.211765
0.635294 0.701961 0.219608
0.658824 0.705882 0.219608
0.674510 0.709804 0.219608
0.701961 0.709804 0.223529
0.721569 0.705882 0.219608
0.745098 0.709804 0.219608
0.760784 0.713726 0.219608
0.780392 0.709804 0.223529
0.800000 0.713726 0.231373
0.819608 0.713726 0.231373
0.831373 0.713726 0.223529
0.854902 0.713726 0.231373
0.870588 0.717647 0.231373
0.890196 0.713726 0.223529
0.901961 0.717647 0.235294
0.925490 0.721569 0.235294
0.941176 0.717647 0.239216
0.203922 0.713726 0.200000
0.239216 0.713726 0.200000
0.266667 0.713726 0.196078
0.301961 0.713726 0.200000
0.329412 0.717647 0.200000
0.352941 0.717647 0.211765
0.380392 0.717647 0.203922
0.415686 0.721569 0.215686
0.443137 0.717647 0.211765
0.466667 0.721569 0.211765
0.498039 0.721569 0.215686
0.513726 0.721569 0.219608
0.545098 0.721569 0.219608
0.572549 0.725490 0.211765
0.596078 0.721569 0.219608
0.615686 0.725490 0.219608
0.643137 0.725490 0.219608
0.662745 0.729412 0.223529
0.678431 0.729412 0.231373
0.701961 0.729412 0.219608
0.717647 0.733333 0.219608
0.741176 0.729412 0.223529
0.760784 0.729412 0.231373
0.780392 0.733333 0.231373
0.800000 0.733333 0.223529
0.819608 0.733333 0.231373
0.839216 0.737255 0.231373
0.854902 0.733333 0.223529
0.870588 0.737255 0.235294
0.890196 0.737255 0.231373
0.909804 0.741176 0.239216
0.929412 0.741176 0.239216
0.941176 0.741176 0.247059
0.203922 0.733333 0.196078
0.231373 0.737255 0.200000
0.266667 0.737255 0.200000
0.294118 0.741176 0.211765
0.325490 0.737255 0.203922
0.356863 0.737255 0.211765
0.392157 0.741176 0.211765
0.415686 0.741176 0.211765
0.450980 0.741176 0.215686
0.466667 0.741176 0.219608
0.498039 0.741176 0.219608
0.521569 0.745098 0.211765
0.545098 0.741176 0.219608
0.568627 0.745098 0.219608
0.596078 0.745098 0.219608
0.619608 0.749020 0.223529
0.643137 0.745098 0.219608
0.662745 0.749020 0.219608
0.682353 0.752941 0.219608
0.701961 0.749020 0.223529
0.721569 0.752941 0.231373
0.745098 0.752941 0.231373
0.756863 0.752941 0.223529
0.780392 0.752941 0.231373
0.800000 0.756863 0.231373
0.819608 0.752941 0.223529
0.839216 0.752941 0.235294
0.858824 0.756863 0.239216
0.870588 0.756863 0.235294
0.898039 0.756863 0.239216
0.917647 0.756863 0.247059
0.929412 0.756863 0.239216
0.949020 0.756863 0.250980
0.211765 0.756863 0.200000
0.239216 0.756863 0.211765
0.266667 0.756863 0.203922
0.294118 0.756863 0.211765
0.329412 0.756863 0.211765
0.349020 0.756863 0.203922
0.392157 0.760784 0.215686
0.419608 0.756863 0.219608
0.450980 0.756863 0.219608
0.470588 0.764706 0.211765
0.498039 0.760784 0.219608
0.521569 0.764706 0.219608
0.552941 0.764706 0.219608
0.572549 0.768627 0.223529
0.596078 0.764706 0.219608
0.615686 0.768627 0.219608
0.643137 0.772549 0.219608
0.662745 0.764706 0.223529
0.686275 0.768627 0.231373
0.709804 0.772549 0.231373
0.721569 0.772549 0.223529
0.745098 0.772549 0.231373
0.764706 0.776471 0.231373
0.784314 0.772549 0.223529
0.800000 0.776471 0.235294
0.819608 0.776471 0.239216
0.839216 0.772549 0.235294
0.854902 0.776471 0.235294
0.878431 0.776471 0.235294
0.898039 0.776471 0.239216
0.917647 0.776471 0.250980
0.933333 0.780392 0.239216
0.949020 0.776471 0.235294
0.211765 0.772549 0.203922
0.239216 0.776471 0.211765
0.274510 0.776471 0.211765
0.294118 0.776471 0.203922
0.329412 0.776471 0.203922
0.356863 0.780392 0.219608
0.392157 0.780392 0.219608
0.419608 0.784314 0.211765
0.447059 0.780392 0.219608
0.478431 0.780392 0.219608
0.505882 0.784314 0.219608
0.525490 0.788235 0.223529
0.552941 0.784314 0.231373
0.576471 0.788235 0.219608
0.603922 0.788235 0.219608
0.615686 0.788235 0.223529
0.643137 0.788235 0.231373
0.662745 0.792157 0.231373
0.686275 0.788235 0.223529
0.701961 0.792157 0.231373
0.725490 0.792157 0.231373
0.745098 0.792157 0.223529
0.772549 0.792157 0.235294
0.788235 0.792157 0.239216
0.803922 0.792157 0.235294
0.823529 0.792157 0.235294
0.843137 0.792157 0.235294
0.854902 0.792157 0.235294
0.878431 0.796078 0.250980
0.898039 0.800000 0.250980
0.913725 0.800000 0.235294
0.933333 0.800000 0.250980
0.952941 0.800000 0.250980
0.211765 0.796078 0.211765
0.239216 0.792157 0.203922
0.274510 0.796078 0.203922
0.305882 0.796078 0.219608
0.337255 0.800000 0.219608
0.364706 0.803922 0.219608
0.392157 0.800000 0.219608
0.419608 0.803922 0.219608
0.450980 0.803922 0.219608
0.478431 0.803922 0.223529
0.498039 0.803922 0.231373
0.533333 0.803922 0.219608
0.552941 0.807843 0.219608
0.576471 0.803922 0.223529
0.603922 0.803922 0.231373
0.623529 0.807843 0.231373
0.647059 0.803922 0.223529
0.662745 0.807843 0.231373
0.690196 0.807843 0.231373
0.705882 0.807843 0.223529
0.729412 0.807843 0.235294
0.745098 0.811765 0.239216
0.764706 0.807843 0.235294
0.788235 0.811765 0.235294
0.807843 0.811765 0.235294
0.823529 0.811765 0.235294
0.843137 0.811765 0.247059
0.866667 0.819608 0.250980
0.882353 0.819608 0.235294
0.898039 0.819608 0.250980
0.917647 0.819608 0.250980
0.929412 0.819608 0.247059
0.949020 0.819608 0.250980
0.211765 0.815686 0.203922
0.239216 0.819608 0.219608
0.270588 0.815686 0.215686
0.305882 0.815686 0.215686
0.337255 0.819608 0.219608
0.368627 0.819608 0.219608
0.400000 0.819608 0.219608
0.423529 0.823529 0.223529
0.450980 0.819608 0.231373
0.478431 0.823529 0.219608
0.505882 0.827451 0.219608
0.521569 0.823529 0.223529
0.552941 0.823529 0.231373
0.576471 0.827451 0.231373
0.600000 0.827451 0.223529
0.623529 0.827451 0.231373
0.650980 0.827451 0.231373
0.662745 0.827451 0.223529
0.694118 0.827451 0.235294
0.709804 0.831373 0.239216
0.729412 0.827451 0.235294
0.749020 0.831373 0.235294
0.772549 0.831373 0.235294
0.784314 0.831373 0.235294
0.803922 0.831373 0.247059
0.827451 0.831373 0.247059
0.843137 0.831373 0.231373
0.866667 0.835294 0.250980
0.886275 0.835294 0.250980
0.898039 0.835294 0.247059
0.921569 0.839216 0.250980
0.933333 0.843137 0.250980
0.949020 0.839216 0.247059
0.215686 0.831373 0.215686
0.239216 0.835294 0.215686
0.274510 0.835294 0.219608
0.305882 0.839216 0.219608
0.337255 0.839216 0.219608
0.372549 0.843137 0.223529
0.400000 0.835294 0.231373
0.427451 0.843137 0.231373
0.458824 0.843137 0.219608
0.478431 0.843137 0.223529
0.505882 0.843137 0.231373
0.533333 0.843137 0.231373
0.556863 0.843137 0.223529
0.576471 0.843137 0.231373
0.603922 0.847059 0.231373
0.623529 0.843137 0.223529
0.647059 0.843137 0.235294
0.670588 0.847059 0.239216
0.694118 0.843137 0.235294
0.709804 0.847059 0.235294
0.737255 0.847059 0.235294
0.749020 0.847059 0.235294
0.772549 0.847059 0.247059
0.792157 0.850980 0.247059
0.803922 0.850980 0.231373
0.823529 0.850980 0.247059
0.847059 0.854902 0.250980
