assets/luts/dream_blush.cube
TITLE "myaniform/dream_blush"
LUT_3D_SIZE 5
DOMAIN_MIN 0.0 0.0 0.0
DOMAIN_MAX 1.0 1.0 1.0
0.215686 0.152941 0.105882
0.435294 0.160784 0.133333
0.627451 0.184314 0.160784
0.772549 0.196078 0.180392
0.917647 0.203922 0.188235
0.219608 0.407843 0.145098
0.462745 0.415686 0.152941
0.643137 0.427451 0.176471
0.784314 0.443137 0.196078
0.925490 0.450980 0.215686
0.215686 0.627451 0.188235
0.450980 0.631373 0.184314
0.643137 0.631373 0.200000
0.800000 0.650980 0.215686
0.937255 0.654902 0.231373
0.211765 0.796078 0.211765
0.450980 0.803922 0.219608
0.647059 0.803922 0.223529
0.807843 0.811765 0.235294
0.949020 0.819608 0.250980
0.231373 0.945098 0.223529
0.462745 0.952941 0.235294
0.654902 0.956863 0.239216
0.819608 0.960784 0.266667
0.960784 0.968627 0.266667
0.211765 0.160784 0.364706
0.450980 0.168627 0.376471
0.631373 0.184314 0.396078
0.776471 0.196078 0.415686
0.917647 0.211765 0.423529
0.231373 0.415686 0.396078
0.435294 0.423529 0.400000
0.619608 0.435294 0.431373
0.792157 0.447059 0.431373
0.929412 0.454902 0.435294
0.219608 0.627451 0.423529
0.427451 0.639216 0.427451
0.639216 0.643137 0.435294
0.800000 0.650980 0.458824
0.941176 0.658824 0.454902
0.215686 0.796078 0.443137
0.447059 0.803922 0.450980
0.643137 0.807843 0.454902
0.811765 0.819608 0.470588
0.952941 0.819608 0.478431
0.239216 0.945098 0.454902
0.466667 0.952941 0.466667
0.662745 0.960784 0.478431
0.819608 0.960784 0.482353
0.964706 0.968627 0.490196
0.200000 0.168627 0.584314
0.427451 0.176471 0.592157
0.627451 0.184314 0.600000
0.780392 0.200000 0.615686
0.921569 0.211765 0.619608
0.215686 0.419608 0.600000
0.419608 0.427451 0.611765
0.623529 0.435294 0.619608
0.788235 0.450980 0.631373
0.929412 0.454902 0.635294
0.223529 0.627451 0.611765
0.435294 0.643137 0.639216
0.635294 0.647059 0.635294
0.803922 0.650980 0.650980
0.949020 0.662745 0.650980
0.219608 0.796078 0.635294
0.450980 0.803922 0.647059
0.650980 0.811765 0.654902
0.811765 0.819608 0.654902
0.956863 0.819608 0.662745
0.235294 0.949020 0.650980
0.478431 0.956863 0.662745
0.662745 0.960784 0.662745
0.823529 0.968627 0.670588
0.968627 0.972549 0.678431
0.168627 0.180392 0.756863
0.403922 0.184314 0.760784
0.615686 0.200000 0.772549
0.776471 0.203922 0.784314
0.921569 0.211765 0.780392
0.188235 0.427451 0.768627
0.423529 0.427451 0.776471
0.623529 0.443137 0.780392
0.792157 0.450980 0.792157
0.933333 0.454902 0.792157
0.203922 0.635294 0.788235
0.443137 0.643137 0.792157
0.639216 0.647059 0.796078
0.800000 0.658824 0.803922
0.945098 0.662745 0.807843
0.223529 0.803922 0.796078
0.454902 0.807843 0.800000
0.650980 0.815686 0.803922
0.815686 0.819608 0.811765
0.952941 0.823529 0.819608
0.239216 0.949020 0.807843
0.482353 0.956863 0.811765
0.662745 0.960784 0.819608
0.819608 0.968627 0.819608
0.968627 0.972549 0.827451
0.176471 0.180392 0.901961
0.407843 0.184314 0.905882
0.615686 0.203922 0.917647
0.780392 0.211765 0.921569
0.929412 0.219608 0.925490
0.184314 0.431373 0.913725
0.427451 0.443137 0.921569
0.631373 0.450980 0.925490
0.792157 0.454902 0.929412
0.937255 0.462745 0.941176
0.211765 0.635294 0.929412
0.447059 0.643137 0.929412
0.643137 0.647059 0.937255
0.803922 0.662745 0.941176
0.949020 0.662745 0.949020
0.231373 0.803922 0.937255
0.466667 0.811765 0.941176
0.658824 0.815686 0.945098
0.819608 0.819608 0.949020
0.960784 0.827451 0.956863
0.247059 0.952941 0.945098
0.478431 0.960784 0.949020
0.666667 0.960784 0.952941
0.823529 0.968627 0.968627
0.968627 0.976471 0.968627
