assets/luts/dream_blush.cube
TITLE "myaniform/dream_blush"
LUT_3D_SIZE 9
DOMAIN_MIN 0.0 0.0 0.0
DOMAIN_MAX 1.0 1.0 1.0
0.215686 0.152941 0.105882
0.337255 0.152941 0.129412
0.435294 0.160784 0.133333
0.549020 0.176471 0.149020
0.627451 0.184314 0.160784
0.698039 0.184314 0.164706
0.772549 0.196078 0.180392
0.847059 0.200000 0.188235
0.917647 0.203922 0.188235
0.215686 0.274510 0.129412
0.337255 0.282353 0.137255
0.454902 0.301961 0.149020
0.552941 0.301961 0.145098
0.631373 0.309804 0.164706
0.701961 0.317647 0.184314
0.776471 0.329412 0.188235
0.850980 0.325490 0.196078
0.921569 0.337255 0.200000
0.219608 0.407843 0.145098
0.352941 0.407843 0.152941
0.462745 0.415686 0.152941
0.560784 0.423529 0.164706
0.643137 0.427451 0.176471
0.701961 0.435294 0.188235
0.784314 0.443137 0.196078
0.858824 0.450980 0.211765
0.925490 0.450980 0.215686
0.223529 0.517647 0.149020
0.352941 0.521569 0.164706
0.462745 0.525490 0.180392
0.560784 0.533333 0.176471
0.643137 0.541176 0.184314
0.713726 0.549020 0.203922
0.788235 0.549020 0.211765
0.866667 0.556863 0.215686
0.937255 0.560784 0.215686
0.215686 0.627451 0.188235
0.337255 0.623529 0.184314
0.450980 0.631373 0.184314
0.556863 0.631373 0.196078
0.643137 0.631373 0.200000
0.713726 0.643137 0.211765
0.800000 0.650980 0.215686
0.866667 0.650980 0.219608
0.937255 0.654902 0.231373
0.203922 0.713726 0.200000
0.329412 0.717647 0.200000
0.443137 0.717647 0.211765
0.545098 0.721569 0.219608
0.643137 0.725490 0.219608
0.717647 0.733333 0.219608
0.800000 0.733333 0.223529
0.870588 0.737255 0.235294
0.941176 0.741176 0.247059
0.211765 0.796078 0.211765
0.337255 0.800000 0.219608
0.450980 0.803922 0.219608
0.552941 0.807843 0.219608
0.647059 0.803922 0.223529
0.729412 0.807843 0.235294
0.807843 0.811765 0.235294
0.882353 0.819608 0.235294
0.949020 0.819608 0.250980
0.223529 0.870588 0.215686
0.349020 0.878431 0.219608
0.454902 0.878431 0.223529
0.560784 0.878431 0.235294
0.654902 0.882353 0.235294
0.733333 0.882353 0.239216
0.811765 0.886275 0.239216
0.890196 0.894118 0.258824
0.949020 0.894118 0.254902
0.231373 0.945098 0.223529
0.352941 0.949020 0.235294
0.462745 0.952941 0.235294
0.564706 0.949020 0.239216
0.654902 0.956863 0.239216
0.737255 0.960784 0.254902
0.819608 0.960784 0.266667
0.890196 0.964706 0.266667
0.960784 0.968627 0.266667
0.215686 0.145098 0.239216
0.333333 0.152941 0.239216
0.447059 0.168627 0.266667
0.552941 0.168627 0.258824
0.627451 0.180392 0.282353
0.701961 0.188235 0.290196
0.776471 0.196078 0.305882
0.843137 0.200000 0.301961
0.921569 0.211765 0.309804
0.223529 0.282353 0.254902
0.337255 0.290196 0.258824
0.454902 0.294118 0.270588
0.541176 0.305882 0.290196
0.619608 0.317647 0.301961
0.698039 0.313726 0.301961
0.776471 0.325490 0.301961
0.854902 0.333333 0.317647
0.925490 0.329412 0.325490
0.219608 0.403922 0.266667
0.345098 0.415686 0.282353
0.458824 0.419608 0.282353
0.545098 0.427451 0.286275
0.619608 0.435294 0.294118
0.705882 0.443137 0.313726
0.780392 0.443137 0.317647
0.854902 0.450980 0.325490
0.929412 0.454902 0.333333
0.223529 0.525490 0.282353
0.325490 0.533333 0.286275
0.450980 0.533333 0.305882
0.552941 0.537255 0.305882
0.627451 0.541176 0.317647
0.709804 0.545098 0.329412
0.792157 0.556863 0.333333
0.866667 0.556863 0.329412
0.933333 0.560784 0.337255
0.219608 0.623529 0.305882
0.317647 0.635294 0.313726
0.431373 0.631373 0.317647
0.541176 0.635294 0.329412
0.635294 0.647059 0.333333
0.717647 0.647059 0.329412
0.796078 0.650980 0.337255
0.870588 0.654902 0.349020
0.941176 0.654902 0.349020
0.203922 0.717647 0.329412
0.325490 0.717647 0.329412
0.443137 0.721569 0.329412
0.545098 0.725490 0.337255
0.639216 0.725490 0.333333
0.721569 0.729412 0.345098
0.800000 0.737255 0.345098
0.878431 0.737255 0.352941
0.945098 0.741176 0.352941
0.203922 0.796078 0.333333
0.337255 0.803922 0.337255
0.454902 0.800000 0.333333
0.556863 0.803922 0.345098
0.647059 0.807843 0.352941
0.729412 0.811765 0.352941
0.803922 0.815686 0.349020
0.882353 0.819608 0.364706
0.949020 0.823529 0.372549
0.223529 0.874510 0.333333
0.345098 0.878431 0.345098
0.462745 0.878431 0.352941
0.564706 0.882353 0.352941
0.650980 0.882353 0.349020
0.733333 0.890196 0.356863
0.819608 0.890196 0.372549
0.890196 0.890196 0.368627
0.956863 0.894118 0.368627
0.235294 0.949020 0.352941
0.356863 0.949020 0.352941
0.462745 0.949020 0.349020
0.568627 0.952941 0.356863
0.662745 0.960784 0.372549
0.741176 0.960784 0.368627
0.819608 0.960784 0.376471
0.894118 0.964706 0.376471
0.960784 0.964706 0.380392
0.211765 0.160784 0.364706
0.337255 0.160784 0.364706
0.450980 0.168627 0.376471
0.549020 0.176471 0.388235
0.631373 0.184314 0.396078
0.694118 0.188235 0.407843
0.776471 0.196078 0.415686
0.850980 0.211765 0.427451
0.917647 0.211765 0.423529
0.215686 0.286275 0.368627
0.345098 0.290196 0.388235
0.454902 0.301961 0.388235
0.537255 0.305882 0.400000
0.615686 0.313726 0.407843
0.698039 0.317647 0.423529
0.784314 0.325490 0.423529
0.854902 0.329412 0.431373
0.925490 0.337255 0.431373
0.231373 0.415686 0.396078
0.345098 0.415686 0.392157
0.435294 0.423529 0.400000
0.533333 0.431373 0.419608
0.619608 0.435294 0.431373
0.701961 0.435294 0.427451
0.792157 0.447059 0.431373
0.862745 0.454902 0.431373
0.929412 0.454902 0.435294
0.231373 0.521569 0.392157
0.333333 0.533333 0.407843
0.427451 0.541176 0.431373
0.537255 0.541176 0.427451
0.627451 0.552941 0.431373
0.709804 0.552941 0.435294
0.792157 0.552941 0.435294
0.866667 0.560784 0.447059
0.933333 0.564706 0.450980
0.219608 0.627451 0.423529
0.317647 0.631373 0.427451
0.427451 0.639216 0.427451
0.545098 0.635294 0.435294
0.639216 0.643137 0.435294
0.721569 0.647059 0.447059
0.800000 0.650980 0.458824
0.866667 0.654902 0.450980
0.941176 0.658824 0.454902
0.203922 0.713726 0.431373
0.333333 0.721569 0.435294
0.435294 0.721569 0.431373
0.549020 0.721569 0.450980
0.639216 0.729412 0.450980
0.721569 0.733333 0.450980
0.803922 0.733333 0.454902
0.878431 0.741176 0.462745
0.945098 0.741176 0.470588
0.215686 0.796078 0.443137
0.333333 0.803922 0.450980
0.447059 0.803922 0.450980
0.556863 0.807843 0.450980
0.643137 0.807843 0.454902
0.733333 0.811765 0.454902
0.811765 0.819608 0.470588
0.878431 0.819608 0.466667
0.952941 0.819608 0.478431
0.223529 0.878431 0.450980
0.345098 0.878431 0.458824
0.458824 0.878431 0.454902
0.568627 0.878431 0.454902
0.662745 0.890196 0.470588
0.741176 0.890196 0.478431
0.815686 0.890196 0.478431
0.886275 0.898039 0.478431
0.952941 0.894118 0.482353
0.239216 0.945098 0.454902
0.356863 0.949020 0.454902
0.466667 0.952941 0.466667
0.568627 0.949020 0.470588
0.662745 0.960784 0.478431
0.745098 0.960784 0.478431
0.819608 0.960784 0.482353
0.890196 0.964706 0.490196
0.964706 0.968627 0.490196
0.203922 0.160784 0.466667
0.329412 0.168627 0.482353
0.450980 0.168627 0.490196
0.549020 0.176471 0.486275
0.623529 0.184314 0.494118
0.701961 0.196078 0.513726
0.776471 0.200000 0.525490
0.854902 0.203922 0.525490
0.921569 0.211765 0.525490
0.219608 0.294118 0.490196
0.325490 0.294118 0.494118
0.443137 0.301961 0.494118
0.541176 0.305882 0.505882
0.619608 0.317647 0.521569
0.698039 0.317647 0.521569
0.780392 0.329412 0.537255
0.858824 0.333333 0.537255
0.921569 0.333333 0.541176
0.223529 0.407843 0.494118
0.329412 0.423529 0.505882
0.427451 0.427451 0.521569
0.525490 0.431373 0.517647
0.623529 0.443137 0.537255
0.701961 0.443137 0.533333
0.788235 0.447059 0.541176
0.866667 0.450980 0.541176
0.933333 0.454902 0.549020
0.231373 0.525490 0.505882
0.329412 0.533333 0.517647
0.431373 0.537255 0.533333
0.533333 0.545098 0.533333
0.631373 0.545098 0.541176
0.717647 0.552941 0.549020
0.792157 0.556863 0.549020
0.870588 0.560784 0.549020
0.937255 0.560784 0.545098
0.215686 0.627451 0.521569
0.325490 0.635294 0.533333
0.435294 0.639216 0.541176
0.541176 0.643137 0.549020
0.639216 0.647059 0.549020
0.721569 0.650980 0.549020
0.796078 0.650980 0.552941
0.874510 0.654902 0.552941
0.941176 0.658824 0.560784
0.215686 0.717647 0.541176
0.329412 0.717647 0.545098
0.447059 0.721569 0.545098
0.549020 0.725490 0.552941
0.643137 0.725490 0.549020
0.721569 0.733333 0.549020
0.803922 0.741176 0.568627
0.878431 0.737255 0.564706
0.949020 0.741176 0.564706
0.219608 0.800000 0.552941
0.345098 0.803922 0.552941
0.450980 0.803922 0.549020
0.552941 0.807843 0.549020
0.654902 0.811765 0.568627
0.733333 0.815686 0.564706
0.807843 0.819608 0.564706
0.886275 0.819608 0.572549
0.952941 0.823529 0.572549
0.219608 0.878431 0.549020
0.349020 0.878431 0.556863
0.458824 0.878431 0.564706
0.560784 0.886275 0.564706
0.658824 0.890196 0.564706
0.741176 0.890196 0.572549
0.819608 0.894118 0.572549
0.890196 0.894118 0.576471
0.956863 0.898039 0.576471
0.231373 0.949020 0.564706
0.356863 0.949020 0.564706
0.462745 0.952941 0.568627
0.576471 0.956863 0.572549
0.666667 0.960784 0.572549
0.741176 0.960784 0.576471
0.823529 0.960784 0.584314
0.894118 0.968627 0.588235
0.960784 0.968627 0.580392
0.200000 0.168627 0.584314
0.317647 0.176471 0.588235
0.427451 0.176471 0.592157
0.541176 0.180392 0.592157
0.627451 0.184314 0.600000
0.698039 0.196078 0.611765
0.780392 0.200000 0.615686
0.854902 0.211765 0.615686
0.921569 0.211765 0.619608
0.203922 0.294118 0.592157
0.305882 0.305882 0.600000
0.419608 0.313726 0.607843
0.525490 0.309804 0.611765
0.619608 0.325490 0.611765
0.698039 0.325490 0.611765
0.784314 0.329412 0.619608
0.854902 0.333333 0.627451
0.929412 0.337255 0.631373
0.215686 0.419608 0.600000
0.309804 0.423529 0.611765
0.419608 0.427451 0.611765
0.533333 0.431373 0.611765
0.623529 0.435294 0.619608
0.709804 0.443137 0.627451
0.788235 0.450980 0.631373
0.862745 0.454902 0.639216
0.929412 0.454902 0.635294
0.219608 0.525490 0.603922
0.317647 0.537255 0.615686
0.427451 0.545098 0.619608
0.541176 0.545098 0.627451
0.631373 0.552941 0.631373
0.717647 0.556863 0.639216
0.792157 0.556863 0.635294
0.866667 0.560784 0.643137
0.941176 0.560784 0.643137
0.223529 0.627451 0.611765
0.317647 0.631373 0.623529
0.435294 0.643137 0.639216
0.549020 0.643137 0.639216
0.635294 0.647059 0.635294
0.725490 0.647059 0.643137
0.803922 0.650980 0.650980
0.870588 0.654902 0.647059
0.949020 0.662745 0.650980
0.211765 0.717647 0.631373
0.329412 0.725490 0.631373
0.447059 0.721569 0.627451
0.552941 0.725490 0.635294
0.650980 0.733333 0.650980
0.725490 0.733333 0.647059
0.803922 0.741176 0.654902
0.878431 0.741176 0.654902
0.949020 0.745098 0.654902
0.219608 0.796078 0.635294
0.337255 0.803922 0.635294
0.450980 0.803922 0.647059
0.560784 0.807843 0.647059
0.650980 0.811765 0.654902
0.733333 0.819608 0.654902
0.811765 0.819608 0.654902
0.882353 0.819608 0.662745
0.956863 0.819608 0.662745
0.231373 0.878431 0.647059
0.349020 0.878431 0.654902
0.462745 0.878431 0.650980
0.568627 0.886275 0.654902
0.658824 0.890196 0.654902
0.741176 0.890196 0.662745
0.819608 0.890196 0.662745
0.890196 0.898039 0.662745
0.960784 0.898039 0.670588
0.235294 0.949020 0.650980
0.352941 0.952941 0.650980
0.478431 0.956863 0.662745
0.572549 0.956863 0.662745
0.662745 0.960784 0.662745
0.749020 0.960784 0.662745
0.823529 0.968627 0.670588
0.894118 0.964706 0.666667
0.968627 0.972549 0.678431
0.180392 0.168627 0.670588
0.294118 0.180392 0.678431
0.419608 0.184314 0.686275
0.521569 0.188235 0.694118
0.619608 0.188235 0.690196
0.701961 0.196078 0.690196
0.780392 0.211765 0.701961
0.854902 0.203922 0.705882
0.925490 0.211765 0.705882
0.184314 0.301961 0.686275
0.305882 0.309804 0.694118
0.415686 0.309804 0.694118
0.517647 0.317647 0.694118
0.623529 0.325490 0.701961
0.705882 0.325490 0.705882
0.784314 0.333333 0.705882
0.862745 0.337255 0.705882
0.929412 0.337255 0.709804
0.188235 0.423529 0.690196
0.309804 0.427451 0.694118
0.423529 0.431373 0.698039
0.521569 0.431373 0.701961
0.627451 0.443137 0.705882
0.713726 0.450980 0.713726
0.788235 0.450980 0.709804
0.862745 0.450980 0.717647
0.929412 0.458824 0.717647
0.200000 0.541176 0.694118
0.309804 0.537255 0.701961
0.427451 0.545098 0.701961
0.541176 0.549020 0.713726
0.635294 0.549020 0.709804
0.713726 0.556863 0.717647
0.796078 0.556863 0.721569
0.866667 0.564706 0.721569
0.933333 0.564706 0.717647
0.203922 0.631373 0.709804
0.329412 0.635294 0.709804
0.443137 0.639216 0.709804
0.545098 0.643137 0.717647
0.643137 0.647059 0.721569
0.717647 0.654902 0.721569
0.800000 0.654902 0.717647
0.878431 0.654902 0.725490
0.949020 0.662745 0.741176
0.211765 0.721569 0.717647
0.333333 0.721569 0.713726
0.447059 0.725490 0.717647
0.549020 0.733333 0.717647
0.647059 0.733333 0.725490
0.729412 0.741176 0.725490
0.807843 0.741176 0.733333
0.878431 0.741176 0.737255
0.949020 0.745098 0.737255
0.223529 0.803922 0.717647
0.345098 0.803922 0.725490
0.450980 0.803922 0.721569
0.560784 0.811765 0.725490
0.658824 0.815686 0.733333
0.733333 0.815686 0.737255
0.811765 0.819608 0.737255
0.882353 0.823529 0.741176
0.949020 0.827451 0.741176
0.223529 0.878431 0.721569
0.352941 0.878431 0.721569
0.462745 0.882353 0.729412
0.564706 0.886275 0.737255
0.662745 0.890196 0.737255
0.737255 0.894118 0.741176
0.823529 0.894118 0.745098
0.890196 0.894118 0.741176
0.960784 0.898039 0.749020
0.247059 0.949020 0.729412
0.364706 0.952941 0.737255
0.470588 0.956863 0.737255
0.580392 0.960784 0.741176
0.666667 0.960784 0.745098
0.745098 0.960784 0.741176
0.827451 0.964706 0.749020
0.898039 0.968627 0.756863
0.964706 0.972549 0.756863
0.168627 0.180392 0.756863
0.290196 0.184314 0.764706
0.403922 0.184314 0.760784
0.517647 0.184314 0.768627
0.615686 0.200000 0.772549
0.698039 0.200000 0.776471
0.776471 0.203922 0.784314
0.850980 0.215686 0.784314
0.921569 0.211765 0.780392
0.180392 0.301961 0.768627
0.301961 0.309804 0.768627
0.415686 0.313726 0.768627
0.521569 0.313726 0.772549
0.619608 0.325490 0.784314
0.705882 0.329412 0.784314
0.788235 0.329412 0.780392
0.858824 0.333333 0.788235
0.929412 0.337255 0.792157
0.188235 0.427451 0.768627
0.305882 0.427451 0.772549
0.423529 0.427451 0.776471
0.537255 0.443137 0.784314
0.623529 0.443137 0.780392
0.713726 0.447059 0.788235
0.792157 0.450980 0.792157
0.866667 0.458824 0.792157
0.933333 0.454902 0.792157
0.196078 0.537255 0.776471
0.313726 0.541176 0.776471
0.431373 0.545098 0.780392
0.541176 0.549020 0.788235
0.631373 0.552941 0.792157
0.717647 0.556863 0.792157
0.792157 0.556863 0.796078
0.866667 0.564706 0.796078
0.941176 0.568627 0.803922
0.203922 0.635294 0.788235
0.313726 0.635294 0.780392
0.443137 0.643137 0.792157
0.545098 0.650980 0.792157
0.639216 0.647059 0.796078
0.721569 0.650980 0.796078
0.800000 0.658824 0.803922
0.878431 0.658824 0.807843
0.945098 0.662745 0.807843
0.215686 0.717647 0.792157
0.333333 0.725490 0.796078
0.454902 0.725490 0.796078
0.556863 0.733333 0.796078
0.647059 0.737255 0.803922
0.737255 0.741176 0.807843
0.807843 0.741176 0.803922
0.878431 0.741176 0.811765
0.949020 0.745098 0.811765
0.223529 0.803922 0.796078
0.337255 0.803922 0.800000
0.454902 0.807843 0.800000
0.564706 0.815686 0.807843
0.650980 0.815686 0.803922
0.737255 0.819608 0.811765
0.815686 0.819608 0.811765
0.886275 0.819608 0.815686
0.952941 0.823529 0.819608
0.231373 0.878431 0.800000
0.352941 0.878431 0.803922
0.462745 0.886275 0.811765
0.568627 0.890196 0.811765
0.662745 0.890196 0.811765
0.741176 0.890196 0.815686
0.815686 0.894118 0.819608
0.890196 0.898039 0.819608
0.960784 0.901961 0.819608
0.239216 0.949020 0.807843
0.356863 0.952941 0.807843
0.482353 0.956863 0.811765
0.576471 0.960784 0.815686
0.662745 0.960784 0.819608
0.745098 0.964706 0.819608
0.819608 0.968627 0.819608
0.901961 0.968627 0.827451
0.968627 0.972549 0.827451
0.164706 0.180392 0.835294
0.290196 0.184314 0.835294
0.403922 0.188235 0.835294
0.513726 0.196078 0.843137
0.611765 0.200000 0.847059
0.698039 0.203922 0.847059
0.784314 0.211765 0.854902
0.854902 0.211765 0.850980
0.921569 0.215686 0.854902
0.176471 0.309804 0.843137
0.301961 0.313726 0.843137
0.407843 0.313726 0.843137
0.525490 0.325490 0.847059
0.627451 0.325490 0.854902
0.701961 0.329412 0.850980
0.788235 0.333333 0.854902
0.858824 0.337255 0.862745
0.925490 0.337255 0.858824
0.184314 0.427451 0.843137
0.313726 0.427451 0.850980
0.431373 0.443137 0.854902
0.533333 0.443137 0.850980
0.631373 0.443137 0.854902
0.709804 0.450980 0.862745
0.792157 0.450980 0.858824
0.866667 0.454902 0.858824
0.941176 0.462745 0.870588
0.196078 0.541176 0.850980
0.313726 0.537255 0.847059
0.435294 0.549020 0.854902
0.545098 0.549020 0.862745
0.631373 0.552941 0.858824
0.717647 0.556863 0.858824
0.800000 0.560784 0.866667
0.870588 0.564706 0.870588
0.941176 0.568627 0.874510
0.203922 0.631373 0.854902
0.333333 0.643137 0.862745
0.435294 0.643137 0.858824
0.549020 0.647059 0.858824
0.639216 0.650980 0.866667
0.721569 0.654902 0.870588
0.803922 0.654902 0.866667
0.878431 0.662745 0.878431
0.945098 0.666667 0.878431
0.215686 0.721569 0.866667
0.337255 0.721569 0.862745
0.450980 0.725490 0.862745
0.564706 0.733333 0.870588
0.650980 0.733333 0.874510
0.733333 0.741176 0.878431
0.811765 0.741176 0.878431
0.878431 0.741176 0.878431
0.949020 0.745098 0.886275
0.231373 0.803922 0.862745
0.349020 0.803922 0.866667
0.458824 0.807843 0.874510
0.568627 0.811765 0.878431
0.658824 0.819608 0.878431
0.737255 0.819608 0.878431
0.815686 0.819608 0.886275
0.886275 0.823529 0.886275
0.952941 0.827451 0.890196
0.231373 0.878431 0.870588
0.349020 0.878431 0.870588
0.466667 0.890196 0.882353
0.568627 0.886275 0.878431
0.658824 0.890196 0.886275
0.741176 0.894118 0.890196
0.819608 0.898039 0.890196
0.890196 0.898039 0.890196
0.964706 0.901961 0.898039
0.239216 0.949020 0.878431
0.356863 0.956863 0.878431
0.478431 0.956863 0.886275
0.576471 0.960784 0.890196
0.662745 0.964706 0.890196
0.749020 0.964706 0.890196
0.823529 0.968627 0.894118
0.898039 0.972549 0.901961
0.968627 0.972549 0.898039
0.176471 0.180392 0.901961
0.294118 0.188235 0.901961
0.407843 0.184314 0.905882
0.517647 0.196078 0.917647
0.615686 0.203922 0.917647
0.701961 0.203922 0.913725
0.780392 0.211765 0.921569
0.854902 0.215686 0.925490
0.929412 0.219608 0.925490
0.176471 0.305882 0.905882
0.294118 0.313726 0.909804
0.423529 0.317647 0.917647
0.521569 0.325490 0.913725
0.615686 0.329412 0.921569
0.709804 0.329412 0.925490
0.788235 0.337255 0.925490
0.862745 0.333333 0.929412
0.933333 0.349020 0.929412
0.184314 0.431373 0.913725
0.305882 0.435294 0.921569
0.427451 0.443137 0.921569
0.533333 0.447059 0.925490
0.631373 0.450980 0.925490
0.713726 0.450980 0.929412
0.792157 0.454902 0.929412
0.866667 0.458824 0.933333
0.937255 0.462745 0.941176
0.200000 0.537255 0.917647
0.325490 0.545098 0.925490
0.447059 0.549020 0.929412
0.545098 0.549020 0.929412
0.635294 0.556863 0.929412
0.717647 0.560784 0.933333
0.792157 0.560784 0.937255
0.874510 0.568627 0.941176
0.945098 0.572549 0.941176
0.211765 0.635294 0.929412
0.329412 0.643137 0.929412
0.447059 0.643137 0.929412
0.549020 0.650980 0.933333
0.643137 0.647059 0.937255
0.725490 0.650980 0.937255
0.803922 0.662745 0.941176
0.878431 0.658824 0.941176
0.949020 0.662745 0.949020
0.211765 0.721569 0.929412
0.337255 0.725490 0.929412
0.450980 0.729412 0.937255
0.560784 0.733333 0.941176
0.650980 0.737255 0.941176
0.733333 0.741176 0.941176
0.803922 0.741176 0.945098
0.882353 0.741176 0.949020
0.952941 0.752941 0.952941
0.231373 0.803922 0.937255
0.345098 0.803922 0.941176
0.466667 0.811765 0.941176
0.568627 0.815686 0.941176
0.658824 0.815686 0.945098
0.737255 0.819608 0.949020
0.819608 0.819608 0.949020
0.890196 0.823529 0.949020
0.960784 0.827451 0.956863
0.235294 0.878431 0.941176
0.368627 0.886275 0.941176
0.466667 0.886275 0.945098
0.572549 0.890196 0.949020
0.662745 0.890196 0.949020
0.741176 0.890196 0.952941
0.819608 0.898039 0.952941
0.898039 0.898039 0.964706
0.960784 0.901961 0.960784
0.247059 0.952941 0.945098
0.368627 0.956863 0.949020
0.478431 0.960784 0.949020
0.572549 0.960784 0.952941
0.666667 0.960784 0.952941
0.749020 0.964706 0.960784
0.823529 0.968627 0.968627
0.898039 0.968627 0.968627
0.968627 0.976471 0.968627
