assets/luts/reference_soft.cube
TITLE "myaniform/reference_soft"
LUT_3D_SIZE 9
DOMAIN_MIN 0.0 0.0 0.0
DOMAIN_MAX 1.0 1.0 1.0
0.152941 0.117647 0.082353
0.286275 0.121569 0.086275
0.400000 0.129412 0.101961
0.517647 0.137255 0.113725
0.615686 0.149020 0.117647
0.698039 0.149020 0.137255
0.776471 0.160784 0.145098
0.854902 0.160784 0.152941
0.929412 0.164706 0.152941
0.164706 0.254902 0.098039
0.294118 0.258824 0.098039
0.415686 0.270588 0.105882
0.525490 0.270588 0.121569
0.619608 0.282353 0.129412
0.701961 0.282353 0.149020
0.776471 0.294118 0.152941
0.854902 0.294118 0.164706
0.929412 0.305882 0.176471
0.168627 0.388235 0.101961
0.294118 0.388235 0.113725
0.423529 0.396078 0.117647
0.537255 0.396078 0.133333
0.627451 0.403922 0.137255
0.701961 0.415686 0.160784
0.784314 0.419608 0.164706
0.862745 0.427451 0.176471
0.937255 0.431373 0.184314
0.180392 0.501961 0.117647
0.313726 0.509804 0.133333
0.431373 0.509804 0.133333
0.545098 0.513726 0.145098
0.635294 0.521569 0.149020
0.713726 0.525490 0.164706
0.792157 0.533333 0.180392
0.866667 0.545098 0.184314
0.941176 0.545098 0.184314
0.184314 0.615686 0.137255
0.309804 0.615686 0.149020
0.423529 0.623529 0.152941
0.533333 0.623529 0.168627
0.631373 0.627451 0.168627
0.717647 0.635294 0.176471
0.800000 0.643137 0.184314
0.874510 0.643137 0.196078
0.949020 0.647059 0.196078
0.164706 0.713726 0.152941
0.301961 0.709804 0.164706
0.427451 0.717647 0.180392
0.537255 0.717647 0.188235
0.635294 0.717647 0.188235
0.717647 0.725490 0.188235
0.800000 0.729412 0.188235
0.878431 0.729412 0.200000
0.952941 0.737255 0.203922
0.176471 0.792157 0.176471
0.309804 0.800000 0.188235
0.431373 0.803922 0.188235
0.537255 0.803922 0.188235
0.635294 0.807843 0.188235
0.725490 0.807843 0.200000
0.803922 0.811765 0.200000
0.886275 0.819608 0.203922
0.960784 0.819608 0.219608
0.180392 0.874510 0.184314
0.313726 0.878431 0.188235
0.431373 0.882353 0.200000
0.545098 0.882353 0.200000
0.643137 0.886275 0.200000
0.733333 0.890196 0.211765
0.811765 0.890196 0.211765
0.890196 0.894118 0.219608
0.964706 0.898039 0.219608
0.196078 0.952941 0.200000
0.325490 0.956863 0.200000
0.443137 0.956863 0.200000
0.552941 0.960784 0.211765
0.650980 0.960784 0.211765
0.737255 0.960784 0.211765
0.819608 0.968627 0.231373
0.890196 0.972549 0.231373
0.964706 0.972549 0.231373
0.160784 0.113725 0.211765
0.286275 0.117647 0.211765
0.407843 0.129412 0.231373
0.521569 0.133333 0.235294
0.611765 0.145098 0.239216
0.694118 0.149020 0.266667
0.772549 0.152941 0.270588
0.850980 0.160784 0.270588
0.929412 0.168627 0.286275
0.160784 0.254902 0.219608
0.286275 0.254902 0.223529
0.415686 0.266667 0.235294
0.517647 0.274510 0.254902
0.611765 0.282353 0.266667
0.694118 0.286275 0.270588
0.776471 0.290196 0.282353
0.858824 0.301961 0.286275
0.933333 0.301961 0.294118
0.164706 0.380392 0.223529
0.301961 0.392157 0.250980
0.419608 0.396078 0.250980
0.521569 0.403922 0.254902
0.615686 0.407843 0.274510
0.701961 0.415686 0.282353
0.784314 0.415686 0.290196
0.862745 0.427451 0.294118
0.933333 0.427451 0.305882
0.180392 0.505882 0.250980
0.301961 0.513726 0.254902
0.419608 0.513726 0.266667
0.533333 0.517647 0.266667
0.619608 0.521569 0.286275
0.705882 0.537255 0.294118
0.792157 0.537255 0.305882
0.866667 0.541176 0.305882
0.941176 0.549020 0.313726
0.180392 0.611765 0.266667
0.294118 0.619608 0.274510
0.415686 0.619608 0.286275
0.533333 0.627451 0.290196
0.631373 0.631373 0.305882
0.713726 0.635294 0.305882
0.803922 0.639216 0.313726
0.878431 0.643137 0.325490
0.949020 0.647059 0.325490
0.176471 0.713726 0.286275
0.305882 0.717647 0.294118
0.423529 0.717647 0.305882
0.533333 0.725490 0.305882
0.627451 0.725490 0.317647
0.717647 0.729412 0.317647
0.803922 0.733333 0.317647
0.882353 0.737255 0.333333
0.952941 0.741176 0.333333
0.168627 0.800000 0.301961
0.305882 0.803922 0.305882
0.431373 0.803922 0.317647
0.545098 0.803922 0.317647
0.643137 0.807843 0.329412
0.725490 0.811765 0.329412
0.807843 0.815686 0.329412
0.886275 0.819608 0.333333
0.960784 0.819608 0.345098
0.196078 0.878431 0.317647
0.325490 0.878431 0.317647
0.443137 0.882353 0.329412
0.552941 0.882353 0.329412
0.643137 0.890196 0.329412
0.733333 0.890196 0.337255
0.819608 0.894118 0.345098
0.890196 0.898039 0.345098
0.964706 0.898039 0.345098
0.196078 0.956863 0.329412
0.325490 0.956863 0.329412
0.447059 0.960784 0.329412
0.552941 0.960784 0.337255
0.654902 0.968627 0.345098
0.741176 0.968627 0.345098
0.823529 0.968627 0.352941
0.898039 0.972549 0.352941
0.968627 0.972549 0.356863
0.149020 0.121569 0.345098
0.286275 0.121569 0.345098
0.407843 0.133333 0.356863
0.521569 0.133333 0.364706
0.615686 0.145098 0.368627
0.694118 0.149020 0.388235
0.776471 0.160784 0.392157
0.854902 0.168627 0.400000
0.929412 0.168627 0.407843
0.164706 0.254902 0.352941
0.301961 0.266667 0.364706
0.419608 0.266667 0.364706
0.521569 0.274510 0.376471
0.615686 0.286275 0.388235
0.694118 0.290196 0.392157
0.780392 0.294118 0.403922
0.862745 0.301961 0.407843
0.933333 0.305882 0.407843
0.168627 0.392157 0.368627
0.301961 0.396078 0.372549
0.415686 0.403922 0.376471
0.513726 0.403922 0.388235
0.611765 0.415686 0.403922
0.701961 0.415686 0.403922
0.792157 0.423529 0.407843
0.866667 0.427451 0.419608
0.941176 0.431373 0.419608
0.180392 0.509804 0.372549
0.301961 0.517647 0.376471
0.407843 0.521569 0.400000
0.517647 0.525490 0.400000
0.619608 0.537255 0.407843
0.709804 0.533333 0.415686
0.796078 0.541176 0.419608
0.870588 0.541176 0.427451
0.941176 0.549020 0.427451
0.180392 0.615686 0.392157
0.294118 0.623529 0.400000
0.415686 0.627451 0.403922
0.521569 0.627451 0.415686
0.627451 0.635294 0.419608
0.713726 0.639216 0.427451
0.796078 0.643137 0.427451
0.874510 0.643137 0.435294
0.945098 0.647059 0.435294
0.168627 0.709804 0.403922
0.301961 0.717647 0.415686
0.423529 0.717647 0.415686
0.533333 0.717647 0.423529
0.631373 0.721569 0.423529
0.721569 0.725490 0.431373
0.803922 0.725490 0.431373
0.882353 0.733333 0.447059
0.956863 0.737255 0.450980
0.180392 0.800000 0.423529
0.309804 0.803922 0.423529
0.427451 0.803922 0.423529
0.541176 0.803922 0.431373
0.631373 0.807843 0.431373
0.721569 0.811765 0.443137
0.807843 0.819608 0.450980
0.886275 0.819608 0.450980
0.956863 0.819608 0.458824
0.180392 0.878431 0.423529
0.309804 0.882353 0.431373
0.431373 0.886275 0.431373
0.549020 0.882353 0.443137
0.650980 0.890196 0.450980
0.733333 0.890196 0.458824
0.815686 0.894118 0.458824
0.890196 0.898039 0.458824
0.960784 0.898039 0.458824
0.200000 0.952941 0.431373
0.329412 0.952941 0.443137
0.447059 0.956863 0.443137
0.556863 0.956863 0.450980
0.658824 0.960784 0.458824
0.741176 0.968627 0.458824
0.819608 0.968627 0.466667
0.898039 0.972549 0.470588
0.968627 0.976471 0.470588
0.149020 0.117647 0.458824
0.286275 0.129412 0.462745
0.407843 0.129412 0.478431
0.517647 0.133333 0.478431
0.615686 0.149020 0.486275
0.694118 0.152941 0.501961
0.776471 0.164706 0.505882
0.854902 0.176471 0.509804
0.929412 0.180392 0.509804
0.160784 0.258824 0.478431
0.282353 0.270588 0.478431
0.415686 0.274510 0.486275
0.521569 0.282353 0.494118
0.615686 0.286275 0.501961
0.694118 0.294118 0.505882
0.784314 0.301961 0.517647
0.862745 0.305882 0.517647
0.937255 0.309804 0.521569
0.180392 0.392157 0.490196
0.301961 0.400000 0.494118
0.415686 0.407843 0.501961
0.517647 0.407843 0.501961
0.619608 0.419608 0.517647
0.701961 0.419608 0.513726
0.792157 0.427451 0.521569
0.866667 0.431373 0.533333
0.941176 0.431373 0.533333
0.188235 0.509804 0.490196
0.301961 0.517647 0.501961
0.407843 0.525490 0.509804
0.517647 0.525490 0.513726
0.623529 0.537255 0.521569
0.713726 0.541176 0.533333
0.796078 0.545098 0.533333
0.874510 0.545098 0.533333
0.945098 0.549020 0.541176
0.184314 0.619608 0.501961
0.294118 0.627451 0.509804
0.415686 0.627451 0.513726
0.533333 0.635294 0.533333
0.631373 0.639216 0.533333
0.717647 0.643137 0.533333
0.803922 0.643137 0.541176
0.878431 0.647059 0.541176
0.949020 0.647059 0.549020
0.184314 0.713726 0.517647
0.309804 0.717647 0.521569
0.423529 0.721569 0.525490
0.537255 0.721569 0.537255
0.631373 0.725490 0.537255
0.717647 0.733333 0.537255
0.807843 0.733333 0.549020
0.886275 0.737255 0.549020
0.956863 0.737255 0.556863
0.180392 0.803922 0.537255
0.309804 0.803922 0.537255
0.431373 0.803922 0.537255
0.545098 0.807843 0.537255
0.643137 0.815686 0.549020
0.733333 0.815686 0.549020
0.815686 0.819608 0.556863
0.890196 0.819608 0.556863
0.960784 0.819608 0.564706
0.188235 0.878431 0.537255
0.317647 0.882353 0.545098
0.443137 0.886275 0.545098
0.549020 0.886275 0.545098
0.650980 0.890196 0.556863
0.733333 0.894118 0.556863
0.815686 0.898039 0.564706
0.890196 0.898039 0.568627
0.964706 0.898039 0.568627
0.200000 0.956863 0.545098
0.317647 0.960784 0.545098
0.443137 0.960784 0.552941
0.556863 0.968627 0.556863
0.658824 0.964706 0.564706
0.741176 0.968627 0.568627
0.819608 0.968627 0.576471
0.898039 0.972549 0.576471
0.968627 0.976471 0.576471
0.149020 0.129412 0.572549
0.282353 0.137255 0.576471
0.403922 0.137255 0.584314
0.517647 0.145098 0.584314
0.611765 0.149020 0.584314
0.698039 0.149020 0.600000
0.780392 0.164706 0.611765
0.858824 0.168627 0.611765
0.929412 0.176471 0.611765
0.160784 0.266667 0.584314
0.274510 0.270588 0.588235
0.400000 0.274510 0.592157
0.513726 0.274510 0.600000
0.611765 0.290196 0.607843
0.698039 0.290196 0.607843
0.780392 0.301961 0.615686
0.858824 0.305882 0.615686
0.933333 0.309804 0.615686
0.168627 0.396078 0.592157
0.274510 0.400000 0.596078
0.392157 0.407843 0.607843
0.509804 0.407843 0.607843
0.615686 0.419608 0.615686
0.701961 0.423529 0.615686
0.788235 0.427451 0.615686
0.866667 0.427451 0.623529
0.941176 0.431373 0.623529
0.176471 0.509804 0.596078
0.290196 0.517647 0.611765
0.407843 0.521569 0.611765
0.525490 0.525490 0.615686
0.623529 0.533333 0.615686
0.709804 0.537255 0.623529
0.792157 0.541176 0.623529
0.870588 0.545098 0.623529
0.945098 0.545098 0.631373
0.184314 0.615686 0.603922
0.301961 0.623529 0.611765
0.415686 0.631373 0.623529
0.525490 0.635294 0.623529
0.627451 0.635294 0.623529
0.717647 0.639216 0.623529
0.800000 0.643137 0.631373
0.878431 0.643137 0.631373
0.952941 0.650980 0.639216
0.176471 0.717647 0.615686
0.294118 0.717647 0.619608
0.419608 0.717647 0.619608
0.541176 0.721569 0.631373
0.639216 0.725490 0.631373
0.721569 0.733333 0.631373
0.807843 0.737255 0.647059
0.886275 0.741176 0.647059
0.960784 0.741176 0.647059
0.184314 0.796078 0.627451
0.317647 0.803922 0.631373
0.443137 0.803922 0.631373
0.545098 0.811765 0.631373
0.647059 0.815686 0.647059
0.733333 0.819608 0.647059
0.811765 0.823529 0.647059
0.890196 0.819608 0.654902
0.964706 0.823529 0.654902
0.196078 0.882353 0.631373
0.317647 0.886275 0.643137
0.443137 0.886275 0.643137
0.556863 0.890196 0.647059
0.654902 0.894118 0.647059
0.741176 0.894118 0.654902
0.819608 0.898039 0.654902
0.898039 0.898039 0.662745
0.968627 0.898039 0.662745
0.203922 0.960784 0.643137
0.329412 0.960784 0.643137
0.454902 0.964706 0.654902
0.564706 0.968627 0.654902
0.662745 0.968627 0.654902
0.745098 0.968627 0.662745
0.819608 0.972549 0.662745
0.898039 0.976471 0.666667
0.972549 0.980392 0.674510
0.149020 0.133333 0.674510
0.274510 0.137255 0.674510
0.400000 0.137255 0.674510
0.505882 0.149020 0.686275
0.611765 0.149020 0.686275
0.698039 0.152941 0.686275
0.780392 0.168627 0.694118
0.858824 0.176471 0.698039
0.933333 0.176471 0.701961
0.149020 0.270588 0.682353
0.266667 0.282353 0.690196
0.392157 0.286275 0.690196
0.505882 0.286275 0.690196
0.611765 0.294118 0.698039
0.701961 0.301961 0.698039
0.788235 0.305882 0.701961
0.866667 0.305882 0.701961
0.941176 0.309804 0.709804
0.160784 0.400000 0.686275
0.274510 0.407843 0.690196
0.400000 0.407843 0.694118
0.513726 0.415686 0.694118
0.619608 0.423529 0.701961
0.709804 0.423529 0.709804
0.792157 0.427451 0.709804
0.866667 0.431373 0.709804
0.941176 0.435294 0.709804
0.168627 0.517647 0.694118
0.286275 0.521569 0.694118
0.400000 0.533333 0.694118
0.525490 0.533333 0.709804
0.627451 0.537255 0.709804
0.713726 0.545098 0.709804
0.792157 0.545098 0.717647
0.870588 0.549020 0.717647
0.945098 0.552941 0.717647
0.176471 0.623529 0.698039
0.294118 0.623529 0.701961
0.423529 0.631373 0.709804
0.537255 0.635294 0.709804
0.635294 0.635294 0.717647
0.717647 0.643137 0.717647
0.800000 0.647059 0.717647
0.882353 0.643137 0.721569
0.952941 0.654902 0.725490
0.180392 0.717647 0.709804
0.305882 0.717647 0.713726
0.427451 0.717647 0.713726
0.533333 0.725490 0.713726
0.635294 0.733333 0.721569
0.725490 0.733333 0.721569
0.803922 0.737255 0.721569
0.882353 0.741176 0.729412
0.956863 0.741176 0.729412
0.180392 0.803922 0.713726
0.309804 0.803922 0.717647
0.427451 0.807843 0.717647
0.552941 0.811765 0.721569
0.647059 0.815686 0.721569
0.733333 0.819608 0.729412
0.811765 0.819608 0.729412
0.890196 0.819608 0.733333
0.960784 0.823529 0.741176
0.196078 0.878431 0.717647
0.325490 0.882353 0.717647
0.447059 0.886275 0.717647
0.560784 0.890196 0.729412
0.650980 0.894118 0.729412
0.737255 0.898039 0.733333
0.819608 0.898039 0.741176
0.894118 0.898039 0.741176
0.968627 0.898039 0.745098
0.200000 0.956863 0.725490
0.325490 0.960784 0.725490
0.450980 0.964706 0.729412
0.560784 0.968627 0.733333
0.658824 0.968627 0.741176
0.741176 0.968627 0.741176
0.823529 0.968627 0.745098
0.898039 0.972549 0.745098
0.976471 0.980392 0.756863
0.121569 0.137255 0.760784
0.254902 0.145098 0.760784
0.388235 0.145098 0.760784
0.501961 0.145098 0.768627
0.611765 0.152941 0.776471
0.694118 0.164706 0.776471
0.776471 0.164706 0.780392
0.854902 0.168627 0.780392
0.929412 0.176471 0.780392
0.137255 0.270588 0.768627
0.270588 0.274510 0.768627
0.396078 0.274510 0.772549
0.509804 0.282353 0.772549
0.611765 0.294118 0.780392
0.701961 0.294118 0.780392
0.784314 0.301961 0.780392
0.866667 0.309804 0.784314
0.941176 0.309804 0.792157
0.145098 0.400000 0.772549
0.274510 0.403922 0.776471
0.400000 0.415686 0.780392
0.513726 0.419608 0.780392
0.615686 0.419608 0.780392
0.713726 0.427451 0.792157
0.792157 0.431373 0.792157
0.870588 0.431373 0.792157
0.945098 0.435294 0.792157
0.160784 0.521569 0.780392
0.290196 0.525490 0.780392
0.407843 0.533333 0.780392
0.525490 0.537255 0.792157
0.627451 0.541176 0.792157
0.717647 0.545098 0.792157
0.800000 0.545098 0.800000
0.878431 0.549020 0.800000
0.949020 0.560784 0.803922
0.168627 0.623529 0.788235
0.301961 0.627451 0.788235
0.423529 0.635294 0.792157
0.533333 0.643137 0.792157
0.635294 0.639216 0.800000
0.717647 0.647059 0.800000
0.803922 0.650980 0.800000
0.878431 0.650980 0.803922
0.952941 0.658824 0.807843
0.180392 0.717647 0.792157
0.305882 0.721569 0.792157
0.427451 0.721569 0.792157
0.545098 0.729412 0.800000
0.643137 0.733333 0.803922
0.729412 0.733333 0.803922
0.811765 0.737255 0.803922
0.890196 0.741176 0.811765
0.960784 0.741176 0.811765
0.188235 0.803922 0.792157
0.313726 0.803922 0.803922
0.435294 0.807843 0.803922
0.552941 0.815686 0.803922
0.643137 0.819608 0.803922
0.733333 0.819608 0.811765
0.815686 0.819608 0.811765
0.890196 0.823529 0.811765
0.960784 0.823529 0.819608
0.188235 0.886275 0.803922
0.317647 0.886275 0.803922
0.447059 0.890196 0.811765
0.552941 0.894118 0.811765
0.658824 0.894118 0.811765
0.741176 0.898039 0.811765
0.819608 0.898039 0.819608
0.894118 0.898039 0.819608
0.968627 0.905882 0.823529
0.211765 0.956863 0.807843
0.333333 0.960784 0.807843
0.458824 0.964706 0.811765
0.568627 0.968627 0.811765
0.662745 0.968627 0.819608
0.745098 0.972549 0.819608
0.823529 0.972549 0.819608
0.901961 0.980392 0.831373
0.976471 0.980392 0.831373
0.133333 0.137255 0.843137
0.266667 0.145098 0.843137
0.388235 0.149020 0.843137
0.501961 0.149020 0.847059
0.611765 0.160784 0.850980
0.694118 0.168627 0.850980
0.780392 0.168627 0.858824
0.854902 0.176471 0.858824
0.929412 0.180392 0.858824
0.133333 0.282353 0.847059
0.266667 0.282353 0.847059
0.392157 0.286275 0.847059
0.513726 0.290196 0.850980
0.615686 0.294118 0.858824
0.701961 0.301961 0.858824
0.788235 0.305882 0.858824
0.862745 0.305882 0.866667
0.937255 0.309804 0.866667
0.152941 0.400000 0.847059
0.282353 0.403922 0.854902
0.407843 0.415686 0.858824
0.521569 0.419608 0.858824
0.623529 0.419608 0.858824
0.709804 0.427451 0.866667
0.792157 0.427451 0.866667
0.866667 0.431373 0.866667
0.945098 0.443137 0.866667
0.164706 0.517647 0.854902
0.286275 0.521569 0.854902
0.415686 0.533333 0.866667
0.521569 0.537255 0.866667
0.623529 0.541176 0.866667
0.717647 0.541176 0.866667
0.796078 0.545098 0.870588
0.874510 0.545098 0.870588
0.949020 0.552941 0.874510
0.164706 0.623529 0.862745
0.301961 0.631373 0.866667
0.423529 0.635294 0.866667
0.533333 0.639216 0.866667
0.631373 0.639216 0.870588
0.721569 0.643137 0.870588
0.803922 0.643137 0.870588
0.882353 0.650980 0.882353
0.956863 0.654902 0.882353
0.184314 0.717647 0.866667
0.309804 0.717647 0.866667
0.423529 0.721569 0.866667
0.541176 0.729412 0.870588
0.639216 0.729412 0.878431
0.721569 0.737255 0.878431
0.807843 0.737255 0.878431
0.886275 0.737255 0.886275
0.960784 0.741176 0.890196
0.184314 0.803922 0.866667
0.313726 0.803922 0.874510
0.435294 0.807843 0.878431
0.549020 0.811765 0.878431
0.647059 0.815686 0.878431
0.737255 0.815686 0.886275
0.819608 0.819608 0.890196
0.894118 0.823529 0.890196
0.968627 0.823529 0.894118
0.196078 0.878431 0.874510
0.329412 0.886275 0.878431
0.447059 0.890196 0.882353
0.556863 0.890196 0.886275
0.658824 0.898039 0.890196
0.741176 0.898039 0.894118
0.819608 0.901961 0.894118
0.898039 0.905882 0.898039
0.968627 0.909804 0.898039
0.211765 0.960784 0.882353
0.329412 0.964706 0.886275
0.454902 0.968627 0.890196
0.564706 0.968627 0.894118
0.658824 0.972549 0.894118
0.745098 0.972549 0.894118
0.827451 0.976471 0.894118
0.905882 0.980392 0.901961
0.976471 0.984314 0.901961
0.133333 0.145098 0.917647
0.266667 0.149020 0.917647
0.392157 0.149020 0.921569
0.505882 0.160784 0.925490
0.611765 0.164706 0.925490
0.701961 0.168627 0.925490
0.788235 0.168627 0.929412
0.862745 0.176471 0.929412
0.937255 0.180392 0.929412
0.145098 0.282353 0.921569
0.274510 0.282353 0.921569
0.403922 0.290196 0.925490
0.513726 0.294118 0.925490
0.615686 0.294118 0.929412
0.709804 0.301961 0.929412
0.788235 0.309804 0.929412
0.866667 0.309804 0.941176
0.941176 0.317647 0.941176
0.152941 0.403922 0.921569
0.274510 0.407843 0.929412
0.403922 0.419608 0.929412
0.517647 0.423529 0.929412
0.623529 0.423529 0.929412
0.709804 0.427451 0.941176
0.792157 0.431373 0.941176
0.870588 0.435294 0.941176
0.945098 0.443137 0.949020
0.164706 0.521569 0.929412
0.301961 0.533333 0.929412
0.423529 0.533333 0.937255
0.533333 0.537255 0.941176
0.631373 0.541176 0.941176
0.717647 0.545098 0.941176
0.800000 0.549020 0.945098
0.878431 0.552941 0.949020
0.949020 0.556863 0.949020
0.176471 0.623529 0.933333
0.309804 0.631373 0.941176
0.423529 0.639216 0.941176
0.537255 0.639216 0.945098
0.631373 0.643137 0.945098
0.721569 0.643137 0.945098
0.807843 0.650980 0.949020
0.886275 0.654902 0.952941
0.956863 0.658824 0.952941
0.176471 0.717647 0.941176
0.305882 0.721569 0.941176
0.431373 0.729412 0.945098
0.549020 0.725490 0.949020
0.647059 0.729412 0.949020
0.729412 0.737255 0.949020
0.811765 0.741176 0.949020
0.886275 0.741176 0.956863
0.960784 0.745098 0.960784
0.196078 0.803922 0.941176
0.317647 0.803922 0.949020
0.447059 0.807843 0.949020
0.549020 0.815686 0.949020
0.647059 0.819608 0.949020
0.729412 0.819608 0.956863
0.811765 0.823529 0.956863
0.894118 0.827451 0.960784
0.968627 0.827451 0.968627
0.196078 0.882353 0.949020
0.329412 0.890196 0.949020
0.450980 0.890196 0.956863
0.556863 0.890196 0.956863
0.654902 0.894118 0.956863
0.741176 0.898039 0.960784
0.823529 0.898039 0.960784
0.898039 0.901961 0.968627
0.972549 0.905882 0.968627
0.211765 0.960784 0.956863
0.337255 0.964706 0.956863
0.458824 0.964706 0.956863
0.564706 0.968627 0.960784
0.662745 0.968627 0.960784
0.749020 0.968627 0.964706
0.827451 0.980392 0.972549
0.901961 0.980392 0.972549
0.972549 0.980392 0.972549
