assets/luts/reference_soft.cube
TITLE "myaniform/reference_soft"
LUT_3D_SIZE 33
DOMAIN_MIN 0.0 0.0 0.0
DOMAIN_MAX 1.0 1.0 1.0
0.152941 0.117647 0.082353
0.184314 0.105882 0.090196
0.219608 0.113725 0.090196
0.254902 0.113725 0.082353
0.286275 0.121569 0.086275
0.313726 0.117647 0.090196
0.349020 0.117647 0.098039
0.380392 0.121569 0.098039
0.400000 0.129412 0.101961
0.427451 0.121569 0.098039
0.466667 0.129412 0.101961
0.498039 0.133333 0.113725
0.517647 0.137255 0.113725
0.545098 0.129412 0.117647
0.572549 0.133333 0.105882
0.596078 0.133333 0.113725
0.615686 0.149020 0.117647
0.627451 0.145098 0.121569
0.654902 0.145098 0.121569
0.674510 0.149020 0.133333
0.698039 0.149020 0.137255
0.713726 0.149020 0.133333
0.733333 0.152941 0.137255
0.752941 0.152941 0.145098
0.776471 0.160784 0.145098
0.792157 0.160784 0.137255
0.811765 0.160784 0.145098
0.831373 0.160784 0.145098
0.854902 0.160784 0.152941
0.866667 0.160784 0.149020
0.886275 0.160784 0.152941
0.909804 0.164706 0.145098
0.929412 0.164706 0.152941
0.152941 0.145098 0.090196
0.188235 0.149020 0.082353
0.219608 0.152941 0.086275
0.254902 0.149020 0.090196
0.286275 0.152941 0.090196
0.317647 0.152941 0.098039
0.349020 0.160784 0.101961
0.372549 0.152941 0.098039
0.403922 0.160784 0.098039
0.443137 0.164706 0.105882
0.462745 0.168627 0.105882
0.490196 0.164706 0.117647
0.517647 0.168627 0.105882
0.552941 0.168627 0.113725
0.572549 0.176471 0.113725
0.592157 0.168627 0.117647
0.615686 0.176471 0.121569
0.635294 0.180392 0.129412
0.658824 0.180392 0.133333
0.670588 0.180392 0.129412
0.698039 0.180392 0.137255
0.717647 0.188235 0.137255
0.737255 0.188235 0.137255
0.749020 0.188235 0.149020
0.772549 0.188235 0.145098
0.792157 0.196078 0.145098
0.815686 0.196078 0.152941
0.831373 0.196078 0.149020
0.850980 0.196078 0.152941
0.874510 0.196078 0.145098
0.890196 0.196078 0.152941
0.909804 0.200000 0.160784
0.929412 0.203922 0.160784
0.164706 0.184314 0.086275
0.196078 0.176471 0.090196
0.219608 0.180392 0.090196
0.254902 0.188235 0.090196
0.290196 0.188235 0.098039
0.317647 0.184314 0.098039
0.349020 0.188235 0.098039
0.380392 0.196078 0.098039
0.407843 0.203922 0.105882
0.443137 0.196078 0.113725
0.466667 0.200000 0.101961
0.498039 0.200000 0.113725
0.517647 0.211765 0.113725
0.552941 0.196078 0.117647
0.572549 0.203922 0.117647
0.600000 0.211765 0.121569
0.615686 0.215686 0.129412
0.635294 0.211765 0.121569
0.658824 0.211765 0.133333
0.678431 0.215686 0.133333
0.698039 0.219608 0.137255
0.717647 0.215686 0.145098
0.741176 0.219608 0.137255
0.752941 0.223529 0.145098
0.776471 0.223529 0.152941
0.792157 0.219608 0.149020
0.819608 0.219608 0.152941
0.839216 0.223529 0.145098
0.854902 0.231373 0.152941
0.874510 0.231373 0.160784
0.890196 0.223529 0.152941
0.909804 0.231373 0.152941
0.929412 0.239216 0.164706
0.152941 0.219608 0.090196
0.188235 0.219608 0.090196
0.231373 0.223529 0.098039
0.258824 0.219608 0.090196
0.286275 0.223529 0.090196
0.317647 0.223529 0.098039
0.352941 0.223529 0.101961
0.380392 0.219608 0.105882
0.407843 0.231373 0.113725
0.443137 0.235294 0.105882
0.470588 0.235294 0.113725
0.498039 0.231373 0.117647
0.521569 0.235294 0.117647
0.552941 0.235294 0.121569
0.580392 0.239216 0.121569
0.600000 0.239216 0.117647
0.615686 0.247059 0.129412
0.635294 0.250980 0.129412
0.658824 0.250980 0.133333
0.678431 0.247059 0.137255
0.698039 0.250980 0.137255
0.717647 0.254902 0.137255
0.741176 0.258824 0.152941
0.756863 0.254902 0.149020
0.776471 0.254902 0.152941
0.800000 0.258824 0.145098
0.815686 0.258824 0.152941
0.835294 0.266667 0.160784
0.854902 0.258824 0.152941
0.878431 0.258824 0.152941
0.890196 0.266667 0.164706
0.909804 0.266667 0.160784
0.929412 0.270588 0.160784
0.164706 0.254902 0.098039
0.196078 0.250980 0.101961
0.219608 0.254902 0.090196
0.266667 0.254902 0.090196
0.294118 0.258824 0.098039
0.317647 0.254902 0.105882
0.349020 0.258824 0.105882
0.388235 0.266667 0.105882
0.415686 0.270588 0.105882
0.443137 0.258824 0.113725
0.466667 0.270588 0.117647
0.498039 0.270588 0.121569
0.525490 0.270588 0.121569
0.552941 0.266667 0.117647
0.576471 0.270588 0.121569
0.600000 0.282353 0.121569
0.619608 0.282353 0.129412
0.643137 0.274510 0.133333
0.658824 0.282353 0.133333
0.682353 0.282353 0.133333
0.701961 0.282353 0.149020
0.717647 0.282353 0.145098
0.741176 0.286275 0.152941
0.756863 0.290196 0.152941
0.776471 0.294118 0.152941
0.803922 0.290196 0.160784
0.819608 0.290196 0.152941
0.839216 0.294118 0.152941
0.854902 0.294118 0.164706
0.874510 0.301961 0.160784
0.898039 0.301961 0.160784
0.917647 0.301961 0.160784
0.929412 0.305882 0.176471
0.164706 0.286275 0.098039
0.200000 0.286275 0.098039
0.231373 0.290196 0.101961
0.258824 0.286275 0.105882
0.294118 0.286275 0.105882
0.329412 0.290196 0.098039
0.352941 0.294118 0.101961
0.392157 0.294118 0.113725
0.407843 0.301961 0.113725
0.450980 0.301961 0.117647
0.470588 0.305882 0.121569
0.498039 0.301961 0.117647
0.521569 0.305882 0.121569
0.552941 0.305882 0.121569
0.580392 0.305882 0.121569
0.600000 0.305882 0.129412
0.619608 0.309804 0.129412
0.643137 0.313726 0.129412
0.662745 0.313726 0.145098
0.682353 0.309804 0.137255
0.698039 0.313726 0.149020
0.717647 0.317647 0.149020
0.741176 0.325490 0.152941
0.764706 0.325490 0.160784
0.776471 0.325490 0.152941
0.800000 0.325490 0.152941
0.819608 0.325490 0.164706
0.843137 0.329412 0.160784
0.854902 0.329412 0.152941
0.878431 0.329412 0.152941
0.894118 0.337255 0.176471
0.917647 0.329412 0.168627
0.929412 0.333333 0.168627
0.164706 0.325490 0.101961
0.196078 0.317647 0.105882
0.231373 0.317647 0.105882
0.266667 0.317647 0.098039
0.294118 0.329412 0.101961
0.325490 0.317647 0.105882
0.364706 0.329412 0.113725
0.392157 0.329412 0.117647
0.419608 0.333333 0.117647
0.443137 0.329412 0.113725
0.478431 0.333333 0.121569
0.505882 0.333333 0.121569
0.537255 0.333333 0.121569
0.552941 0.333333 0.129412
0.580392 0.333333 0.121569
0.603922 0.345098 0.121569
0.627451 0.337255 0.137255
0.643137 0.337255 0.133333
0.658824 0.345098 0.145098
0.686275 0.345098 0.145098
0.705882 0.352941 0.149020
0.725490 0.352941 0.152941
0.741176 0.352941 0.152941
0.756863 0.356863 0.152941
0.780392 0.352941 0.164706
0.803922 0.356863 0.168627
0.819608 0.356863 0.152941
0.839216 0.356863 0.152941
0.858824 0.356863 0.164706
0.878431 0.356863 0.168627
0.898039 0.368627 0.168627
0.917647 0.368627 0.168627
0.937255 0.368627 0.176471
0.164706 0.349020 0.105882
0.200000 0.352941 0.105882
0.231373 0.356863 0.101961
0.266667 0.349020 0.105882
0.294118 0.352941 0.105882
0.329412 0.364706 0.117647
0.356863 0.368627 0.117647
0.388235 0.364706 0.113725
0.423529 0.356863 0.117647
0.450980 0.364706 0.117647
0.482353 0.368627 0.121569
0.498039 0.364706 0.129412
0.533333 0.368627 0.121569
0.560784 0.368627 0.121569
0.584314 0.368627 0.133333
0.600000 0.372549 0.129412
0.619608 0.372549 0.137255
0.647059 0.372549 0.137255
0.662745 0.380392 0.145098
0.686275 0.380392 0.149020
0.705882 0.380392 0.149020
0.725490 0.380392 0.149020
0.741176 0.388235 0.164706
0.764706 0.388235 0.168627
0.776471 0.392157 0.152941
0.803922 0.388235 0.152941
0.819608 0.392157 0.164706
0.843137 0.392157 0.168627
0.854902 0.392157 0.164706
0.878431 0.396078 0.168627
0.898039 0.400000 0.176471
0.921569 0.400000 0.176471
0.933333 0.400000 0.168627
0.168627 0.388235 0.101961
0.200000 0.376471 0.105882
0.223529 0.388235 0.105882
0.258824 0.388235 0.113725
0.294118 0.388235 0.113725
0.333333 0.388235 0.113725
0.368627 0.392157 0.117647
0.392157 0.396078 0.117647
0.423529 0.396078 0.117647
0.450980 0.392157 0.121569
0.482353 0.392157 0.133333
0.505882 0.400000 0.121569
0.537255 0.396078 0.133333
0.552941 0.396078 0.129412
0.584314 0.396078 0.133333
0.607843 0.403922 0.137255
0.627451 0.403922 0.137255
0.643137 0.407843 0.149020
0.662745 0.403922 0.145098
0.686275 0.407843 0.145098
0.701961 0.415686 0.160784
0.725490 0.419608 0.168627
0.741176 0.415686 0.152941
0.764706 0.419608 0.152941
0.784314 0.419608 0.164706
0.803922 0.423529 0.168627
0.823529 0.419608 0.164706
0.843137 0.419608 0.164706
0.862745 0.427451 0.176471
0.886275 0.427451 0.176471
0.898039 0.427451 0.168627
0.921569 0.427451 0.176471
0.937255 0.431373 0.184314
0.168627 0.407843 0.105882
0.200000 0.415686 0.113725
0.235294 0.419608 0.113725
0.270588 0.419608 0.121569
0.305882 0.419608 0.117647
0.329412 0.423529 0.117647
0.368627 0.427451 0.121569
0.392157 0.419608 0.121569
0.427451 0.423529 0.133333
0.450980 0.427451 0.121569
0.482353 0.427451 0.133333
0.505882 0.423529 0.129412
0.537255 0.423529 0.133333
0.560784 0.427451 0.133333
0.584314 0.431373 0.133333
0.611765 0.435294 0.145098
0.627451 0.431373 0.137255
0.647059 0.435294 0.145098
0.662745 0.443137 0.152941
0.694118 0.435294 0.164706
0.705882 0.447059 0.149020
0.725490 0.447059 0.149020
0.741176 0.450980 0.164706
0.764706 0.450980 0.168627
0.784314 0.447059 0.164706
0.803922 0.447059 0.164706
0.819608 0.454902 0.168627
0.847059 0.458824 0.176471
0.866667 0.454902 0.168627
0.886275 0.454902 0.176471
0.898039 0.458824 0.184314
0.921569 0.462745 0.176471
0.937255 0.458824 0.168627
0.176471 0.443137 0.117647
0.203922 0.447059 0.129412
0.235294 0.447059 0.113725
0.270588 0.454902 0.121569
0.309804 0.450980 0.121569
0.333333 0.450980 0.129412
0.368627 0.450980 0.133333
0.392157 0.458824 0.121569
0.431373 0.454902 0.133333
0.450980 0.454902 0.129412
0.486275 0.454902 0.133333
0.505882 0.458824 0.133333
0.537255 0.458824 0.133333
0.564706 0.462745 0.137255
0.584314 0.458824 0.133333
0.607843 0.466667 0.137255
0.627451 0.466667 0.149020
0.650980 0.466667 0.160784
0.662745 0.466667 0.152941
0.686275 0.470588 0.145098
0.709804 0.470588 0.160784
0.729412 0.478431 0.168627
0.741176 0.478431 0.164706
0.764706 0.478431 0.164706
0.784314 0.482353 0.168627
0.807843 0.478431 0.168627
0.823529 0.478431 0.164706
0.847059 0.486275 0.176471
0.866667 0.486275 0.184314
0.886275 0.490196 0.176471
0.905882 0.486275 0.168627
0.921569 0.486275 0.184314
0.941176 0.490196 0.184314
0.168627 0.470588 0.113725
0.203922 0.470588 0.117647
0.239216 0.478431 0.117647
0.270588 0.478431 0.129412
0.305882 0.482353 0.133333
0.337255 0.482353 0.121569
0.372549 0.482353 0.133333
0.396078 0.482353 0.129412
0.427451 0.482353 0.133333
0.458824 0.486275 0.133333
0.490196 0.486275 0.133333
0.513726 0.490196 0.137255
0.537255 0.486275 0.133333
0.560784 0.490196 0.133333
0.592157 0.490196 0.149020
0.607843 0.494118 0.152941
0.627451 0.494118 0.137255
0.647059 0.498039 0.145098
0.670588 0.498039 0.152941
0.694118 0.498039 0.164706
0.701961 0.501961 0.160784
0.725490 0.501961 0.160784
0.749020 0.505882 0.168627
0.772549 0.505882 0.168627
0.792157 0.501961 0.164706
0.803922 0.505882 0.164706
0.831373 0.509804 0.184314
0.854902 0.513726 0.176471
0.866667 0.509804 0.168627
0.886275 0.513726 0.184314
0.905882 0.513726 0.184314
0.925490 0.513726 0.184314
0.941176 0.509804 0.180392
0.180392 0.501961 0.117647
0.203922 0.505882 0.129412
0.239216 0.505882 0.133333
0.274510 0.505882 0.133333
0.313726 0.509804 0.133333
0.333333 0.509804 0.129412
0.368627 0.509804 0.133333
0.400000 0.509804 0.133333
0.431373 0.509804 0.133333
0.458824 0.517647 0.137255
0.486275 0.513726 0.133333
0.513726 0.513726 0.133333
0.545098 0.513726 0.145098
0.564706 0.517647 0.149020
0.584314 0.513726 0.133333
0.611765 0.521569 0.137255
0.635294 0.521569 0.149020
0.650980 0.525490 0.160784
0.666667 0.525490 0.152941
0.690196 0.525490 0.160784
0.713726 0.525490 0.164706
0.729412 0.533333 0.168627
0.749020 0.533333 0.164706
0.764706 0.537255 0.164706
0.792157 0.533333 0.180392
0.815686 0.541176 0.184314
0.831373 0.541176 0.168627
0.847059 0.541176 0.184314
0.866667 0.545098 0.184314
0.890196 0.545098 0.184314
0.905882 0.541176 0.180392
0.921569 0.545098 0.184314
0.941176 0.545098 0.184314
0.180392 0.525490 0.121569
0.203922 0.533333 0.129412
0.250980 0.537255 0.133333
0.270588 0.537255 0.129412
0.313726 0.537255 0.133333
0.337255 0.541176 0.133333
0.372549 0.541176 0.133333
0.396078 0.545098 0.137255
0.435294 0.537255 0.133333
0.458824 0.541176 0.133333
0.486275 0.541176 0.145098
0.509804 0.545098 0.149020
0.537255 0.545098 0.145098
0.568627 0.545098 0.133333
0.592157 0.549020 0.149020
0.607843 0.552941 0.152941
0.627451 0.549020 0.149020
0.650980 0.552941 0.152941
0.674510 0.552941 0.176471
0.694118 0.556863 0.164706
0.709804 0.556863 0.160784
0.733333 0.556863 0.164706
0.752941 0.556863 0.180392
0.772549 0.560784 0.180392
0.792157 0.560784 0.164706
0.815686 0.564706 0.184314
0.835294 0.564706 0.184314
0.854902 0.568627 0.184314
0.870588 0.564706 0.180392
0.886275 0.572549 0.184314
0.909804 0.568627 0.184314
0.925490 0.572549 0.184314
0.941176 0.568627 0.180392
0.176471 0.560784 0.129412
0.211765 0.560784 0.129412
0.247059 0.564706 0.133333
0.274510 0.568627 0.133333
0.309804 0.568627 0.133333
0.345098 0.568627 0.152941
0.372549 0.568627 0.133333
0.396078 0.572549 0.133333
0.427451 0.572549 0.149020
0.462745 0.572549 0.152941
0.486275 0.568627 0.149020
0.509804 0.576471 0.137255
0.541176 0.576471 0.149020
0.564706 0.580392 0.152941
0.592157 0.572549 0.149020
0.611765 0.576471 0.149020
0.635294 0.576471 0.152941
0.650980 0.580392 0.160784
0.670588 0.580392 0.152941
0.694118 0.580392 0.160784
0.717647 0.584314 0.176471
0.729412 0.588235 0.180392
0.749020 0.584314 0.164706
0.772549 0.584314 0.176471
0.796078 0.592157 0.184314
0.815686 0.596078 0.184314
0.831373 0.592157 0.180392
0.854902 0.592157 0.184314
0.874510 0.592157 0.184314
0.890196 0.600000 0.184314
0.909804 0.596078 0.180392
0.929412 0.596078 0.196078
0.949020 0.596078 0.196078
0.180392 0.592157 0.137255
0.203922 0.596078 0.137255
0.239216 0.596078 0.137255
0.274510 0.596078 0.152941
0.309804 0.592157 0.137255
0.333333 0.596078 0.137255
0.368627 0.596078 0.149020
0.400000 0.600000 0.152941
0.427451 0.596078 0.149020
0.450980 0.600000 0.137255
0.482353 0.600000 0.149020
0.509804 0.600000 0.152941
0.537255 0.600000 0.149020
0.568627 0.600000 0.149020
0.588235 0.603922 0.152941
0.611765 0.603922 0.152941
0.635294 0.600000 0.149020
0.654902 0.603922 0.152941
0.674510 0.603922 0.176471
0.694118 0.611765 0.176471
0.717647 0.607843 0.168627
0.729412 0.611765 0.176471
0.752941 0.611765 0.180392
0.772549 0.611765 0.180392
0.800000 0.611765 0.180392
0.815686 0.615686 0.184314
0.835294 0.615686 0.184314
0.854902 0.619608 0.184314
0.870588 0.615686 0.180392
0.890196 0.615686 0.196078
0.909804 0.615686 0.196078
0.929412 0.623529 0.184314
0.945098 0.619608 0.184314
0.184314 0.615686 0.137255
0.211765 0.615686 0.152941
0.239216 0.615686 0.137255
0.270588 0.619608 0.137255
0.309804 0.615686 0.149020
0.333333 0.619608 0.160784
0.368627 0.615686 0.149020
0.392157 0.623529 0.137255
0.423529 0.623529 0.152941
0.458824 0.619608 0.160784
0.486275 0.619608 0.149020
0.513726 0.619608 0.149020
0.533333 0.623529 0.168627
0.568627 0.623529 0.160784
0.584314 0.623529 0.152941
0.611765 0.623529 0.152941
0.631373 0.627451 0.168627
0.658824 0.627451 0.168627
0.674510 0.623529 0.164706
0.694118 0.631373 0.168627
0.717647 0.635294 0.176471
0.737255 0.635294 0.180392
0.756863 0.631373 0.176471
0.776471 0.639216 0.184314
0.800000 0.643137 0.184314
0.819608 0.643137 0.184314
0.839216 0.639216 0.180392
0.854902 0.643137 0.196078
0.874510 0.643137 0.196078
0.890196 0.647059 0.184314
0.909804 0.643137 0.184314
0.929412 0.643137 0.196078
0.949020 0.647059 0.196078
0.164706 0.635294 0.149020
0.200000 0.635294 0.149020
0.239216 0.635294 0.149020
0.274510 0.639216 0.152941
0.294118 0.639216 0.149020
0.329412 0.639216 0.149020
0.364706 0.639216 0.149020
0.396078 0.639216 0.152941
0.419608 0.639216 0.149020
0.454902 0.647059 0.152941
0.486275 0.647059 0.168627
0.513726 0.647059 0.168627
0.537255 0.647059 0.164706
0.564706 0.650980 0.152941
0.592157 0.647059 0.168627
0.611765 0.650980 0.168627
0.639216 0.647059 0.164706
0.658824 0.650980 0.164706
0.674510 0.654902 0.184314
0.701961 0.658824 0.176471
0.717647 0.654902 0.168627
0.737255 0.658824 0.180392
0.756863 0.658824 0.188235
0.776471 0.662745 0.188235
0.800000 0.662745 0.180392
0.819608 0.658824 0.188235
0.831373 0.662745 0.188235
0.854902 0.662745 0.188235
0.878431 0.662745 0.196078
0.894118 0.662745 0.188235
0.909804 0.662745 0.188235
0.929412 0.662745 0.188235
0.949020 0.666667 0.196078
0.176471 0.662745 0.149020
0.203922 0.662745 0.152941
0.231373 0.662745 0.149020
0.274510 0.662745 0.149020
0.294118 0.662745 0.149020
0.333333 0.662745 0.152941
0.352941 0.662745 0.149020
0.388235 0.662745 0.149020
0.423529 0.666667 0.176471
0.454902 0.666667 0.176471
0.482353 0.666667 0.168627
0.505882 0.670588 0.152941
0.545098 0.666667 0.176471
0.564706 0.670588 0.176471
0.588235 0.666667 0.168627
0.611765 0.670588 0.168627
0.635294 0.674510 0.176471
0.662745 0.674510 0.176471
0.674510 0.674510 0.168627
0.694118 0.678431 0.176471
0.717647 0.678431 0.188235
0.741176 0.678431 0.188235
0.756863 0.686275 0.180392
0.776471 0.682353 0.188235
0.796078 0.686275 0.188235
0.819608 0.682353 0.188235
0.839216 0.686275 0.196078
0.854902 0.682353 0.188235
0.870588 0.690196 0.188235
0.898039 0.686275 0.188235
0.913725 0.690196 0.196078
0.933333 0.690196 0.196078
0.949020 0.694118 0.203922
0.168627 0.682353 0.152941
0.203922 0.682353 0.152941
0.235294 0.686275 0.152941
0.270588 0.690196 0.168627
0.301961 0.686275 0.152941
0.333333 0.686275 0.152941
0.368627 0.690196 0.164706
0.396078 0.694118 0.176471
0.423529 0.694118 0.168627
0.458824 0.694118 0.160784
0.486275 0.694118 0.176471
0.505882 0.698039 0.176471
0.533333 0.694118 0.168627
0.560784 0.694118 0.168627
0.592157 0.694118 0.176471
0.611765 0.701961 0.176471
0.631373 0.698039 0.168627
0.654902 0.701961 0.176471
0.678431 0.701961 0.184314
0.701961 0.701961 0.184314
0.717647 0.705882 0.180392
0.737255 0.701961 0.188235
0.756863 0.701961 0.188235
0.784314 0.705882 0.188235
0.800000 0.709804 0.196078
0.819608 0.705882 0.188235
0.839216 0.705882 0.188235
0.858824 0.705882 0.188235
0.878431 0.713726 0.196078
0.894118 0.709804 0.188235
0.913725 0.709804 0.200000
0.937255 0.713726 0.200000
0.952941 0.717647 0.200000
0.164706 0.713726 0.152941
0.200000 0.713726 0.168627
0.239216 0.705882 0.152941
0.266667 0.709804 0.152941
0.301961 0.709804 0.164706
0.329412 0.713726 0.168627
0.364706 0.717647 0.168627
0.396078 0.717647 0.160784
0.427451 0.717647 0.180392
0.454902 0.717647 0.180392
0.482353 0.717647 0.168627
0.509804 0.717647 0.176471
0.537255 0.717647 0.188235
0.556863 0.721569 0.180392
0.584314 0.717647 0.176471
0.611765 0.717647 0.180392
0.635294 0.717647 0.188235
0.654902 0.721569 0.188235
0.674510 0.729412 0.188235
0.698039 0.721569 0.188235
0.717647 0.725490 0.188235
0.741176 0.725490 0.188235
0.756863 0.729412 0.196078
0.776471 0.725490 0.188235
0.800000 0.729412 0.188235
0.819608 0.729412 0.188235
0.839216 0.733333 0.196078
0.854902 0.729412 0.188235
0.878431 0.729412 0.200000
0.898039 0.733333 0.188235
0.917647 0.741176 0.200000
0.933333 0.737255 0.203922
0.952941 0.737255 0.203922
0.176471 0.729412 0.160784
0.200000 0.733333 0.160784
0.231373 0.733333 0.168627
0.270588 0.733333 0.176471
0.305882 0.733333 0.176471
0.325490 0.733333 0.168627
0.364706 0.741176 0.180392
0.392157 0.741176 0.180392
0.423529 0.737255 0.176471
0.450980 0.741176 0.176471
0.482353 0.741176 0.188235
0.505882 0.745098 0.180392
0.533333 0.741176 0.176471
0.560784 0.741176 0.180392
0.588235 0.741176 0.188235
0.607843 0.745098 0.188235
0.631373 0.749020 0.180392
0.654902 0.741176 0.188235
0.674510 0.745098 0.188235
0.698039 0.749020 0.188235
0.721569 0.749020 0.196078
0.741176 0.745098 0.188235
0.760784 0.749020 0.188235
0.784314 0.749020 0.188235
0.800000 0.756863 0.196078
0.823529 0.749020 0.188235
0.839216 0.752941 0.200000
0.858824 0.752941 0.200000
0.878431 0.756863 0.196078
0.901961 0.752941 0.203922
0.921569 0.756863 0.203922
0.937255 0.756863 0.211765
0.956863 0.756863 0.211765
0.168627 0.752941 0.168627
0.203922 0.756863 0.176471
0.239216 0.756863 0.176471
0.258824 0.756863 0.168627
0.294118 0.756863 0.176471
0.333333 0.756863 0.176471
0.368627 0.756863 0.176471
0.392157 0.760784 0.176471
0.423529 0.760784 0.188235
0.454902 0.760784 0.180392
0.482353 0.756863 0.176471
0.505882 0.760784 0.180392
0.537255 0.760784 0.188235
0.560784 0.764706 0.188235
0.592157 0.764706 0.180392
0.611765 0.764706 0.188235
0.635294 0.764706 0.188235
0.654902 0.768627 0.188235
0.678431 0.768627 0.196078
0.698039 0.768627 0.188235
0.717647 0.768627 0.200000
0.741176 0.772549 0.188235
0.764706 0.772549 0.196078
0.784314 0.768627 0.188235
0.803922 0.772549 0.200000
0.823529 0.772549 0.200000
0.843137 0.776471 0.196078
0.862745 0.772549 0.200000
0.882353 0.772549 0.200000
0.901961 0.776471 0.211765
0.921569 0.780392 0.211765
0.941176 0.776471 0.203922
0.960784 0.776471 0.203922
0.176471 0.776471 0.176471
0.200000 0.776471 0.168627
0.239216 0.776471 0.176471
0.270588 0.776471 0.176471
0.305882 0.776471 0.176471
0.329412 0.780392 0.176471
0.368627 0.780392 0.188235
0.400000 0.784314 0.180392
0.427451 0.780392 0.176471
0.450980 0.784314 0.180392
0.482353 0.784314 0.188235
0.509804 0.784314 0.188235
0.541176 0.784314 0.188235
0.560784 0.784314 0.188235
0.588235 0.788235 0.188235
0.611765 0.788235 0.188235
0.639216 0.788235 0.196078
0.658824 0.788235 0.188235
0.674510 0.792157 0.200000
0.705882 0.792157 0.188235
0.721569 0.792157 0.196078
0.741176 0.792157 0.188235
0.764706 0.792157 0.200000
0.784314 0.792157 0.200000
0.811765 0.792157 0.196078
0.823529 0.792157 0.200000
0.843137 0.792157 0.200000
0.862745 0.796078 0.203922
0.886275 0.800000 0.211765
0.901961 0.796078 0.203922
0.921569 0.796078 0.203922
0.937255 0.803922 0.211765
0.960784 0.803922 0.211765
0.176471 0.792157 0.176471
0.203922 0.796078 0.176471
0.239216 0.800000 0.176471
0.270588 0.796078 0.168627
0.309804 0.800000 0.188235
0.337255 0.803922 0.188235
0.368627 0.800000 0.176471
0.392157 0.803922 0.180392
0.431373 0.803922 0.188235
0.458824 0.803922 0.188235
0.490196 0.803922 0.188235
0.505882 0.803922 0.188235
0.537255 0.803922 0.188235
0.564706 0.803922 0.188235
0.592157 0.807843 0.196078
0.611765 0.807843 0.188235
0.635294 0.807843 0.188235
0.662745 0.807843 0.188235
0.686275 0.807843 0.196078
0.698039 0.807843 0.188235
0.725490 0.807843 0.200000
0.749020 0.811765 0.200000
0.772549 0.811765 0.196078
0.784314 0.811765 0.200000
0.803922 0.811765 0.200000
0.827451 0.811765 0.203922
0.850980 0.815686 0.203922
0.866667 0.819608 0.203922
0.886275 0.819608 0.203922
0.901961 0.819608 0.211765
0.925490 0.819608 0.211765
0.941176 0.819608 0.215686
0.960784 0.819608 0.219608
0.176471 0.819608 0.176471
0.203922 0.815686 0.168627
0.239216 0.815686 0.184314
0.270588 0.819608 0.184314
0.305882 0.819608 0.176471
0.337255 0.819608 0.180392
0.372549 0.819608 0.188235
0.400000 0.823529 0.188235
0.431373 0.823529 0.188235
0.458824 0.823529 0.188235
0.490196 0.823529 0.188235
0.513726 0.827451 0.188235
0.545098 0.827451 0.196078
0.560784 0.827451 0.188235
0.596078 0.823529 0.200000
0.611765 0.831373 0.188235
0.639216 0.831373 0.196078
0.658824 0.831373 0.188235
0.686275 0.827451 0.200000
0.705882 0.831373 0.200000
0.729412 0.831373 0.203922
0.741176 0.831373 0.200000
0.768627 0.831373 0.200000
0.792157 0.831373 0.203922
0.811765 0.831373 0.203922
0.823529 0.831373 0.200000
0.843137 0.831373 0.200000
0.870588 0.839216 0.211765
0.890196 0.839216 0.211765
0.901961 0.839216 0.215686
0.921569 0.839216 0.219608
0.941176 0.843137 0.211765
0.960784 0.843137 0.211765
0.180392 0.835294 0.184314
0.203922 0.839216 0.184314
0.250980 0.839216 0.176471
0.274510 0.843137 0.180392
0.313726 0.843137 0.188235
0.337255 0.843137 0.188235
0.372549 0.843137 0.188235
0.400000 0.843137 0.188235
0.431373 0.843137 0.188235
0.458824 0.843137 0.188235
0.490196 0.847059 0.196078
0.513726 0.843137 0.188235
0.545098 0.843137 0.200000
0.564706 0.847059 0.188235
0.596078 0.847059 0.196078
0.615686 0.847059 0.188235
0.643137 0.843137 0.200000
0.662745 0.850980 0.200000
0.686275 0.850980 0.203922
0.705882 0.847059 0.200000
0.729412 0.847059 0.200000
0.749020 0.850980 0.203922
0.772549 0.854902 0.203922
0.784314 0.854902 0.200000
0.811765 0.850980 0.200000
0.831373 0.854902 0.203922
0.854902 0.858824 0.211765
