assets/luts/reference_soft.cube
TITLE "myaniform/reference_soft"
LUT_3D_SIZE 5
DOMAIN_MIN 0.0 0.0 0.0
DOMAIN_MAX 1.0 1.0 1.0
0.152941 0.117647 0.082353
0.400000 0.129412 0.101961
0.615686 0.149020 0.117647
0.776471 0.160784 0.145098
0.929412 0.164706 0.152941
0.168627 0.388235 0.101961
0.423529 0.396078 0.117647
0.627451 0.403922 0.137255
0.784314 0.419608 0.164706
0.937255 0.431373 0.184314
0.184314 0.615686 0.137255
0.423529 0.623529 0.152941
0.631373 0.627451 0.168627
0.800000 0.643137 0.184314
0.949020 0.647059 0.196078
0.176471 0.792157 0.176471
0.431373 0.803922 0.188235
0.635294 0.807843 0.188235
0.803922 0.811765 0.200000
0.960784 0.819608 0.219608
0.196078 0.952941 0.200000
0.443137 0.956863 0.200000
0.650980 0.960784 0.211765
0.819608 0.968627 0.231373
0.964706 0.972549 0.231373
0.149020 0.121569 0.345098
0.407843 0.133333 0.356863
0.615686 0.145098 0.368627
0.776471 0.160784 0.392157
0.929412 0.168627 0.407843
0.168627 0.392157 0.368627
0.415686 0.403922 0.376471
0.611765 0.415686 0.403922
0.792157 0.423529 0.407843
0.941176 0.431373 0.419608
0.180392 0.615686 0.392157
0.415686 0.627451 0.403922
0.627451 0.635294 0.419608
0.796078 0.643137 0.427451
0.945098 0.647059 0.435294
0.180392 0.800000 0.423529
0.427451 0.803922 0.423529
0.631373 0.807843 0.431373
0.807843 0.819608 0.450980
0.956863 0.819608 0.458824
0.200000 0.952941 0.431373
0.447059 0.956863 0.443137
0.658824 0.960784 0.458824
0.819608 0.968627 0.466667
0.968627 0.976471 0.470588
0.149020 0.129412 0.572549
0.403922 0.137255 0.584314
0.611765 0.149020 0.584314
0.780392 0.164706 0.611765
0.929412 0.176471 0.611765
0.168627 0.396078 0.592157
0.392157 0.407843 0.607843
0.615686 0.419608 0.615686
0.788235 0.427451 0.615686
0.941176 0.431373 0.623529
0.184314 0.615686 0.603922
0.415686 0.631373 0.623529
0.627451 0.635294 0.623529
0.800000 0.643137 0.631373
0.952941 0.650980 0.639216
0.184314 0.796078 0.627451
0.443137 0.803922 0.631373
0.647059 0.815686 0.647059
0.811765 0.823529 0.647059
0.964706 0.823529 0.654902
0.203922 0.960784 0.643137
0.454902 0.964706 0.654902
0.662745 0.968627 0.654902
0.819608 0.972549 0.662745
0.972549 0.980392 0.674510
0.121569 0.137255 0.760784
0.388235 0.145098 0.760784
0.611765 0.152941 0.776471
0.776471 0.164706 0.780392
0.929412 0.176471 0.780392
0.145098 0.400000 0.772549
0.400000 0.415686 0.780392
0.615686 0.419608 0.780392
0.792157 0.431373 0.792157
0.945098 0.435294 0.792157
0.168627 0.623529 0.788235
0.423529 0.635294 0.792157
0.635294 0.639216 0.800000
0.803922 0.650980 0.800000
0.952941 0.658824 0.807843
0.188235 0.803922 0.792157
0.435294 0.807843 0.803922
0.643137 0.819608 0.803922
0.815686 0.819608 0.811765
0.960784 0.823529 0.819608
0.211765 0.956863 0.807843
0.458824 0.964706 0.811765
0.662745 0.968627 0.819608
0.823529 0.972549 0.819608
0.976471 0.980392 0.831373
0.133333 0.145098 0.917647
0.392157 0.149020 0.921569
0.611765 0.164706 0.925490
0.788235 0.168627 0.929412
0.937255 0.180392 0.929412
0.152941 0.403922 0.921569
0.403922 0.419608 0.929412
0.623529 0.423529 0.929412
0.792157 0.431373 0.941176
0.945098 0.443137 0.949020
0.176471 0.623529 0.933333
0.423529 0.639216 0.941176
0.631373 0.643137 0.945098
0.807843 0.650980 0.949020
0.956863 0.658824 0.952941
0.196078 0.803922 0.941176
0.447059 0.807843 0.949020
0.647059 0.819608 0.949020
0.811765 0.823529 0.956863
0.968627 0.827451 0.968627
0.211765 0.960784 0.956863
0.458824 0.964706 0.956863
0.662745 0.968627 0.960784
0.827451 0.980392 0.972549
0.972549 0.980392 0.972549
