assets/luts/warm_room.cube
TITLE "myaniform/warm_room"
LUT_3D_SIZE 9
DOMAIN_MIN 0.0 0.0 0.0
DOMAIN_MAX 1.0 1.0 1.0
0.121569 0.086275 0.023529
0.266667 0.098039 0.019608
0.392157 0.086275 0.035294
0.509804 0.098039 0.054902
0.619608 0.101961 0.050980
0.709804 0.101961 0.058824
0.788235 0.101961 0.070588
0.866667 0.105882 0.082353
0.949020 0.105882 0.082353
0.117647 0.239216 0.027451
0.254902 0.239216 0.035294
0.392157 0.250980 0.039216
0.509804 0.247059 0.043137
0.615686 0.247059 0.050980
0.705882 0.254902 0.066667
0.788235 0.254902 0.082353
0.870588 0.250980 0.086275
0.952941 0.258824 0.098039
0.117647 0.376471 0.035294
0.266667 0.372549 0.050980
0.400000 0.376471 0.043137
0.521569 0.380392 0.054902
0.623529 0.380392 0.054902
0.705882 0.388235 0.070588
0.788235 0.392157 0.090196
0.874510 0.396078 0.098039
0.949020 0.396078 0.098039
0.113725 0.501961 0.043137
0.274510 0.505882 0.054902
0.403922 0.505882 0.066667
0.521569 0.505882 0.058824
0.631373 0.509804 0.066667
0.717647 0.509804 0.082353
0.792157 0.509804 0.090196
0.882353 0.517647 0.101961
0.960784 0.517647 0.101961
0.121569 0.615686 0.070588
0.258824 0.615686 0.066667
0.400000 0.623529 0.070588
0.513726 0.619608 0.082353
0.623529 0.619608 0.070588
0.717647 0.627451 0.086275
0.796078 0.631373 0.101961
0.878431 0.631373 0.101961
0.960784 0.635294 0.113725
0.105882 0.717647 0.086275
0.254902 0.713726 0.086275
0.396078 0.717647 0.082353
0.513726 0.717647 0.098039
0.619608 0.717647 0.098039
0.717647 0.725490 0.090196
0.800000 0.725490 0.105882
0.878431 0.725490 0.117647
0.964706 0.737255 0.117647
0.101961 0.807843 0.090196
0.247059 0.807843 0.105882
0.380392 0.807843 0.105882
0.505882 0.815686 0.101961
0.619608 0.811765 0.105882
0.717647 0.811765 0.117647
0.807843 0.815686 0.113725
0.890196 0.819608 0.117647
0.968627 0.819608 0.129412
0.101961 0.890196 0.101961
0.254902 0.898039 0.101961
0.388235 0.894118 0.117647
0.505882 0.894118 0.117647
0.619608 0.898039 0.113725
0.717647 0.898039 0.121569
0.803922 0.898039 0.121569
0.890196 0.905882 0.121569
0.968627 0.905882 0.129412
0.117647 0.972549 0.117647
0.254902 0.972549 0.117647
0.396078 0.976471 0.113725
0.513726 0.976471 0.121569
0.619608 0.976471 0.121569
0.721569 0.980392 0.117647
0.811765 0.980392 0.137255
0.890196 0.980392 0.137255
0.972549 0.988235 0.133333
0.121569 0.090196 0.168627
0.258824 0.090196 0.160784
0.396078 0.098039 0.188235
0.509804 0.098039 0.196078
0.611765 0.098039 0.184314
0.705882 0.101961 0.211765
0.784314 0.101961 0.231373
0.866667 0.101961 0.219608
0.949020 0.117647 0.231373
0.129412 0.235294 0.176471
0.258824 0.231373 0.180392
0.392157 0.239216 0.180392
0.513726 0.247059 0.203922
0.611765 0.247059 0.215686
0.698039 0.247059 0.219608
0.792157 0.250980 0.223529
0.874510 0.254902 0.231373
0.949020 0.254902 0.231373
0.113725 0.372549 0.168627
0.258824 0.380392 0.203922
0.392157 0.380392 0.203922
0.509804 0.380392 0.196078
0.611765 0.392157 0.211765
0.694118 0.392157 0.223529
0.784314 0.392157 0.223529
0.874510 0.400000 0.239216
0.956863 0.396078 0.239216
0.121569 0.505882 0.203922
0.254902 0.505882 0.196078
0.400000 0.505882 0.215686
0.517647 0.505882 0.200000
0.615686 0.505882 0.215686
0.701961 0.513726 0.247059
0.792157 0.517647 0.239216
0.874510 0.517647 0.239216
0.956863 0.525490 0.247059
0.121569 0.615686 0.215686
0.250980 0.619608 0.215686
0.388235 0.615686 0.215686
0.509804 0.619608 0.235294
0.619608 0.623529 0.231373
0.705882 0.627451 0.239216
0.803922 0.627451 0.247059
0.882353 0.627451 0.247059
0.964706 0.631373 0.250980
0.113725 0.717647 0.223529
0.239216 0.717647 0.247059
0.372549 0.721569 0.235294
0.501961 0.721569 0.250980
0.611765 0.721569 0.250980
0.705882 0.725490 0.239216
0.800000 0.729412 0.247059
0.882353 0.729412 0.266667
0.960784 0.733333 0.254902
0.098039 0.803922 0.235294
0.250980 0.811765 0.250980
0.388235 0.807843 0.250980
0.509804 0.807843 0.239216
0.619608 0.811765 0.254902
0.713726 0.815686 0.254902
0.800000 0.815686 0.247059
0.890196 0.823529 0.258824
0.964706 0.819608 0.270588
0.113725 0.894118 0.250980
0.250980 0.894118 0.239216
0.388235 0.898039 0.254902
0.509804 0.898039 0.254902
0.615686 0.898039 0.247059
0.717647 0.898039 0.266667
0.815686 0.898039 0.270588
0.894118 0.898039 0.258824
0.972549 0.901961 0.266667
0.117647 0.972549 0.254902
0.254902 0.972549 0.254902
0.392157 0.976471 0.247059
0.513726 0.976471 0.266667
0.627451 0.980392 0.270588
0.721569 0.980392 0.258824
0.811765 0.984314 0.274510
0.894118 0.980392 0.274510
0.968627 0.984314 0.266667
0.113725 0.090196 0.313726
0.250980 0.090196 0.305882
0.392157 0.090196 0.317647
0.509804 0.098039 0.333333
0.615686 0.101961 0.325490
0.694118 0.101961 0.345098
0.780392 0.105882 0.368627
0.870588 0.113725 0.364706
0.949020 0.113725 0.364706
0.117647 0.231373 0.313726
0.258824 0.239216 0.333333
0.392157 0.239216 0.325490
0.509804 0.239216 0.333333
0.611765 0.247059 0.356863
0.694118 0.247059 0.356863
0.792157 0.254902 0.364706
0.874510 0.254902 0.376471
0.952941 0.258824 0.368627
0.121569 0.376471 0.329412
0.258824 0.376471 0.333333
0.396078 0.380392 0.349020
0.501961 0.380392 0.345098
0.607843 0.388235 0.372549
0.701961 0.388235 0.372549
0.792157 0.392157 0.368627
0.878431 0.396078 0.372549
0.956863 0.396078 0.372549
0.121569 0.505882 0.345098
0.254902 0.509804 0.337255
0.380392 0.509804 0.364706
0.501961 0.509804 0.364706
0.607843 0.517647 0.368627
0.701961 0.513726 0.376471
0.792157 0.521569 0.372549
0.878431 0.521569 0.376471
0.956863 0.525490 0.380392
0.129412 0.619608 0.352941
0.250980 0.619608 0.364706
0.368627 0.619608 0.364706
0.501961 0.619608 0.376471
0.615686 0.627451 0.372549
0.705882 0.627451 0.376471
0.800000 0.631373 0.392157
0.878431 0.635294 0.380392
0.956863 0.631373 0.380392
0.105882 0.713726 0.356863
0.239216 0.721569 0.376471
0.376471 0.721569 0.368627
0.505882 0.717647 0.376471
0.615686 0.721569 0.388235
0.713726 0.721569 0.376471
0.803922 0.721569 0.388235
0.890196 0.729412 0.396078
0.968627 0.729412 0.388235
0.101961 0.807843 0.376471
0.247059 0.807843 0.376471
0.380392 0.811765 0.388235
0.501961 0.815686 0.376471
0.611765 0.811765 0.388235
0.713726 0.815686 0.392157
0.803922 0.819608 0.388235
0.886275 0.819608 0.388235
0.968627 0.823529 0.403922
0.113725 0.894118 0.388235
0.250980 0.894118 0.388235
0.388235 0.894118 0.388235
0.517647 0.894118 0.392157
0.627451 0.898039 0.388235
0.717647 0.898039 0.396078
0.807843 0.901961 0.403922
0.890196 0.905882 0.396078
0.968627 0.905882 0.396078
0.113725 0.972549 0.388235
0.258824 0.976471 0.392157
0.392157 0.976471 0.380392
0.509804 0.976471 0.392157
0.627451 0.980392 0.403922
0.721569 0.980392 0.396078
0.811765 0.980392 0.403922
0.898039 0.980392 0.407843
0.976471 0.980392 0.400000
0.105882 0.082353 0.443137
0.254902 0.098039 0.447059
0.388235 0.098039 0.458824
0.509804 0.098039 0.458824
0.615686 0.101961 0.454902
0.701961 0.101961 0.478431
0.788235 0.105882 0.490196
0.870588 0.113725 0.486275
0.949020 0.113725 0.490196
0.105882 0.239216 0.454902
0.250980 0.239216 0.458824
0.392157 0.247059 0.454902
0.509804 0.239216 0.462745
0.611765 0.250980 0.482353
0.694118 0.254902 0.482353
0.788235 0.254902 0.498039
0.870588 0.266667 0.501961
0.952941 0.258824 0.494118
0.121569 0.376471 0.462745
0.258824 0.376471 0.462745
0.380392 0.380392 0.482353
0.505882 0.388235 0.470588
0.607843 0.388235 0.498039
0.698039 0.392157 0.498039
0.796078 0.396078 0.494118
0.878431 0.396078 0.494118
0.960784 0.396078 0.505882
0.121569 0.509804 0.466667
0.258824 0.509804 0.470588
0.388235 0.505882 0.482353
0.498039 0.509804 0.498039
0.611765 0.513726 0.494118
0.709804 0.513726 0.501961
0.800000 0.517647 0.505882
0.882353 0.517647 0.498039
0.960784 0.517647 0.498039
0.121569 0.615686 0.470588
0.250980 0.619608 0.490196
0.368627 0.623529 0.490196
0.498039 0.623529 0.501961
0.611765 0.631373 0.505882
0.709804 0.631373 0.498039
0.796078 0.627451 0.505882
0.878431 0.635294 0.505882
0.960784 0.635294 0.505882
0.117647 0.717647 0.490196
0.247059 0.717647 0.498039
0.388235 0.717647 0.501961
0.505882 0.717647 0.501961
0.611765 0.717647 0.501961
0.709804 0.725490 0.498039
0.803922 0.725490 0.513726
0.886275 0.725490 0.513726
0.968627 0.733333 0.509804
0.105882 0.811765 0.501961
0.247059 0.811765 0.501961
0.376471 0.811765 0.501961
0.505882 0.815686 0.498039
0.623529 0.815686 0.513726
0.717647 0.815686 0.513726
0.811765 0.819608 0.509804
0.890196 0.819608 0.517647
0.968627 0.819608 0.521569
0.105882 0.890196 0.501961
0.254902 0.894118 0.505882
0.388235 0.894118 0.509804
0.509804 0.898039 0.513726
0.623529 0.901961 0.509804
0.717647 0.898039 0.517647
0.811765 0.905882 0.521569
0.890196 0.905882 0.513726
0.968627 0.905882 0.513726
0.117647 0.972549 0.509804
0.258824 0.976471 0.513726
0.392157 0.976471 0.513726
0.517647 0.980392 0.517647
0.635294 0.980392 0.521569
0.725490 0.984314 0.513726
0.811765 0.980392 0.525490
0.894118 0.984314 0.533333
0.972549 0.988235 0.521569
0.113725 0.090196 0.568627
0.254902 0.101961 0.564706
0.388235 0.098039 0.572549
0.505882 0.098039 0.572549
0.615686 0.105882 0.572549
0.705882 0.101961 0.592157
0.788235 0.105882 0.603922
0.874510 0.117647 0.600000
0.949020 0.117647 0.600000
0.117647 0.239216 0.572549
0.247059 0.239216 0.580392
0.376471 0.247059 0.584314
0.498039 0.247059 0.592157
0.611765 0.250980 0.596078
0.698039 0.250980 0.596078
0.792157 0.254902 0.607843
0.874510 0.254902 0.607843
0.952941 0.258824 0.607843
0.117647 0.380392 0.580392
0.239216 0.380392 0.588235
0.356863 0.380392 0.600000
0.494118 0.388235 0.596078
0.607843 0.392157 0.607843
0.698039 0.392157 0.607843
0.792157 0.400000 0.607843
0.874510 0.400000 0.611765
0.949020 0.396078 0.611765
0.121569 0.501961 0.580392
0.254902 0.505882 0.596078
0.372549 0.505882 0.603922
0.498039 0.509804 0.607843
0.611765 0.517647 0.607843
0.705882 0.517647 0.611765
0.792157 0.517647 0.611765
0.882353 0.521569 0.611765
0.960784 0.521569 0.611765
0.121569 0.619608 0.588235
0.247059 0.619608 0.596078
0.376471 0.627451 0.611765
0.505882 0.623529 0.611765
0.611765 0.623529 0.611765
0.717647 0.627451 0.611765
0.803922 0.627451 0.615686
0.882353 0.627451 0.615686
0.968627 0.639216 0.619608
0.113725 0.717647 0.600000
0.239216 0.717647 0.607843
0.372549 0.717647 0.611765
0.505882 0.721569 0.611765
0.619608 0.725490 0.615686
0.709804 0.725490 0.615686
0.803922 0.733333 0.619608
0.882353 0.733333 0.619608
0.964706 0.737255 0.619608
0.105882 0.803922 0.611765
0.254902 0.807843 0.611765
0.388235 0.807843 0.611765
0.513726 0.811765 0.615686
0.623529 0.815686 0.619608
0.717647 0.819608 0.619608
0.803922 0.823529 0.619608
0.890196 0.819608 0.627451
0.968627 0.819608 0.627451
0.105882 0.894118 0.611765
0.254902 0.898039 0.615686
0.388235 0.898039 0.615686
0.513726 0.898039 0.619608
0.623529 0.901961 0.619608
0.725490 0.898039 0.627451
0.811765 0.898039 0.627451
0.898039 0.905882 0.623529
0.972549 0.901961 0.631373
0.117647 0.972549 0.615686
0.254902 0.972549 0.615686
0.400000 0.980392 0.627451
0.517647 0.980392 0.627451
0.623529 0.980392 0.627451
0.725490 0.984314 0.623529
0.811765 0.984314 0.631373
0.890196 0.984314 0.631373
0.976471 0.988235 0.635294
0.098039 0.090196 0.678431
0.235294 0.098039 0.670588
0.372549 0.101961 0.674510
0.494118 0.098039 0.682353
0.603922 0.101961 0.674510
0.705882 0.105882 0.682353
0.788235 0.113725 0.694118
0.870588 0.113725 0.694118
0.949020 0.117647 0.698039
0.105882 0.239216 0.682353
0.231373 0.239216 0.694118
0.356863 0.239216 0.686275
0.490196 0.250980 0.690196
0.603922 0.250980 0.701961
0.698039 0.254902 0.694118
0.792157 0.258824 0.698039
0.874510 0.258824 0.698039
0.949020 0.258824 0.698039
0.098039 0.380392 0.674510
0.235294 0.380392 0.690196
0.368627 0.380392 0.694118
0.490196 0.380392 0.694118
0.611765 0.392157 0.698039
0.705882 0.392157 0.705882
0.792157 0.392157 0.698039
0.878431 0.400000 0.701961
0.956863 0.396078 0.701961
0.101961 0.505882 0.686275
0.231373 0.509804 0.694118
0.368627 0.513726 0.694118
0.501961 0.513726 0.705882
0.611765 0.513726 0.698039
0.705882 0.521569 0.701961
0.792157 0.521569 0.709804
0.878431 0.525490 0.709804
0.956863 0.525490 0.709804
0.117647 0.615686 0.694118
0.239216 0.615686 0.701961
0.380392 0.623529 0.698039
0.505882 0.627451 0.701961
0.611765 0.623529 0.709804
0.709804 0.635294 0.709804
0.800000 0.635294 0.709804
0.886275 0.627451 0.717647
0.968627 0.639216 0.717647
0.113725 0.721569 0.698039
0.239216 0.721569 0.705882
0.372549 0.721569 0.705882
0.501961 0.725490 0.701961
0.619608 0.725490 0.717647
0.717647 0.725490 0.717647
0.807843 0.733333 0.713726
0.890196 0.729412 0.717647
0.964706 0.729412 0.717647
0.101961 0.807843 0.705882
0.250980 0.811765 0.713726
0.380392 0.811765 0.713726
0.513726 0.815686 0.717647
0.623529 0.819608 0.713726
0.717647 0.819608 0.717647
0.803922 0.819608 0.717647
0.890196 0.823529 0.717647
0.964706 0.823529 0.717647
0.117647 0.890196 0.713726
0.258824 0.890196 0.713726
0.396078 0.898039 0.709804
0.517647 0.898039 0.717647
0.627451 0.898039 0.717647
0.721569 0.905882 0.717647
0.815686 0.898039 0.725490
0.894118 0.901961 0.717647
0.972549 0.905882 0.721569
0.117647 0.976471 0.717647
0.254902 0.976471 0.717647
0.396078 0.980392 0.717647
0.517647 0.980392 0.717647
0.627451 0.980392 0.725490
0.721569 0.980392 0.717647
0.819608 0.984314 0.721569
0.898039 0.980392 0.729412
0.980392 0.988235 0.725490
0.082353 0.098039 0.776471
0.223529 0.098039 0.768627
0.356863 0.098039 0.768627
0.482353 0.101961 0.784314
0.603922 0.105882 0.780392
0.694118 0.105882 0.780392
0.792157 0.113725 0.792157
0.870588 0.113725 0.784314
0.949020 0.113725 0.784314
0.086275 0.235294 0.776471
0.223529 0.247059 0.784314
0.356863 0.247059 0.776471
0.486275 0.247059 0.776471
0.603922 0.254902 0.792157
0.694118 0.258824 0.784314
0.792157 0.254902 0.784314
0.874510 0.258824 0.792157
0.952941 0.258824 0.792157
0.090196 0.380392 0.776471
0.223529 0.376471 0.784314
0.368627 0.380392 0.788235
0.494118 0.392157 0.784314
0.607843 0.392157 0.784314
0.705882 0.392157 0.796078
0.796078 0.396078 0.792157
0.878431 0.400000 0.792157
0.956863 0.400000 0.792157
0.086275 0.509804 0.788235
0.223529 0.509804 0.780392
0.372549 0.509804 0.784314
0.501961 0.513726 0.796078
0.611765 0.513726 0.792157
0.713726 0.521569 0.792157
0.800000 0.517647 0.800000
0.878431 0.517647 0.792157
0.964706 0.533333 0.803922
0.098039 0.619608 0.792157
0.235294 0.619608 0.792157
0.372549 0.627451 0.792157
0.501961 0.631373 0.792157
0.615686 0.627451 0.800000
0.705882 0.631373 0.792157
0.800000 0.635294 0.796078
0.878431 0.635294 0.803922
0.960784 0.639216 0.803922
0.105882 0.717647 0.792157
0.250980 0.717647 0.796078
0.380392 0.717647 0.796078
0.509804 0.725490 0.792157
0.619608 0.729412 0.803922
0.717647 0.725490 0.803922
0.803922 0.729412 0.800000
0.890196 0.733333 0.807843
0.968627 0.733333 0.807843
0.101961 0.811765 0.796078
0.247059 0.811765 0.796078
0.380392 0.815686 0.800000
0.509804 0.819608 0.803922
0.615686 0.819608 0.800000
0.721569 0.819608 0.807843
0.807843 0.819608 0.807843
0.890196 0.819608 0.803922
0.968627 0.819608 0.811765
0.113725 0.894118 0.800000
0.250980 0.894118 0.800000
0.392157 0.898039 0.803922
0.513726 0.901961 0.807843
0.627451 0.898039 0.807843
0.717647 0.901961 0.803922
0.807843 0.905882 0.811765
0.890196 0.905882 0.811765
0.968627 0.909804 0.811765
0.121569 0.968627 0.800000
0.266667 0.972549 0.803922
0.403922 0.976471 0.807843
0.521569 0.980392 0.803922
0.635294 0.980392 0.811765
0.721569 0.980392 0.811765
0.815686 0.988235 0.811765
0.901961 0.988235 0.819608
0.980392 0.988235 0.815686
0.070588 0.090196 0.858824
0.219608 0.098039 0.862745
0.352941 0.101961 0.854902
0.486275 0.101961 0.866667
0.600000 0.113725 0.866667
0.694118 0.113725 0.866667
0.792157 0.117647 0.874510
0.870588 0.117647 0.866667
0.949020 0.117647 0.866667
0.070588 0.247059 0.862745
0.223529 0.247059 0.866667
0.364706 0.247059 0.858824
0.490196 0.250980 0.866667
0.607843 0.254902 0.874510
0.701961 0.258824 0.866667
0.792157 0.254902 0.866667
0.878431 0.258824 0.878431
0.952941 0.266667 0.870588
0.086275 0.380392 0.858824
0.231373 0.380392 0.866667
0.372549 0.392157 0.874510
0.498039 0.392157 0.866667
0.607843 0.392157 0.866667
0.701961 0.400000 0.878431
0.792157 0.400000 0.870588
0.878431 0.396078 0.874510
0.960784 0.403922 0.878431
0.098039 0.505882 0.870588
0.235294 0.509804 0.866667
0.376471 0.509804 0.874510
0.501961 0.517647 0.878431
0.611765 0.517647 0.870588
0.709804 0.517647 0.874510
0.800000 0.521569 0.882353
0.882353 0.521569 0.878431
0.960784 0.525490 0.878431
0.090196 0.619608 0.870588
0.239216 0.627451 0.878431
0.376471 0.627451 0.870588
0.505882 0.623529 0.874510
0.615686 0.627451 0.882353
0.713726 0.631373 0.878431
0.803922 0.631373 0.878431
0.890196 0.635294 0.890196
0.968627 0.639216 0.882353
0.105882 0.717647 0.874510
0.247059 0.717647 0.874510
0.388235 0.721569 0.878431
0.509804 0.725490 0.878431
0.615686 0.725490 0.882353
0.713726 0.733333 0.886275
0.803922 0.729412 0.878431
0.886275 0.729412 0.886275
0.968627 0.733333 0.890196
0.113725 0.807843 0.878431
0.254902 0.807843 0.878431
0.392157 0.811765 0.882353
0.517647 0.819608 0.886275
0.623529 0.819608 0.878431
0.717647 0.815686 0.886275
0.811765 0.819608 0.890196
0.890196 0.819608 0.886275
0.968627 0.823529 0.894118
0.105882 0.894118 0.878431
0.254902 0.898039 0.882353
0.392157 0.898039 0.886275
0.509804 0.898039 0.886275
0.623529 0.901961 0.890196
0.717647 0.901961 0.890196
0.815686 0.901961 0.894118
0.898039 0.905882 0.898039
0.976471 0.909804 0.890196
0.117647 0.972549 0.882353
0.258824 0.980392 0.886275
0.400000 0.980392 0.890196
0.517647 0.980392 0.890196
0.627451 0.984314 0.894118
0.725490 0.984314 0.894118
0.811765 0.984314 0.890196
0.898039 0.988235 0.901961
0.976471 0.988235 0.901961
0.074510 0.098039 0.941176
0.219608 0.101961 0.941176
0.356863 0.101961 0.941176
0.486275 0.105882 0.945098
0.600000 0.113725 0.949020
0.698039 0.113725 0.941176
0.788235 0.113725 0.949020
0.874510 0.117647 0.949020
0.949020 0.117647 0.949020
0.082353 0.239216 0.941176
0.223529 0.239216 0.941176
0.368627 0.254902 0.949020
0.494118 0.254902 0.941176
0.603922 0.250980 0.949020
0.701961 0.258824 0.949020
0.792157 0.258824 0.949020
0.874510 0.254902 0.952941
0.960784 0.270588 0.952941
0.082353 0.388235 0.945098
0.223529 0.388235 0.945098
0.372549 0.388235 0.949020
0.498039 0.396078 0.949020
0.607843 0.396078 0.949020
0.705882 0.392157 0.952941
0.796078 0.400000 0.949020
0.878431 0.400000 0.949020
0.960784 0.400000 0.960784
0.090196 0.505882 0.945098
0.247059 0.513726 0.949020
0.376471 0.513726 0.952941
0.498039 0.513726 0.952941
0.611765 0.517647 0.949020
0.705882 0.521569 0.949020
0.792157 0.521569 0.956863
0.878431 0.533333 0.960784
0.960784 0.525490 0.960784
0.101961 0.615686 0.949020
0.247059 0.619608 0.952941
0.388235 0.627451 0.949020
0.505882 0.623529 0.956863
0.611765 0.623529 0.956863
0.717647 0.631373 0.956863
0.803922 0.635294 0.960784
0.886275 0.635294 0.964706
0.968627 0.639216 0.960784
0.101961 0.721569 0.952941
0.239216 0.721569 0.952941
0.376471 0.725490 0.956863
0.509804 0.725490 0.960784
0.619608 0.725490 0.960784
0.717647 0.729412 0.964706
0.803922 0.733333 0.960784
0.890196 0.729412 0.964706
0.968627 0.741176 0.972549
0.117647 0.811765 0.956863
0.254902 0.811765 0.956863
0.392157 0.815686 0.960784
0.517647 0.819608 0.964706
0.623529 0.819608 0.960784
0.717647 0.819608 0.964706
0.803922 0.823529 0.968627
0.894118 0.827451 0.968627
0.972549 0.823529 0.972549
0.117647 0.890196 0.960784
0.270588 0.898039 0.964706
0.400000 0.898039 0.964706
0.517647 0.898039 0.964706
0.631373 0.901961 0.968627
0.725490 0.901961 0.968627
0.811765 0.901961 0.968627
0.898039 0.909804 0.976471
0.976471 0.909804 0.968627
0.121569 0.980392 0.964706
0.258824 0.980392 0.964706
0.400000 0.980392 0.968627
0.517647 0.980392 0.968627
0.623529 0.980392 0.968627
0.725490 0.984314 0.972549
0.815686 0.988235 0.976471
0.898039 0.984314 0.976471
0.980392 0.988235 0.980392
