assets/luts/warm_room.cube
TITLE "myaniform/warm_room"
LUT_3D_SIZE 33
DOMAIN_MIN 0.0 0.0 0.0
DOMAIN_MAX 1.0 1.0 1.0
0.121569 0.086275 0.023529
0.160784 0.090196 0.023529
0.196078 0.090196 0.027451
0.231373 0.098039 0.019608
0.266667 0.098039 0.019608
0.294118 0.090196 0.011765
0.325490 0.090196 0.035294
0.356863 0.090196 0.035294
0.392157 0.086275 0.035294
0.419608 0.090196 0.027451
0.458824 0.101961 0.039216
0.486275 0.098039 0.035294
0.509804 0.098039 0.054902
0.541176 0.098039 0.054902
0.568627 0.101961 0.043137
0.596078 0.101961 0.050980
0.619608 0.101961 0.050980
0.635294 0.101961 0.043137
0.662745 0.098039 0.058824
0.678431 0.101961 0.070588
0.709804 0.101961 0.058824
0.721569 0.105882 0.066667
0.749020 0.105882 0.070588
0.760784 0.105882 0.070588
0.788235 0.101961 0.070588
0.800000 0.105882 0.074510
0.827451 0.105882 0.082353
0.843137 0.113725 0.082353
0.866667 0.105882 0.082353
0.882353 0.105882 0.074510
0.905882 0.105882 0.082353
0.921569 0.113725 0.082353
0.949020 0.105882 0.082353
0.117647 0.129412 0.027451
0.160784 0.133333 0.019608
0.196078 0.133333 0.019608
0.223529 0.129412 0.011765
0.258824 0.129412 0.027451
0.290196 0.129412 0.027451
0.325490 0.133333 0.035294
0.356863 0.133333 0.027451
0.392157 0.133333 0.027451
0.419608 0.133333 0.027451
0.450980 0.133333 0.050980
0.490196 0.129412 0.050980
0.509804 0.137255 0.039216
0.545098 0.133333 0.050980
0.568627 0.137255 0.050980
0.596078 0.133333 0.043137
0.615686 0.133333 0.054902
0.639216 0.137255 0.066667
0.662745 0.137255 0.054902
0.686275 0.145098 0.058824
0.705882 0.145098 0.066667
0.721569 0.137255 0.066667
0.741176 0.137255 0.066667
0.764706 0.137255 0.082353
0.788235 0.145098 0.082353
0.803922 0.145098 0.082353
0.827451 0.145098 0.082353
0.843137 0.145098 0.074510
0.866667 0.145098 0.082353
0.890196 0.137255 0.082353
0.905882 0.145098 0.082353
0.929412 0.145098 0.086275
0.949020 0.152941 0.090196
0.117647 0.168627 0.019608
0.160784 0.164706 0.011765
0.184314 0.168627 0.027451
0.231373 0.164706 0.027451
0.258824 0.168627 0.027451
0.294118 0.168627 0.023529
0.325490 0.176471 0.027451
0.356863 0.164706 0.023529
0.388235 0.168627 0.043137
0.427451 0.168627 0.050980
0.450980 0.176471 0.039216
0.490196 0.176471 0.043137
0.513726 0.176471 0.050980
0.541176 0.168627 0.043137
0.568627 0.168627 0.054902
0.596078 0.168627 0.058824
0.619608 0.176471 0.050980
0.639216 0.180392 0.050980
0.666667 0.176471 0.058824
0.682353 0.176471 0.054902
0.709804 0.176471 0.058824
0.721569 0.180392 0.074510
0.749020 0.176471 0.070588
0.760784 0.180392 0.074510
0.788235 0.180392 0.082353
0.803922 0.176471 0.074510
0.827451 0.176471 0.082353
0.847059 0.180392 0.082353
0.866667 0.180392 0.082353
0.890196 0.180392 0.086275
0.909804 0.180392 0.086275
0.929412 0.184314 0.086275
0.949020 0.184314 0.090196
0.121569 0.200000 0.027451
0.160784 0.200000 0.027451
0.196078 0.203922 0.027451
0.231373 0.203922 0.023529
0.266667 0.211765 0.023529
0.294118 0.203922 0.019608
0.325490 0.203922 0.039216
0.356863 0.203922 0.039216
0.396078 0.203922 0.043137
0.427451 0.211765 0.043137
0.458824 0.211765 0.043137
0.486275 0.203922 0.039216
0.509804 0.203922 0.054902
0.541176 0.211765 0.058824
0.568627 0.211765 0.050980
0.596078 0.211765 0.050980
0.619608 0.215686 0.054902
0.639216 0.211765 0.050980
0.662745 0.211765 0.054902
0.682353 0.211765 0.070588
0.709804 0.215686 0.066667
0.729412 0.215686 0.070588
0.749020 0.215686 0.070588
0.764706 0.211765 0.070588
0.788235 0.215686 0.082353
0.803922 0.215686 0.082353
0.827451 0.215686 0.082353
0.854902 0.215686 0.086275
0.866667 0.219608 0.086275
0.894118 0.215686 0.086275
0.905882 0.215686 0.086275
0.933333 0.219608 0.090196
0.949020 0.223529 0.090196
0.117647 0.239216 0.027451
0.164706 0.235294 0.035294
0.196078 0.247059 0.023529
0.231373 0.235294 0.019608
0.254902 0.239216 0.035294
0.294118 0.235294 0.035294
0.325490 0.239216 0.039216
0.372549 0.247059 0.039216
0.392157 0.250980 0.039216
0.427451 0.239216 0.039216
0.450980 0.247059 0.050980
0.486275 0.239216 0.054902
0.509804 0.247059 0.043137
0.545098 0.247059 0.050980
0.568627 0.250980 0.054902
0.596078 0.239216 0.050980
0.615686 0.247059 0.050980
0.647059 0.247059 0.066667
0.662745 0.250980 0.058824
0.690196 0.247059 0.066667
0.705882 0.254902 0.066667
0.729412 0.247059 0.066667
0.745098 0.250980 0.070588
0.768627 0.247059 0.086275
0.788235 0.254902 0.082353
0.807843 0.250980 0.086275
0.827451 0.254902 0.086275
0.854902 0.254902 0.086275
0.870588 0.250980 0.086275
0.890196 0.250980 0.086275
0.913725 0.254902 0.090196
0.933333 0.258824 0.098039
0.952941 0.258824 0.098039
0.121569 0.274510 0.027451
0.152941 0.270588 0.019608
0.188235 0.270588 0.039216
0.223529 0.274510 0.039216
0.258824 0.274510 0.039216
0.294118 0.282353 0.027451
0.329412 0.282353 0.035294
0.368627 0.282353 0.035294
0.396078 0.274510 0.043137
0.427451 0.274510 0.054902
0.458824 0.282353 0.043137
0.490196 0.282353 0.043137
0.513726 0.286275 0.054902
0.541176 0.282353 0.050980
0.568627 0.282353 0.050980
0.596078 0.282353 0.058824
0.623529 0.282353 0.054902
0.647059 0.286275 0.058824
0.666667 0.286275 0.058824
0.686275 0.282353 0.058824
0.709804 0.282353 0.066667
0.729412 0.282353 0.082353
0.749020 0.286275 0.070588
0.768627 0.286275 0.082353
0.788235 0.290196 0.086275
0.807843 0.290196 0.086275
0.827451 0.286275 0.086275
0.847059 0.286275 0.086275
0.870588 0.290196 0.086275
0.890196 0.290196 0.086275
0.913725 0.294118 0.098039
0.929412 0.290196 0.090196
0.949020 0.294118 0.090196
0.117647 0.309804 0.039216
0.160784 0.305882 0.039216
0.188235 0.309804 0.039216
0.235294 0.309804 0.027451
0.258824 0.313726 0.035294
0.301961 0.305882 0.027451
0.329412 0.313726 0.043137
0.372549 0.309804 0.050980
0.396078 0.313726 0.050980
0.431373 0.313726 0.043137
0.458824 0.317647 0.050980
0.490196 0.309804 0.043137
0.513726 0.309804 0.050980
0.549020 0.309804 0.058824
0.576471 0.313726 0.054902
0.603922 0.313726 0.054902
0.623529 0.317647 0.054902
0.647059 0.313726 0.054902
0.662745 0.317647 0.058824
0.690196 0.313726 0.074510
0.709804 0.317647 0.066667
0.733333 0.317647 0.074510
0.749020 0.325490 0.082353
0.776471 0.317647 0.082353
0.784314 0.317647 0.086275
0.811765 0.313726 0.098039
0.827451 0.325490 0.086275
0.854902 0.317647 0.086275
0.866667 0.325490 0.090196
0.894118 0.325490 0.090196
0.909804 0.329412 0.090196
0.933333 0.325490 0.098039
0.949020 0.333333 0.098039
0.121569 0.337255 0.039216
0.160784 0.337255 0.039216
0.196078 0.345098 0.035294
0.223529 0.345098 0.027451
0.258824 0.337255 0.039216
0.301961 0.345098 0.050980
0.333333 0.345098 0.050980
0.372549 0.349020 0.039216
0.400000 0.349020 0.043137
0.427451 0.345098 0.043137
0.458824 0.349020 0.043137
0.486275 0.349020 0.054902
0.513726 0.349020 0.054902
0.545098 0.352941 0.054902
0.576471 0.352941 0.054902
0.600000 0.349020 0.050980
0.623529 0.345098 0.054902
0.647059 0.349020 0.070588
0.666667 0.352941 0.058824
0.690196 0.352941 0.070588
0.709804 0.352941 0.070588
0.733333 0.356863 0.074510
0.749020 0.352941 0.082353
0.768627 0.352941 0.090196
0.788235 0.352941 0.086275
0.811765 0.356863 0.086275
0.831373 0.356863 0.090196
0.854902 0.356863 0.090196
0.870588 0.352941 0.086275
0.894118 0.364706 0.098039
0.913725 0.364706 0.098039
0.933333 0.364706 0.098039
0.952941 0.368627 0.101961
0.117647 0.376471 0.035294
0.149020 0.372549 0.027451
0.184314 0.372549 0.039216
0.219608 0.372549 0.050980
0.266667 0.372549 0.050980
0.301961 0.380392 0.043137
0.337255 0.380392 0.050980
0.364706 0.380392 0.043137
0.400000 0.376471 0.043137
0.427451 0.380392 0.054902
0.466667 0.376471 0.058824
0.490196 0.388235 0.050980
0.521569 0.380392 0.054902
0.541176 0.380392 0.050980
0.576471 0.380392 0.054902
0.596078 0.388235 0.066667
0.623529 0.380392 0.054902
0.650980 0.388235 0.066667
0.666667 0.392157 0.066667
0.694118 0.388235 0.070588
0.705882 0.388235 0.070588
0.733333 0.380392 0.086275
0.749020 0.392157 0.082353
0.776471 0.388235 0.082353
0.788235 0.392157 0.090196
0.815686 0.392157 0.090196
0.827451 0.392157 0.086275
0.854902 0.388235 0.090196
0.874510 0.396078 0.098039
0.898039 0.396078 0.098039
0.913725 0.400000 0.101961
0.941176 0.396078 0.101961
0.949020 0.396078 0.098039
0.117647 0.403922 0.043137
0.152941 0.403922 0.050980
0.188235 0.403922 0.050980
0.231373 0.403922 0.050980
0.270588 0.415686 0.050980
0.301961 0.407843 0.043137
0.333333 0.415686 0.043137
0.368627 0.407843 0.054902
0.400000 0.415686 0.058824
0.431373 0.415686 0.050980
0.462745 0.419608 0.050980
0.490196 0.415686 0.043137
0.513726 0.415686 0.054902
0.549020 0.415686 0.066667
0.576471 0.419608 0.054902
0.603922 0.419608 0.058824
0.623529 0.419608 0.058824
0.650980 0.423529 0.066667
0.666667 0.419608 0.066667
0.690196 0.419608 0.082353
0.709804 0.419608 0.070588
0.733333 0.419608 0.074510
0.756863 0.423529 0.086275
0.776471 0.423529 0.086275
0.792157 0.419608 0.086275
0.811765 0.419608 0.101961
0.831373 0.423529 0.090196
0.854902 0.427451 0.098039
0.878431 0.427451 0.101961
0.898039 0.431373 0.101961
0.913725 0.427451 0.098039
0.933333 0.427451 0.098039
0.960784 0.427451 0.101961
0.129412 0.435294 0.050980
0.152941 0.443137 0.050980
0.200000 0.443137 0.039216
0.223529 0.447059 0.043137
0.270588 0.443137 0.043137
0.301961 0.447059 0.054902
0.337255 0.443137 0.058824
0.368627 0.450980 0.050980
0.407843 0.447059 0.050980
0.427451 0.447059 0.043137
0.466667 0.447059 0.050980
0.486275 0.447059 0.058824
0.521569 0.447059 0.054902
0.545098 0.450980 0.058824
0.580392 0.450980 0.058824
0.603922 0.454902 0.058824
0.623529 0.447059 0.058824
0.643137 0.450980 0.074510
0.666667 0.450980 0.074510
0.690196 0.454902 0.070588
0.709804 0.454902 0.082353
0.729412 0.454902 0.082353
0.749020 0.450980 0.082353
0.768627 0.450980 0.098039
0.788235 0.454902 0.090196
0.811765 0.454902 0.090196
0.831373 0.458824 0.090196
0.854902 0.462745 0.101961
0.878431 0.454902 0.098039
0.894118 0.458824 0.098039
0.921569 0.458824 0.101961
0.933333 0.462745 0.101961
0.960784 0.458824 0.101961
0.121569 0.470588 0.039216
0.160784 0.470588 0.043137
0.188235 0.466667 0.039216
0.231373 0.470588 0.054902
0.266667 0.478431 0.066667
0.301961 0.478431 0.050980
0.333333 0.482353 0.054902
0.364706 0.478431 0.043137
0.396078 0.478431 0.050980
0.427451 0.478431 0.066667
0.462745 0.478431 0.066667
0.494118 0.482353 0.058824
0.521569 0.482353 0.058824
0.552941 0.482353 0.058824
0.576471 0.478431 0.058824
0.603922 0.478431 0.070588
0.623529 0.482353 0.058824
0.650980 0.482353 0.066667
0.666667 0.486275 0.070588
0.694118 0.486275 0.074510
0.705882 0.486275 0.070588
0.733333 0.482353 0.090196
0.749020 0.486275 0.086275
0.776471 0.486275 0.086275
0.792157 0.486275 0.090196
0.815686 0.486275 0.098039
0.835294 0.490196 0.098039
0.854902 0.490196 0.098039
0.878431 0.490196 0.101961
0.898039 0.494118 0.101961
0.921569 0.494118 0.101961
0.941176 0.494118 0.105882
0.956863 0.490196 0.101961
0.113725 0.501961 0.043137
0.149020 0.498039 0.054902
0.196078 0.505882 0.066667
0.231373 0.505882 0.066667
0.274510 0.505882 0.054902
0.294118 0.505882 0.050980
0.337255 0.501961 0.054902
0.364706 0.505882 0.066667
0.403922 0.505882 0.066667
0.427451 0.509804 0.058824
0.466667 0.509804 0.058824
0.494118 0.513726 0.058824
0.521569 0.505882 0.058824
0.549020 0.509804 0.070588
0.580392 0.509804 0.058824
0.603922 0.513726 0.058824
0.631373 0.509804 0.066667
0.647059 0.513726 0.070588
0.666667 0.509804 0.066667
0.690196 0.509804 0.086275
0.717647 0.509804 0.082353
0.729412 0.513726 0.082353
0.756863 0.513726 0.086275
0.776471 0.517647 0.090196
0.792157 0.509804 0.090196
0.815686 0.517647 0.105882
0.843137 0.517647 0.101961
0.854902 0.521569 0.101961
0.882353 0.517647 0.101961
0.898039 0.521569 0.105882
0.921569 0.517647 0.101961
0.933333 0.521569 0.101961
0.960784 0.517647 0.101961
0.121569 0.525490 0.058824
0.149020 0.533333 0.058824
0.200000 0.537255 0.054902
0.223529 0.537255 0.050980
0.266667 0.537255 0.054902
0.301961 0.537255 0.066667
0.333333 0.537255 0.066667
0.372549 0.541176 0.058824
0.403922 0.541176 0.058824
0.435294 0.541176 0.058824
0.462745 0.537255 0.058824
0.494118 0.537255 0.070588
0.521569 0.537255 0.070588
0.552941 0.541176 0.058824
0.580392 0.541176 0.066667
0.607843 0.545098 0.066667
0.623529 0.541176 0.058824
0.647059 0.541176 0.082353
0.670588 0.541176 0.086275
0.694118 0.545098 0.074510
0.717647 0.545098 0.082353
0.737255 0.545098 0.086275
0.756863 0.541176 0.086275
0.776471 0.541176 0.101961
0.792157 0.545098 0.098039
0.819608 0.549020 0.101961
0.839216 0.552941 0.101961
0.862745 0.552941 0.105882
0.878431 0.549020 0.101961
0.898039 0.549020 0.101961
0.921569 0.552941 0.101961
0.941176 0.552941 0.105882
0.960784 0.552941 0.105882
0.121569 0.564706 0.050980
0.160784 0.564706 0.050980
0.196078 0.564706 0.054902
0.231373 0.564706 0.066667
0.266667 0.564706 0.066667
0.301961 0.568627 0.070588
0.333333 0.568627 0.058824
0.368627 0.568627 0.058824
0.396078 0.568627 0.058824
0.431373 0.564706 0.070588
0.462745 0.568627 0.070588
0.494118 0.568627 0.058824
0.521569 0.572549 0.066667
0.552941 0.572549 0.066667
0.576471 0.568627 0.058824
0.603922 0.568627 0.074510
0.623529 0.572549 0.066667
0.647059 0.572549 0.070588
0.670588 0.572549 0.070588
0.694118 0.576471 0.082353
0.709804 0.572549 0.082353
0.733333 0.572549 0.090196
0.756863 0.568627 0.090196
0.776471 0.576471 0.090196
0.803922 0.576471 0.101961
0.819608 0.580392 0.105882
0.843137 0.576471 0.101961
0.854902 0.576471 0.113725
0.882353 0.576471 0.101961
0.898039 0.580392 0.105882
0.921569 0.580392 0.105882
0.941176 0.584314 0.105882
0.960784 0.576471 0.101961
0.129412 0.592157 0.054902
0.160784 0.592157 0.066667
0.200000 0.592157 0.066667
0.223529 0.596078 0.070588
0.274510 0.596078 0.058824
0.294118 0.600000 0.058824
0.337255 0.592157 0.058824
0.356863 0.596078 0.070588
0.400000 0.592157 0.070588
0.423529 0.600000 0.058824
0.462745 0.596078 0.066667
0.490196 0.600000 0.066667
0.521569 0.596078 0.058824
0.549020 0.596078 0.074510
0.576471 0.596078 0.066667
0.607843 0.596078 0.066667
0.631373 0.600000 0.066667
0.647059 0.603922 0.074510
0.674510 0.596078 0.074510
0.690196 0.600000 0.086275
0.717647 0.596078 0.098039
0.729412 0.603922 0.086275
0.756863 0.600000 0.090196
0.776471 0.603922 0.098039
0.796078 0.603922 0.101961
0.819608 0.603922 0.113725
0.843137 0.603922 0.101961
0.862745 0.607843 0.105882
0.882353 0.607843 0.105882
0.901961 0.607843 0.105882
0.921569 0.603922 0.101961
0.941176 0.607843 0.105882
0.960784 0.607843 0.105882
0.121569 0.615686 0.070588
0.160784 0.615686 0.074510
0.196078 0.619608 0.066667
0.231373 0.619608 0.066667
0.258824 0.615686 0.066667
0.294118 0.615686 0.074510
0.333333 0.619608 0.074510
0.368627 0.619608 0.066667
0.400000 0.623529 0.070588
0.435294 0.619608 0.070588
0.458824 0.619608 0.066667
0.498039 0.615686 0.082353
0.513726 0.619608 0.082353
0.556863 0.619608 0.070588
0.576471 0.623529 0.070588
0.607843 0.623529 0.074510
0.623529 0.619608 0.070588
0.647059 0.619608 0.082353
0.670588 0.623529 0.090196
0.694118 0.623529 0.082353
0.717647 0.627451 0.086275
0.737255 0.627451 0.086275
0.752941 0.623529 0.090196
0.776471 0.627451 0.113725
0.796078 0.631373 0.101961
0.819608 0.631373 0.105882
0.843137 0.631373 0.105882
0.862745 0.635294 0.105882
0.878431 0.631373 0.101961
0.898039 0.631373 0.105882
0.921569 0.631373 0.105882
0.941176 0.635294 0.105882
0.960784 0.635294 0.113725
0.117647 0.639216 0.070588
0.152941 0.639216 0.070588
0.184314 0.639216 0.054902
0.219608 0.639216 0.070588
0.258824 0.639216 0.070588
0.294118 0.639216 0.070588
0.329412 0.643137 0.074510
0.364706 0.643137 0.066667
0.392157 0.639216 0.058824
0.427451 0.643137 0.082353
0.458824 0.647059 0.082353
0.490196 0.647059 0.082353
0.521569 0.647059 0.082353
0.552941 0.650980 0.074510
0.580392 0.643137 0.070588
0.603922 0.647059 0.082353
0.631373 0.643137 0.086275
0.654902 0.647059 0.090196
0.674510 0.650980 0.090196
0.698039 0.650980 0.082353
0.717647 0.650980 0.086275
0.737255 0.647059 0.101961
0.756863 0.650980 0.101961
0.776471 0.650980 0.113725
0.800000 0.654902 0.101961
0.819608 0.654902 0.101961
0.843137 0.654902 0.101961
0.858824 0.650980 0.113725
0.878431 0.650980 0.113725
0.898039 0.654902 0.101961
0.921569 0.654902 0.105882
0.941176 0.654902 0.105882
0.960784 0.658824 0.105882
0.113725 0.662745 0.054902
0.145098 0.662745 0.074510
0.180392 0.662745 0.074510
0.215686 0.666667 0.074510
0.250980 0.666667 0.082353
0.290196 0.666667 0.070588
0.317647 0.666667 0.066667
0.352941 0.666667 0.074510
0.392157 0.670588 0.086275
0.431373 0.666667 0.086275
0.462745 0.670588 0.086275
0.494118 0.670588 0.082353
0.517647 0.666667 0.074510
0.549020 0.666667 0.086275
0.576471 0.670588 0.090196
0.603922 0.670588 0.090196
0.627451 0.674510 0.082353
0.654902 0.674510 0.082353
0.670588 0.674510 0.082353
0.694118 0.670588 0.090196
0.717647 0.674510 0.098039
0.741176 0.670588 0.105882
0.756863 0.678431 0.098039
0.780392 0.674510 0.101961
0.796078 0.682353 0.101961
0.819608 0.670588 0.113725
0.839216 0.678431 0.113725
0.862745 0.674510 0.113725
0.878431 0.678431 0.105882
0.901961 0.678431 0.105882
0.921569 0.682353 0.105882
0.945098 0.682353 0.113725
0.960784 0.682353 0.121569
0.105882 0.694118 0.074510
0.152941 0.690196 0.074510
0.176471 0.694118 0.082353
0.219608 0.694118 0.082353
0.247059 0.694118 0.066667
0.290196 0.690196 0.074510
0.317647 0.690196 0.082353
0.356863 0.694118 0.090196
0.392157 0.694118 0.090196
0.423529 0.698039 0.086275
0.450980 0.694118 0.074510
0.486275 0.694118 0.090196
0.513726 0.694118 0.098039
0.545098 0.694118 0.098039
0.572549 0.698039 0.086275
0.600000 0.698039 0.086275
0.619608 0.694118 0.086275
0.647059 0.694118 0.098039
0.670588 0.698039 0.098039
0.694118 0.698039 0.101961
0.717647 0.698039 0.090196
0.741176 0.701961 0.098039
0.760784 0.701961 0.098039
0.776471 0.698039 0.113725
0.800000 0.698039 0.113725
0.819608 0.698039 0.113725
0.843137 0.701961 0.105882
0.862745 0.701961 0.105882
0.882353 0.705882 0.105882
0.898039 0.701961 0.101961
0.921569 0.701961 0.117647
0.945098 0.705882 0.113725
0.964706 0.709804 0.113725
0.105882 0.717647 0.086275
0.145098 0.717647 0.086275
0.184314 0.713726 0.070588
0.211765 0.713726 0.082353
0.254902 0.713726 0.086275
0.286275 0.717647 0.086275
0.325490 0.713726 0.086275
0.352941 0.721569 0.086275
0.396078 0.717647 0.082353
0.415686 0.717647 0.090196
0.454902 0.717647 0.098039
0.478431 0.721569 0.098039
0.513726 0.717647 0.098039
0.541176 0.725490 0.086275
0.568627 0.717647 0.086275
0.592157 0.721569 0.098039
0.619608 0.717647 0.098039
0.643137 0.721569 0.101961
0.666667 0.721569 0.101961
0.694118 0.725490 0.090196
0.717647 0.725490 0.090196
0.737255 0.721569 0.105882
0.756863 0.721569 0.105882
0.776471 0.725490 0.113725
0.800000 0.725490 0.105882
0.819608 0.729412 0.105882
0.843137 0.729412 0.105882
0.862745 0.721569 0.101961
0.878431 0.725490 0.117647
0.905882 0.725490 0.105882
0.921569 0.733333 0.113725
0.949020 0.729412 0.117647
0.964706 0.737255 0.117647
0.105882 0.737255 0.070588
0.145098 0.737255 0.082353
0.180392 0.737255 0.090196
0.215686 0.737255 0.090196
0.250980 0.741176 0.090196
0.286275 0.741176 0.098039
0.317647 0.741176 0.086275
0.352941 0.741176 0.098039
0.388235 0.741176 0.101961
0.419608 0.741176 0.101961
0.450980 0.741176 0.101961
0.486275 0.745098 0.090196
0.509804 0.741176 0.090196
0.537255 0.741176 0.101961
0.564706 0.741176 0.101961
0.592157 0.745098 0.105882
0.615686 0.745098 0.098039
0.643137 0.749020 0.098039
0.662745 0.752941 0.098039
0.694118 0.745098 0.105882
0.709804 0.749020 0.105882
0.741176 0.745098 0.105882
0.756863 0.752941 0.101961
0.780392 0.749020 0.105882
0.796078 0.752941 0.105882
0.819608 0.745098 0.101961
0.839216 0.749020 0.117647
0.862745 0.749020 0.117647
0.882353 0.749020 0.105882
0.909804 0.756863 0.117647
0.929412 0.756863 0.117647
0.945098 0.752941 0.113725
0.964706 0.752941 0.129412
0.105882 0.756863 0.090196
0.137255 0.760784 0.090196
0.180392 0.756863 0.090196
0.211765 0.760784 0.098039
0.254902 0.760784 0.086275
0.274510 0.760784 0.090196
0.325490 0.760784 0.101961
0.349020 0.764706 0.101961
0.392157 0.764706 0.101961
0.419608 0.768627 0.090196
0.450980 0.764706 0.090196
0.478431 0.764706 0.101961
0.509804 0.764706 0.101961
0.533333 0.768627 0.113725
0.572549 0.768627 0.098039
0.592157 0.772549 0.101961
0.623529 0.768627 0.098039
0.635294 0.768627 0.113725
0.662745 0.768627 0.113725
0.686275 0.768627 0.113725
0.709804 0.772549 0.117647
0.737255 0.772549 0.105882
0.756863 0.776471 0.105882
0.776471 0.772549 0.101961
0.800000 0.772549 0.117647
0.819608 0.772549 0.117647
0.847059 0.772549 0.105882
0.862745 0.776471 0.113725
0.890196 0.772549 0.113725
0.901961 0.776471 0.113725
0.929412 0.776471 0.129412
0.945098 0.776471 0.117647
0.968627 0.776471 0.117647
0.101961 0.780392 0.098039
0.137255 0.784314 0.101961
0.176471 0.784314 0.090196
0.203922 0.780392 0.098039
0.239216 0.780392 0.098039
0.286275 0.788235 0.105882
0.317647 0.788235 0.105882
0.352941 0.792157 0.098039
0.380392 0.788235 0.098039
0.415686 0.788235 0.105882
0.447059 0.788235 0.105882
0.478431 0.788235 0.113725
0.505882 0.792157 0.113725
0.537255 0.792157 0.101961
0.564706 0.792157 0.101961
0.588235 0.788235 0.113725
0.611765 0.792157 0.113725
0.643137 0.792157 0.113725
0.662745 0.792157 0.117647
0.694118 0.792157 0.105882
0.709804 0.796078 0.105882
0.737255 0.792157 0.101961
0.756863 0.792157 0.117647
0.780392 0.792157 0.117647
0.803922 0.792157 0.105882
0.823529 0.792157 0.113725
0.843137 0.796078 0.113725
0.862745 0.792157 0.105882
0.890196 0.796078 0.129412
0.909804 0.796078 0.129412
0.929412 0.800000 0.117647
0.949020 0.800000 0.117647
0.968627 0.800000 0.121569
0.101961 0.807843 0.090196
0.133333 0.803922 0.098039
0.168627 0.803922 0.098039
0.203922 0.803922 0.101961
0.247059 0.807843 0.105882
0.282353 0.811765 0.105882
0.309804 0.807843 0.098039
0.345098 0.807843 0.105882
0.380392 0.807843 0.105882
0.415686 0.811765 0.113725
0.447059 0.811765 0.113725
0.478431 0.815686 0.101961
0.505882 0.815686 0.101961
0.533333 0.811765 0.113725
0.568627 0.807843 0.113725
0.588235 0.811765 0.113725
0.619608 0.811765 0.105882
0.639216 0.815686 0.105882
0.670588 0.815686 0.105882
0.690196 0.815686 0.101961
0.717647 0.811765 0.117647
0.737255 0.815686 0.117647
0.760784 0.815686 0.105882
0.780392 0.819608 0.113725
0.807843 0.815686 0.113725
0.819608 0.815686 0.105882
0.847059 0.811765 0.117647
0.866667 0.819608 0.129412
0.890196 0.819608 0.117647
0.909804 0.819608 0.117647
0.929412 0.819608 0.121569
0.945098 0.819608 0.117647
0.968627 0.819608 0.129412
0.101961 0.823529 0.098039
0.133333 0.827451 0.101961
0.176471 0.827451 0.101961
0.203922 0.831373 0.101961
0.250980 0.831373 0.098039
0.274510 0.831373 0.105882
0.317647 0.831373 0.105882
0.345098 0.831373 0.113725
0.388235 0.831373 0.113725
0.415686 0.835294 0.101961
0.450980 0.831373 0.101961
0.470588 0.831373 0.113725
0.505882 0.831373 0.113725
0.533333 0.835294 0.113725
0.568627 0.831373 0.117647
0.596078 0.835294 0.105882
0.619608 0.835294 0.105882
0.643137 0.831373 0.101961
0.666667 0.831373 0.117647
0.694118 0.831373 0.117647
0.717647 0.835294 0.117647
0.741176 0.835294 0.113725
0.760784 0.839216 0.113725
0.780392 0.835294 0.105882
0.803922 0.835294 0.117647
0.827451 0.835294 0.121569
0.847059 0.835294 0.113725
0.870588 0.843137 0.117647
0.890196 0.843137 0.121569
0.909804 0.839216 0.117647
0.929412 0.839216 0.129412
0.949020 0.843137 0.121569
0.968627 0.843137 0.121569
0.101961 0.847059 0.101961
0.137255 0.847059 0.101961
0.176471 0.850980 0.098039
0.211765 0.850980 0.105882
0.247059 0.850980 0.105882
0.286275 0.854902 0.113725
0.317647 0.854902 0.113725
0.352941 0.854902 0.113725
0.388235 0.854902 0.101961
0.415686 0.854902 0.113725
0.447059 0.854902 0.113725
0.478431 0.854902 0.113725
0.505882 0.854902 0.117647
0.537255 0.854902 0.105882
0.564706 0.854902 0.105882
0.596078 0.854902 0.101961
0.615686 0.854902 0.117647
0.643137 0.854902 0.117647
0.666667 0.854902 0.117647
0.694118 0.858824 0.113725
0.717647 0.858824 0.113725
0.737255 0.854902 0.105882
0.756863 0.854902 0.117647
0.780392 0.854902 0.121569
0.803922 0.858824 0.113725
0.823529 0.858824 0.113725
0.850980 0.866667 0.121569
