assets/luts/warm_room.cube
TITLE "myaniform/warm_room"
LUT_3D_SIZE 5
DOMAIN_MIN 0.0 0.0 0.0
DOMAIN_MAX 1.0 1.0 1.0
0.121569 0.086275 0.023529
0.392157 0.086275 0.035294
0.619608 0.101961 0.050980
0.788235 0.101961 0.070588
0.949020 0.105882 0.082353
0.117647 0.376471 0.035294
0.400000 0.376471 0.043137
0.623529 0.380392 0.054902
0.788235 0.392157 0.090196
0.949020 0.396078 0.098039
0.121569 0.615686 0.070588
0.400000 0.623529 0.070588
0.623529 0.619608 0.070588
0.796078 0.631373 0.101961
0.960784 0.635294 0.113725
0.101961 0.807843 0.090196
0.380392 0.807843 0.105882
0.619608 0.811765 0.105882
0.807843 0.815686 0.113725
0.968627 0.819608 0.129412
0.117647 0.972549 0.117647
0.396078 0.976471 0.113725
0.619608 0.976471 0.121569
0.811765 0.980392 0.137255
0.972549 0.988235 0.133333
0.113725 0.090196 0.313726
0.392157 0.090196 0.317647
0.615686 0.101961 0.325490
0.780392 0.105882 0.368627
0.949020 0.113725 0.364706
0.121569 0.376471 0.329412
0.396078 0.380392 0.349020
0.607843 0.388235 0.372549
0.792157 0.392157 0.368627
0.956863 0.396078 0.372549
0.129412 0.619608 0.352941
0.368627 0.619608 0.364706
0.615686 0.627451 0.372549
0.800000 0.631373 0.392157
0.956863 0.631373 0.380392
0.101961 0.807843 0.376471
0.380392 0.811765 0.388235
0.611765 0.811765 0.388235
0.803922 0.819608 0.388235
0.968627 0.823529 0.403922
0.113725 0.972549 0.388235
0.392157 0.976471 0.380392
0.627451 0.980392 0.403922
0.811765 0.980392 0.403922
0.976471 0.980392 0.400000
0.113725 0.090196 0.568627
0.388235 0.098039 0.572549
0.615686 0.105882 0.572549
0.788235 0.105882 0.603922
0.949020 0.117647 0.600000
0.117647 0.380392 0.580392
0.356863 0.380392 0.600000
0.607843 0.392157 0.607843
0.792157 0.400000 0.607843
0.949020 0.396078 0.611765
0.121569 0.619608 0.588235
0.376471 0.627451 0.611765
0.611765 0.623529 0.611765
0.803922 0.627451 0.615686
0.968627 0.639216 0.619608
0.105882 0.803922 0.611765
0.388235 0.807843 0.611765
0.623529 0.815686 0.619608
0.803922 0.823529 0.619608
0.968627 0.819608 0.627451
0.117647 0.972549 0.615686
0.400000 0.980392 0.627451
0.623529 0.980392 0.627451
0.811765 0.984314 0.631373
0.976471 0.988235 0.635294
0.082353 0.098039 0.776471
0.356863 0.098039 0.768627
0.603922 0.105882 0.780392
0.792157 0.113725 0.792157
0.949020 0.113725 0.784314
0.090196 0.380392 0.776471
0.368627 0.380392 0.788235
0.607843 0.392157 0.784314
0.796078 0.396078 0.792157
0.956863 0.400000 0.792157
0.098039 0.619608 0.792157
0.372549 0.627451 0.792157
0.615686 0.627451 0.800000
0.800000 0.635294 0.796078
0.960784 0.639216 0.803922
0.101961 0.811765 0.796078
0.380392 0.815686 0.800000
0.615686 0.819608 0.800000
0.807843 0.819608 0.807843
0.968627 0.819608 0.811765
0.121569 0.968627 0.800000
0.403922 0.976471 0.807843
0.635294 0.980392 0.811765
0.815686 0.988235 0.811765
0.980392 0.988235 0.815686
0.074510 0.098039 0.941176
0.356863 0.101961 0.941176
0.600000 0.113725 0.949020
0.788235 0.113725 0.949020
0.949020 0.117647 0.949020
0.082353 0.388235 0.945098
0.372549 0.388235 0.949020
0.607843 0.396078 0.949020
0.796078 0.400000 0.949020
0.960784 0.400000 0.960784
0.101961 0.615686 0.949020
0.388235 0.627451 0.949020
0.611765 0.623529 0.956863
0.803922 0.635294 0.960784
0.968627 0.639216 0.960784
0.117647 0.811765 0.956863
0.392157 0.815686 0.960784
0.623529 0.819608 0.960784
0.803922 0.823529 0.968627
0.972549 0.823529 0.972549
0.121569 0.980392 0.964706
0.400000 0.980392 0.968627
0.623529 0.980392 0.968627
0.815686 0.988235 0.976471
0.980392 0.988235 0.980392
